;FLAVOR:Marlin
;TIME:13300
;Filament used: 33.0061m
;Layer height: 0.4
;MINX:101.311
;MINY:67.799
;MINZ:0.4
;MAXX:198.696
;MAXY:182.201
;MAXZ:30
;Generated with Cura_SteamEngine 4.6.0
M140 S80
M105
M190 S80
M104 S250
M105
M109 S250
M82 ;absolute extrusion mode
G28 ; home all axes
 M117 Purge extruder
 G92 E0 ; reset extruder
 G1 Z1.0 F3000 ; move z up little to prevent scratching of surface
 G1 X2 Y20 Z0.3 F5000.0 ; move to start-line position
 G1 X2 Y200.0 Z0.3 F1500.0 E15 ; draw 1st line
 G1 X2 Y200.0 Z0.4 F5000.0 ; move to side a little
 G1 X2 Y20 Z0.4 F1500.0 E30 ; draw 2nd line
 G92 E0 ; reset extruder
 G1 Z1.0 F3000 ; move z up little to prevent scratching of surface
G92 E0
G92 E0
G1 F1500 E-2
;LAYER_COUNT:75
;LAYER:0
M107
G0 F900 X191.431 Y70.837 Z0.4
;TYPE:SKIRT
G1 F1500 E0
G1 F1200 X191.72 Y70.874 E0.0514
G1 X192.238 Y70.981 E0.14472
G1 X192.547 Y71.085 E0.20224
G1 X192.842 Y71.2 E0.25811
G1 X193.319 Y71.429 E0.35146
G1 X193.659 Y71.652 E0.42319
G1 X193.92 Y71.846 E0.48057
G1 X194.319 Y72.193 E0.57386
G1 X194.571 Y72.476 E0.64072
G1 X194.818 Y72.793 E0.71162
G1 X195.101 Y73.239 E0.80481
G1 X195.22 Y73.487 E0.85334
G1 X195.344 Y73.772 E0.90818
G1 X195.518 Y74.271 E1.00141
G1 X195.594 Y74.635 E1.06702
G1 X195.647 Y74.979 E1.12842
G1 X195.686 Y75.4 E1.20302
G1 X195.696 Y75.754 E1.2655
G1 X195.697 Y76.342 E1.36924
G1 X195.687 Y77.04 E1.4924
G1 X195.667 Y77.373 E1.55126
G1 X195.643 Y77.587 E1.58925
G1 X195.612 Y77.802 E1.62757
G1 X195.505 Y78.293 E1.71623
G1 X195.433 Y78.537 E1.76111
G1 X194.687 Y81.215 E2.25158
G1 X194.025 Y83.877 E2.73554
G1 X193.447 Y86.517 E3.21234
G1 X192.936 Y89.211 E3.69611
G1 X192.504 Y91.91 E4.17835
G1 X192.152 Y94.59 E4.65524
G1 X191.868 Y97.355 E5.14563
G1 X191.669 Y100.048 E5.62205
G1 X191.546 Y102.748 E6.0989
G1 X191.496 Y105.876 E6.65084
G1 X191.496 Y125.841 E10.17323
G1 X191.483 Y126.67 E10.31951
G1 X191.442 Y127.628 E10.48868
G1 X191.363 Y130.42 E10.98147
G1 X191.363 Y133.121 E11.458
G1 X191.441 Y135.888 E11.94637
G1 X191.595 Y138.587 E12.42333
G1 X191.827 Y141.307 E12.90496
G1 X191.999 Y142.817 E13.17308
G1 X192.004 Y142.861 E13.1809
G1 X192.135 Y144.181 E13.41493
G1 X192.167 Y144.652 E13.49822
G1 X192.175 Y144.874 E13.53741
G1 X192.175 Y146.275 E13.78459
G1 X192.164 Y146.476 E13.8201
G1 X192.13 Y146.893 E13.89392
G1 X192.125 Y146.893 E13.8948
G1 X192.118 Y147.018 E13.91689
G1 X192.036 Y147.721 E14.04176
G1 X192.007 Y147.924 E14.07793
G1 X191.903 Y148.489 E14.17929
G1 X191.792 Y149.014 E14.27396
G1 X191.743 Y149.218 E14.31098
G1 X191.492 Y150.122 E14.4765
G1 X191.4 Y150.42 E14.53153
G1 X191.32 Y150.623 E14.57002
G1 X191.329 Y150.626 E14.5717
G1 X191.01 Y151.464 E14.72989
G1 X190.902 Y151.725 E14.77973
G1 X190.813 Y151.924 E14.81819
G1 X190.339 Y152.891 E15.00819
G1 X190.212 Y153.135 E15.05672
G1 X190.106 Y153.324 E15.09495
G1 X189.834 Y153.77 E15.18712
G1 X189.45 Y154.363 E15.31176
G1 X189.447 Y154.361 E15.31239
G1 X189.333 Y154.534 E15.34895
G1 X189.081 Y154.877 E15.42404
G1 X189.018 Y154.96 E15.44242
G1 X188.599 Y155.495 E15.56232
G1 X188.452 Y155.666 E15.6021
G1 X188.453 Y155.667 E15.60235
G1 X188.136 Y156.024 E15.68658
G1 X187.699 Y156.487 E15.79891
G1 X187.547 Y156.639 E15.83683
G1 X186.856 Y157.284 E16.0036
G1 X186.679 Y157.439 E16.04511
G1 X186.51 Y157.578 E16.08372
G1 X185.569 Y158.301 E16.29308
G1 X185.24 Y158.533 E16.36411
G1 X184.833 Y158.793 E16.44931
G1 X184.193 Y159.176 E16.5809
G1 X184.027 Y159.269 E16.61447
G1 X183.517 Y159.532 E16.71571
G1 X182.997 Y159.78 E16.81735
G1 X182.809 Y159.863 E16.85361
G1 X181.984 Y160.196 E17.01057
G1 X181.652 Y160.318 E17.07298
G1 X181.647 Y160.304 E17.0756
G1 X181.453 Y160.386 E17.11276
G1 X180.613 Y160.636 E17.26738
G1 X180.345 Y160.707 E17.3163
G1 X180.139 Y160.755 E17.35361
G1 X179.035 Y160.977 E17.55229
G1 X178.723 Y161.026 E17.60801
G1 X177.544 Y161.151 E17.81719
G1 X177.312 Y161.163 E17.85817
G1 X176.597 Y161.175 E17.98434
G1 X176.597 Y161.174 E17.98451
G1 X173.879 Y161.257 E18.46427
G1 X171.153 Y161.416 E18.94603
G1 X168.416 Y161.655 E19.43075
G1 X165.712 Y161.967 E19.91098
G1 X163.025 Y162.356 E20.38998
G1 X160.295 Y162.829 E20.87881
G1 X157.641 Y163.367 E21.35657
G1 X154.986 Y163.983 E21.83743
G1 X152.35 Y164.676 E22.3183
G1 X149.747 Y165.437 E22.79677
G1 X147.118 Y166.289 E23.28435
G1 X144.545 Y167.203 E23.76609
G1 X142.02 Y168.182 E24.24388
G1 X139.494 Y169.245 E24.7274
G1 X137.009 Y170.372 E25.2088
G1 X134.577 Y171.561 E25.68641
G1 X132.137 Y172.839 E26.17237
G1 X129.781 Y174.162 E26.64909
G1 X127.425 Y175.571 E27.13341
G1 X125.109 Y177.048 E27.61804
G1 X123.812 Y177.932 E27.89497
G1 X123.064 Y178.428 E28.05331
G1 X122.527 Y178.72 E28.16115
G1 X122.233 Y178.848 E28.21773
G1 X121.734 Y179.022 E28.31096
G1 X121.366 Y179.099 E28.3773
G1 X121.02 Y179.152 E28.43905
G1 X120.601 Y179.19 E28.51328
G1 X120.143 Y179.201 E28.59411
G1 X113.161 Y179.201 E29.82593
G1 X112.464 Y179.191 E29.94891
G1 X112.071 Y179.163 E30.01842
G1 X111.781 Y179.126 E30.07
G1 X111.263 Y179.02 E30.16329
G1 X110.95 Y178.914 E30.22159
G1 X110.648 Y178.796 E30.27879
G1 X110.172 Y178.567 E30.37199
G1 X109.835 Y178.346 E30.44309
G1 X109.598 Y178.17 E30.49517
G1 X109.199 Y177.824 E30.58835
G1 X108.943 Y177.535 E30.65646
G1 X108.736 Y177.274 E30.71523
G1 X108.439 Y176.836 E30.8086
G1 X108.266 Y176.489 E30.87701
G1 X108.122 Y176.154 E30.94134
G1 X108.116 Y176.139 E30.94419
G1 X107.958 Y175.634 E31.03755
G1 X107.907 Y175.373 E31.08446
G1 X107.853 Y175.023 E31.14694
G1 X107.82 Y174.597 E31.22233
G1 X107.814 Y174.597 E31.22339
G1 X107.804 Y174.241 E31.28622
G1 X107.803 Y173.657 E31.38925
G1 X107.813 Y172.959 E31.51241
G1 X107.833 Y172.624 E31.57162
G1 X107.858 Y172.406 E31.61034
G1 X107.89 Y172.187 E31.64938
G1 X107.97 Y171.797 E31.71962
G1 X108.073 Y171.408 E31.79062
G1 X108.084 Y171.365 E31.79845
G1 X108.632 Y169.397 E32.15887
G1 X109.289 Y166.75 E32.64005
G1 X109.865 Y164.116 E33.11574
G1 X110.375 Y161.413 E33.60104
G1 X110.809 Y158.699 E34.08595
G1 X111.159 Y156.024 E34.56192
G1 X111.436 Y153.307 E35.04376
G1 X111.642 Y150.52 E35.53681
G1 X111.763 Y147.841 E36.00994
G1 X111.81 Y145.124 E36.48937
G1 X111.778 Y142.369 E36.97546
G1 X111.671 Y139.67 E37.45202
G1 X111.485 Y136.933 E37.93602
G1 X111.224 Y134.216 E38.41758
G1 X110.884 Y131.497 E38.90102
G1 X110.474 Y128.836 E39.37604
G1 X109.978 Y126.126 E39.8621
G1 X109.412 Y123.459 E40.34312
G1 X108.763 Y120.781 E40.82927
G1 X108.052 Y118.172 E41.30636
G1 X107.263 Y115.566 E41.78674
G1 X106.395 Y112.968 E42.27
G1 X105.178 Y109.643 E42.89469
G1 X105.179 Y109.643 E42.89487
G1 X105.108 Y109.431 E42.93431
G1 X104.766 Y108.25 E43.15123
G1 X104.717 Y108.062 E43.18551
G1 X104.674 Y107.876 E43.21919
G1 X104.567 Y107.336 E43.31631
G1 X104.479 Y106.794 E43.41319
G1 X104.451 Y106.579 E43.45144
G1 X104.339 Y105.437 E43.65389
G1 X104.317 Y105.125 E43.70907
G1 X104.311 Y104.958 E43.73856
G1 X104.31 Y104.38 E43.84053
G1 X104.322 Y103.897 E43.92577
G1 X104.334 Y103.679 E43.96429
G1 X104.451 Y102.397 E44.19141
G1 X104.483 Y102.176 E44.23081
G1 X104.648 Y101.265 E44.39415
G1 X104.743 Y100.821 E44.47426
G1 X104.754 Y100.823 E44.47623
G1 X104.792 Y100.618 E44.51302
G1 X104.925 Y100.145 E44.5997
G1 X105.168 Y99.368 E44.74333
G1 X105.216 Y99.231 E44.76895
G1 X105.394 Y98.765 E44.85696
G1 X105.684 Y98.073 E44.98933
G1 X105.761 Y97.903 E45.02226
G1 X105.994 Y97.427 E45.11576
G1 X106.012 Y97.394 E45.12239
G1 X106.274 Y96.899 E45.2212
G1 X106.384 Y96.706 E45.26039
G1 X106.889 Y95.886 E45.4303
G1 X107.005 Y95.709 E45.46764
G1 X107.136 Y95.521 E45.50806
G1 X107.871 Y94.549 E45.72306
G1 X108.1 Y94.27 E45.78674
G1 X108.37 Y93.965 E45.85861
G1 X108.978 Y93.329 E46.01384
G1 X109.143 Y93.175 E46.05366
G1 X109.139 Y93.171 E46.05466
G1 X109.525 Y92.821 E46.14659
G1 X110.065 Y92.354 E46.27254
G1 X110.226 Y92.222 E46.30928
G1 X110.685 Y91.875 E46.41079
G1 X111.286 Y91.449 E46.54076
G1 X111.413 Y91.365 E46.56763
G1 X111.877 Y91.077 E46.66398
G1 X112.638 Y90.642 E46.81862
G1 X113.148 Y90.387 E46.91922
G1 X113.183 Y90.37 E46.92609
G1 X113.677 Y90.142 E47.02208
G1 X113.871 Y90.06 E47.05924
G1 X114.773 Y89.71 E47.22994
G1 X115.035 Y89.618 E47.27893
G1 X115.036 Y89.62 E47.27932
G1 X115.236 Y89.553 E47.31654
G1 X116.162 Y89.291 E47.48632
G1 X116.48 Y89.211 E47.54417
G1 X116.692 Y89.174 E47.58214
G1 X116.69 Y89.166 E47.5836
G1 X117.517 Y89.013 E47.73198
G1 X117.993 Y88.939 E47.81697
G1 X118.189 Y88.914 E47.85183
G1 X118.714 Y88.866 E47.94484
G1 X119.443 Y88.821 E48.0737
G1 X119.641 Y88.814 E48.10866
G1 X120.167 Y88.815 E48.20146
G1 X121.513 Y88.857 E48.43904
G1 X121.559 Y88.858 E48.44716
G1 X123.201 Y88.931 E48.73714
G1 X125.94 Y88.976 E49.22045
G1 X128.678 Y88.943 E49.70354
G1 X131.374 Y88.836 E50.17957
G1 X134.107 Y88.648 E50.66289
G1 X136.828 Y88.384 E51.1452
G1 X139.545 Y88.042 E51.62834
G1 X142.253 Y87.623 E52.11179
G1 X144.91 Y87.135 E52.58841
G1 X147.602 Y86.562 E53.07399
G1 X150.24 Y85.922 E53.55291
G1 X152.879 Y85.201 E54.03557
G1 X155.456 Y84.42 E54.51065
G1 X158.096 Y83.536 E55.00183
G1 X160.618 Y82.612 E55.47571
G1 X163.176 Y81.591 E55.96163
G1 X165.68 Y80.509 E56.44289
G1 X168.133 Y79.365 E56.92042
G1 X170.586 Y78.137 E57.4044
G1 X173.028 Y76.825 E57.89348
G1 X175.352 Y75.492 E58.36616
G1 X177.687 Y74.062 E58.84924
G1 X179.973 Y72.572 E59.33066
G1 X181.394 Y71.6 E59.63441
G1 X181.973 Y71.28 E59.75112
G1 X182.267 Y71.152 E59.80769
G1 X182.766 Y70.978 E59.90093
G1 X183.134 Y70.901 E59.96726
G1 X183.48 Y70.848 E60.02902
G1 X183.899 Y70.81 E60.10325
G1 X184.357 Y70.799 E60.18407
G1 X190.339 Y70.799 E61.23947
G1 X191.037 Y70.809 E61.36263
G1 X191.431 Y70.837 E61.43232
G1 F1500 E59.43232
G0 F900 X116.116 Y92.231
G0 X114.995 Y92.646
G0 X113.92 Y93.159
G0 X112.895 Y93.77
G0 X111.93 Y94.476
G0 X111.036 Y95.266
G0 X110.217 Y96.138
G0 X109.484 Y97.081
G0 X108.841 Y98.09
G0 X108.4 Y98.948
G0 X104.148 Y109.71
G1 F1500 E61.43232
G1 F1200 X103.832 Y108.623 E61.63203
G1 X103.749 Y108.314 E61.68848
G1 X103.694 Y108.075 E61.73175
G1 X103.58 Y107.496 E61.83586
G1 X103.492 Y106.954 E61.93274
G1 X103.456 Y106.677 E61.98202
G1 X103.342 Y105.509 E62.18907
G1 X103.32 Y105.2 E62.24372
G1 X103.311 Y104.969 E62.28451
G1 X103.31 Y104.355 E62.39284
G1 X103.322 Y103.872 E62.47808
G1 X103.338 Y103.592 E62.52756
G1 X103.457 Y102.284 E62.75928
G1 X103.499 Y101.999 E62.8101
G1 X103.671 Y101.055 E62.9794
G1 X103.766 Y100.611 E63.0595
G1 X103.771 Y100.612 E63.0604
G1 X103.828 Y100.351 E63.10754
G1 X103.97 Y99.848 E63.19975
G1 X104.219 Y99.052 E63.34689
G1 X104.28 Y98.88 E63.37909
G1 X104.413 Y98.524 E63.44614
G1 X104.472 Y98.379 E63.47376
G1 X104.762 Y97.687 E63.60614
G1 X104.861 Y97.468 E63.64854
G1 X105.105 Y96.969 E63.74654
G1 X105.39 Y96.431 E63.85395
G1 X105.531 Y96.183 E63.90428
G1 X106.052 Y95.337 E64.07957
G1 X106.168 Y95.16 E64.11691
G1 X106.337 Y94.92 E64.1687
G1 X107.092 Y93.922 E64.38948
G1 X107.352 Y93.607 E64.46154
G1 X107.622 Y93.302 E64.53341
G1 X107.778 Y93.136 E64.5736
G1 X107.777 Y93.136 E64.57378
G1 X108.255 Y92.637 E64.69569
G1 X108.465 Y92.441 E64.74637
G1 X108.461 Y92.436 E64.7475
G1 X108.87 Y92.064 E64.84504
G1 X109.41 Y91.597 E64.971
G1 X109.618 Y91.428 E65.01828
G1 X110.106 Y91.06 E65.12611
G1 X110.726 Y90.62 E65.26025
G1 X111.376 Y90.212 E65.39564
G1 X111.976 Y89.865 E65.51793
G1 X112.184 Y89.752 E65.55969
G1 X112.719 Y89.483 E65.66534
G1 X113.258 Y89.234 E65.77009
G1 X113.508 Y89.128 E65.818
G1 X114.442 Y88.766 E65.99473
G1 X114.704 Y88.674 E66.04372
G1 X114.705 Y88.677 E66.04428
G1 X114.962 Y88.591 E66.09209
G1 X115.918 Y88.321 E66.26735
G1 X116.236 Y88.241 E66.32521
G1 X116.508 Y88.192 E66.37397
G1 X116.506 Y88.183 E66.37559
G1 X117.364 Y88.024 E66.52955
G1 X117.84 Y87.95 E66.61454
G1 X118.092 Y87.918 E66.65935
G1 X118.661 Y87.867 E66.76014
G1 X118.699 Y87.865 E66.76686
G1 X119.381 Y87.823 E66.88741
G1 X119.636 Y87.814 E66.93243
G1 X120.198 Y87.816 E67.03158
G1 X120.198 Y87.815 E67.03176
G1 X121.603 Y87.859 E67.27976
G1 X123.261 Y87.932 E67.57256
G1 X125.91 Y87.977 E68.03999
G1 X128.662 Y87.943 E68.52556
G1 X131.334 Y87.837 E68.99734
G1 X134.016 Y87.652 E69.47165
G1 X136.709 Y87.391 E69.949
G1 X139.409 Y87.051 E70.42911
G1 X142.061 Y86.641 E70.90256
G1 X144.738 Y86.15 E71.38274
G1 X147.367 Y85.59 E71.85697
G1 X149.983 Y84.955 E72.33191
G1 X152.609 Y84.238 E72.81217
G1 X155.174 Y83.46 E73.28507
G1 X157.75 Y82.597 E73.76438
G1 X160.262 Y81.677 E74.23635
G1 X162.786 Y80.67 E74.71579
G1 X165.279 Y79.593 E75.19492
G1 X167.695 Y78.466 E75.66526
G1 X170.126 Y77.249 E76.1449
G1 X172.519 Y75.964 E76.62412
G1 X174.846 Y74.628 E77.09752
G1 X177.164 Y73.209 E77.57702
G1 X179.427 Y71.734 E78.0536
G1 X180.829 Y70.775 E78.35328
G1 X181.574 Y70.363 E78.50348
G1 X181.868 Y70.235 E78.56006
G1 X182.432 Y70.033 E78.66575
G1 X182.983 Y69.913 E78.76524
G1 X183.329 Y69.86 E78.827
G1 X183.867 Y69.81 E78.92233
G1 X184.348 Y69.799 E79.00721
G1 X190.353 Y69.799 E80.06666
G1 X191.051 Y69.809 E80.18982
G1 X191.558 Y69.845 E80.2795
G1 X191.847 Y69.882 E80.3309
G1 X192.436 Y69.998 E80.43681
G1 X192.91 Y70.153 E80.5248
G1 X193.205 Y70.268 E80.58066
G1 X193.748 Y70.523 E80.6865
G1 X194.255 Y70.849 E80.79284
G1 X194.516 Y71.043 E80.85022
G1 X194.973 Y71.432 E80.9561
G1 X195.353 Y71.853 E81.05616
G1 X195.62 Y72.195 E81.13271
G1 X195.946 Y72.699 E81.23861
G1 X196.137 Y73.088 E81.31506
G1 X196.261 Y73.373 E81.3699
G1 X196.463 Y73.937 E81.47559
G1 X196.583 Y74.483 E81.57422
G1 X196.636 Y74.827 E81.63563
G1 X196.686 Y75.367 E81.73131
G1 X196.696 Y75.753 E81.79943
G1 X196.697 Y76.356 E81.90582
G1 X196.687 Y77.054 E82.02898
G1 X196.664 Y77.454 E82.09967
G1 X196.633 Y77.73 E82.14867
G1 X196.602 Y77.945 E82.18699
G1 X196.464 Y78.576 E82.30095
G1 X196.396 Y78.806 E82.34327
G1 X195.65 Y81.483 E82.83356
G1 X195.004 Y84.081 E83.30588
G1 X194.422 Y86.741 E83.78628
G1 X193.92 Y89.39 E84.26196
G1 X193.498 Y92.023 E84.73242
G1 X193.14 Y94.755 E85.21854
G1 X192.869 Y97.392 E85.68624
G1 X192.666 Y100.131 E86.1708
G1 X192.544 Y102.808 E86.64359
G1 X192.496 Y105.821 E87.17523
G1 X192.496 Y125.855 E90.7098
G1 X192.482 Y126.713 E90.8612
G1 X192.439 Y127.721 E91.0392
G1 X192.363 Y130.412 E91.51416
G1 X192.363 Y133.129 E91.99351
G1 X192.439 Y135.802 E92.4653
G1 X192.593 Y138.517 E92.94507
G1 X192.823 Y141.216 E93.42297
G1 X192.999 Y142.76 E93.69714
G1 X193.133 Y144.113 E93.93702
G1 X193.165 Y144.584 E94.02031
G1 X193.175 Y144.869 E94.07062
G1 X193.175 Y146.298 E94.32274
G1 X193.161 Y146.558 E94.36868
G1 X193.127 Y146.975 E94.44249
G1 X193.121 Y146.975 E94.44355
G1 X193.112 Y147.133 E94.47147
G1 X193.03 Y147.836 E94.59634
G1 X192.991 Y148.098 E94.64307
G1 X192.882 Y148.696 E94.75032
G1 X192.771 Y149.221 E94.84499
G1 X192.707 Y149.483 E94.89257
G1 X192.448 Y150.417 E95.06357
G1 X192.356 Y150.715 E95.1186
G1 X192.256 Y150.976 E95.16791
G1 X192.264 Y150.979 E95.16942
G1 X191.934 Y151.847 E95.33325
G1 X191.826 Y152.108 E95.38309
G1 X191.711 Y152.363 E95.43244
G1 X191.226 Y153.353 E95.62694
G1 X191.099 Y153.597 E95.67547
G1 X190.962 Y153.84 E95.72468
G1 X190.673 Y154.314 E95.82263
G1 X190.289 Y154.907 E95.94727
G1 X190.286 Y154.905 E95.94791
G1 X190.139 Y155.125 E95.99459
G1 X189.878 Y155.48 E96.07233
G1 X189.805 Y155.577 E96.09374
G1 X189.386 Y156.112 E96.21364
G1 X189.202 Y156.326 E96.26343
G1 X189.204 Y156.328 E96.26393
G1 X188.864 Y156.711 E96.35428
G1 X188.427 Y157.174 E96.46661
G1 X188.231 Y157.369 E96.51539
G1 X187.515 Y158.036 E96.68803
G1 X187.338 Y158.191 E96.72954
G1 X187.12 Y158.37 E96.77931
G1 X186.155 Y159.111 E96.99396
G1 X185.978 Y159.239 E97.0325
G1 X185.783 Y159.373 E97.07424
G1 X185.347 Y159.651 E97.16547
G1 X184.707 Y160.034 E97.29706
G1 X184.494 Y160.154 E97.34019
G1 X183.947 Y160.435 E97.44869
G1 X183.427 Y160.683 E97.55033
G1 X183.185 Y160.789 E97.59694
G1 X182.329 Y161.135 E97.75984
G1 X182.082 Y161.226 E97.80628
G1 X181.997 Y161.257 E97.82224
G1 X181.997 Y161.256 E97.82242
G1 X181.741 Y161.343 E97.87012
G1 X180.869 Y161.603 E98.03066
G1 X180.601 Y161.674 E98.07957
G1 X180.336 Y161.736 E98.12759
G1 X179.232 Y161.958 E98.32626
G1 X178.831 Y162.02 E98.39785
G1 X177.616 Y162.149 E98.61342
G1 X177.574 Y162.152 E98.62085
G1 X177.329 Y162.162 E98.66411
