;FLAVOR:Marlin
;TIME:13293
;Filament used: 33.0069m
;Layer height: 0.4
;MINX:101.311
;MINY:67.799
;MINZ:0.4
;MAXX:198.696
;MAXY:182.201
;MAXZ:30
;Generated with Cura_SteamEngine 4.6.0
M140 S80
M105
M190 S80
M104 S250
M105
M109 S250
M82 ;absolute extrusion mode
G28 ; home all axes
 M117 Purge extruder
 G92 E0 ; reset extruder
 G1 Z1.0 F3000 ; move z up little to prevent scratching of surface
 G1 X2 Y20 Z0.3 F5000.0 ; move to start-line position
 G1 X2 Y200.0 Z0.3 F1500.0 E15 ; draw 1st line
 G1 X2 Y200.0 Z0.4 F5000.0 ; move to side a little
 G1 X2 Y20 Z0.4 F1500.0 E30 ; draw 2nd line
 G92 E0 ; reset extruder
 G1 Z1.0 F3000 ; move z up little to prevent scratching of surface
G92 E0
G92 E0
G1 F1500 E-2
;LAYER_COUNT:75
;LAYER:0
M107
G0 F900 X191.431 Y70.837 Z0.4
;TYPE:SKIRT
G1 F1500 E0
G1 F1200 X191.72 Y70.874 E0.0514
G1 X192.238 Y70.981 E0.14472
G1 X192.547 Y71.085 E0.20224
G1 X192.842 Y71.2 E0.25811
G1 X193.319 Y71.429 E0.35146
G1 X193.659 Y71.652 E0.42319
G1 X193.92 Y71.846 E0.48057
G1 X194.319 Y72.193 E0.57386
G1 X194.571 Y72.476 E0.64072
G1 X194.783 Y72.746 E0.70128
G1 X194.818 Y72.793 E0.71162
G1 X195.101 Y73.239 E0.80481
G1 X195.22 Y73.487 E0.85334
G1 X195.344 Y73.772 E0.90818
G1 X195.518 Y74.271 E1.00141
G1 X195.594 Y74.635 E1.06702
G1 X195.647 Y74.979 E1.12843
G1 X195.686 Y75.4 E1.20302
G1 X195.696 Y75.754 E1.2655
G1 X195.697 Y76.285 E1.35919
G1 X195.697 Y76.342 E1.36924
G1 X195.687 Y77.04 E1.4924
G1 X195.675 Y77.275 E1.53392
G1 X195.667 Y77.373 E1.55126
G1 X195.643 Y77.587 E1.58926
G1 X195.612 Y77.802 E1.62758
G1 X195.505 Y78.293 E1.71624
G1 X195.433 Y78.537 E1.76112
G1 X194.687 Y81.215 E2.25159
G1 X194.025 Y83.877 E2.73555
G1 X193.447 Y86.517 E3.21235
G1 X192.936 Y89.211 E3.69612
G1 X192.504 Y91.91 E4.17836
G1 X192.152 Y94.59 E4.65525
G1 X191.868 Y97.355 E5.14564
G1 X191.669 Y100.048 E5.62206
G1 X191.546 Y102.748 E6.09891
G1 X191.496 Y105.876 E6.65085
G1 X191.496 Y125.841 E10.17324
G1 X191.483 Y126.67 E10.31952
G1 X191.442 Y127.628 E10.48869
G1 X191.363 Y130.42 E10.98148
G1 X191.363 Y133.121 E11.45801
G1 X191.441 Y135.888 E11.94638
G1 X191.595 Y138.587 E12.42334
G1 X191.827 Y141.307 E12.90496
G1 X191.999 Y142.817 E13.17309
G1 X192.004 Y142.861 E13.18091
G1 X192.131 Y144.127 E13.40539
G1 X192.167 Y144.652 E13.49823
G1 X192.175 Y144.874 E13.53742
G1 X192.18 Y146.008 E13.73749
G1 X192.175 Y146.275 E13.78461
G1 X192.164 Y146.476 E13.82012
G1 X192.13 Y146.893 E13.89394
G1 X192.125 Y146.893 E13.89482
G1 X192.118 Y147.018 E13.91691
G1 X192.036 Y147.721 E14.04178
G1 X192.007 Y147.924 E14.07796
G1 X191.914 Y148.435 E14.16959
G1 X191.792 Y149.014 E14.27399
G1 X191.743 Y149.218 E14.311
G1 X191.492 Y150.122 E14.47653
G1 X191.4 Y150.42 E14.53155
G1 X191.32 Y150.623 E14.57005
G1 X191.329 Y150.626 E14.57172
G1 X191.01 Y151.464 E14.72992
G1 X190.902 Y151.725 E14.77975
G1 X190.813 Y151.924 E14.81821
G1 X190.379 Y152.812 E14.99259
G1 X190.212 Y153.135 E15.05674
G1 X190.106 Y153.324 E15.09497
G1 X189.868 Y153.717 E15.17603
G1 X189.45 Y154.363 E15.31179
G1 X189.447 Y154.361 E15.31242
G1 X189.333 Y154.534 E15.34897
G1 X189.053 Y154.914 E15.43225
G1 X189.018 Y154.96 E15.44245
G1 X188.599 Y155.495 E15.56234
G1 X188.452 Y155.666 E15.60213
G1 X188.453 Y155.667 E15.60238
G1 X188.136 Y156.024 E15.68661
G1 X187.699 Y156.487 E15.79893
G1 X187.547 Y156.639 E15.83686
G1 X186.856 Y157.284 E16.00363
G1 X186.679 Y157.439 E16.04514
G1 X186.51 Y157.578 E16.08374
G1 X185.569 Y158.301 E16.29311
G1 X185.24 Y158.533 E16.36413
G1 X184.833 Y158.793 E16.44934
G1 X184.193 Y159.176 E16.58093
G1 X184.027 Y159.269 E16.6145
G1 X183.748 Y159.416 E16.67014
G1 X183.564 Y159.509 E16.70651
G1 X183.517 Y159.532 E16.71574
G1 X182.997 Y159.78 E16.81738
G1 X182.809 Y159.863 E16.85364
G1 X181.984 Y160.196 E17.0106
G1 X181.652 Y160.318 E17.07301
G1 X181.647 Y160.304 E17.07563
G1 X181.453 Y160.386 E17.11279
G1 X180.613 Y160.636 E17.26741
G1 X180.345 Y160.707 E17.31633
G1 X180.139 Y160.755 E17.35365
G1 X179.035 Y160.977 E17.55232
G1 X178.723 Y161.026 E17.60804
G1 X177.544 Y161.151 E17.81722
G1 X177.312 Y161.163 E17.8582
G1 X176.597 Y161.175 E17.98437
G1 X176.597 Y161.174 E17.98454
G1 X173.879 Y161.257 E18.4643
G1 X171.153 Y161.416 E18.94606
G1 X168.416 Y161.655 E19.43078
G1 X165.712 Y161.967 E19.91101
G1 X163.025 Y162.356 E20.39002
G1 X160.295 Y162.829 E20.87884
G1 X157.641 Y163.367 E21.35661
G1 X154.986 Y163.983 E21.83747
G1 X152.35 Y164.676 E22.31833
G1 X149.747 Y165.437 E22.7968
G1 X147.118 Y166.289 E23.28438
G1 X144.545 Y167.203 E23.76612
G1 X142.02 Y168.182 E24.24392
G1 X139.494 Y169.245 E24.72743
G1 X137.009 Y170.372 E25.20883
G1 X134.577 Y171.561 E25.68644
G1 X132.137 Y172.839 E26.1724
G1 X129.781 Y174.162 E26.64912
G1 X127.425 Y175.571 E27.13345
G1 X125.109 Y177.048 E27.61807
G1 X123.812 Y177.932 E27.895
G1 X123.064 Y178.428 E28.05334
G1 X122.527 Y178.72 E28.16119
G1 X122.233 Y178.848 E28.21776
G1 X121.734 Y179.022 E28.311
G1 X121.366 Y179.099 E28.37733
G1 X121.02 Y179.152 E28.43908
G1 X120.601 Y179.19 E28.51331
G1 X120.349 Y179.198 E28.55779
G1 X120.143 Y179.201 E28.59414
G1 X113.161 Y179.201 E29.82596
G1 X112.464 Y179.191 E29.94895
G1 X112.071 Y179.163 E30.01846
G1 X111.781 Y179.126 E30.07004
G1 X111.263 Y179.02 E30.16332
G1 X110.95 Y178.914 E30.22162
G1 X110.648 Y178.796 E30.27883
G1 X110.172 Y178.567 E30.37202
G1 X109.835 Y178.346 E30.44312
G1 X109.598 Y178.17 E30.49521
G1 X109.199 Y177.824 E30.58838
G1 X108.943 Y177.535 E30.6565
G1 X108.736 Y177.274 E30.71527
G1 X108.439 Y176.836 E30.80863
G1 X108.266 Y176.489 E30.87704
G1 X108.116 Y176.139 E30.94422
G1 X107.958 Y175.634 E31.03758
G1 X107.907 Y175.373 E31.0845
G1 X107.853 Y175.023 E31.14698
G1 X107.82 Y174.597 E31.22236
G1 X107.814 Y174.597 E31.22342
G1 X107.804 Y174.241 E31.28625
G1 X107.803 Y173.714 E31.37923
G1 X107.803 Y173.657 E31.38929
G1 X107.813 Y172.959 E31.51245
G1 X107.825 Y172.721 E31.55449
G1 X107.833 Y172.624 E31.57166
G1 X107.858 Y172.406 E31.61038
G1 X107.89 Y172.187 E31.64942
G1 X107.97 Y171.797 E31.71966
G1 X108.073 Y171.408 E31.79066
G1 X108.084 Y171.365 E31.79849
G1 X108.632 Y169.397 E32.15891
G1 X109.289 Y166.75 E32.64009
G1 X109.865 Y164.116 E33.11578
G1 X110.375 Y161.413 E33.60108
G1 X110.809 Y158.699 E34.08599
G1 X111.159 Y156.024 E34.56196
G1 X111.436 Y153.307 E35.0438
G1 X111.642 Y150.52 E35.53685
G1 X111.763 Y147.841 E36.00998
G1 X111.81 Y145.124 E36.48941
G1 X111.778 Y142.369 E36.9755
G1 X111.671 Y139.67 E37.45206
G1 X111.485 Y136.933 E37.93606
G1 X111.224 Y134.216 E38.41762
G1 X110.884 Y131.497 E38.90106
G1 X110.474 Y128.836 E39.37608
G1 X109.978 Y126.126 E39.86214
G1 X109.412 Y123.459 E40.34316
G1 X108.763 Y120.781 E40.82931
G1 X108.052 Y118.172 E41.3064
G1 X107.263 Y115.566 E41.78678
G1 X106.395 Y112.968 E42.27004
G1 X105.37 Y110.171 E42.79561
G1 X105.347 Y110.111 E42.80694
G1 X105.178 Y109.643 E42.89473
G1 X105.179 Y109.643 E42.89491
G1 X105.108 Y109.431 E42.93435
G1 X104.792 Y108.344 E43.13407
G1 X104.717 Y108.062 E43.18555
G1 X104.674 Y107.876 E43.21923
G1 X104.6 Y107.512 E43.28477
G1 X104.567 Y107.336 E43.31636
G1 X104.479 Y106.794 E43.41324
G1 X104.451 Y106.579 E43.45149
G1 X104.347 Y105.531 E43.63729
G1 X104.321 Y105.188 E43.69798
G1 X104.311 Y104.958 E43.7386
G1 X104.308 Y104.686 E43.78659
G1 X104.309 Y104.448 E43.82858
G1 X104.322 Y103.897 E43.92582
G1 X104.334 Y103.679 E43.96434
G1 X104.428 Y102.603 E44.1549
G1 X104.451 Y102.397 E44.19147
G1 X104.483 Y102.176 E44.23087
G1 X104.648 Y101.265 E44.39421
G1 X104.743 Y100.821 E44.47431
G1 X104.754 Y100.823 E44.47629
G1 X104.792 Y100.618 E44.51307
G1 X104.925 Y100.145 E44.59976
G1 X105.146 Y99.435 E44.73095
G1 X105.216 Y99.231 E44.769
G1 X105.394 Y98.765 E44.85701
G1 X105.684 Y98.073 E44.98939
G1 X105.761 Y97.903 E45.02231
G1 X105.994 Y97.427 E45.11581
G1 X106.012 Y97.394 E45.12245
G1 X106.274 Y96.899 E45.22126
G1 X106.384 Y96.706 E45.26045
G1 X106.889 Y95.886 E45.43035
G1 X107.005 Y95.709 E45.46769
G1 X107.136 Y95.521 E45.50812
G1 X107.871 Y94.549 E45.72312
G1 X108.1 Y94.27 E45.7868
G1 X108.37 Y93.965 E45.85866
G1 X108.516 Y93.81 E45.89623
G1 X108.552 Y93.774 E45.90521
G1 X108.978 Y93.329 E46.0139
G1 X109.143 Y93.175 E46.05372
G1 X109.139 Y93.171 E46.05472
G1 X109.487 Y92.854 E46.13777
G1 X110.065 Y92.354 E46.2726
G1 X110.226 Y92.222 E46.30934
G1 X110.636 Y91.91 E46.40023
G1 X111.413 Y91.365 E46.56768
G1 X111.822 Y91.109 E46.65281
G1 X112.638 Y90.642 E46.81868
G1 X113.148 Y90.387 E46.91928
G1 X113.183 Y90.37 E46.92615
G1 X113.677 Y90.142 E47.02214
G1 X113.871 Y90.06 E47.0593
G1 X114.773 Y89.71 E47.22999
G1 X115.035 Y89.618 E47.27899
G1 X115.036 Y89.62 E47.27938
G1 X115.236 Y89.553 E47.31659
G1 X116.162 Y89.291 E47.48638
G1 X116.48 Y89.211 E47.54423
G1 X116.692 Y89.174 E47.5822
G1 X116.69 Y89.166 E47.58366
G1 X117.517 Y89.013 E47.73204
G1 X117.993 Y88.939 E47.81703
G1 X118.189 Y88.914 E47.85189
G1 X118.714 Y88.866 E47.9449
G1 X119.443 Y88.821 E48.07376
G1 X119.641 Y88.814 E48.10871
G1 X120.167 Y88.815 E48.20151
G1 X121.513 Y88.857 E48.4391
G1 X121.559 Y88.858 E48.44722
G1 X123.201 Y88.931 E48.7372
G1 X125.94 Y88.976 E49.2205
G1 X128.678 Y88.943 E49.7036
G1 X131.374 Y88.836 E50.17963
G1 X134.107 Y88.648 E50.66294
G1 X136.828 Y88.384 E51.14526
G1 X139.545 Y88.042 E51.6284
G1 X142.253 Y87.623 E52.11185
G1 X144.91 Y87.135 E52.58846
G1 X147.602 Y86.562 E53.07405
G1 X150.24 Y85.922 E53.55297
G1 X152.879 Y85.201 E54.03563
G1 X155.456 Y84.42 E54.5107
G1 X158.096 Y83.536 E55.00189
G1 X160.618 Y82.612 E55.47577
G1 X163.176 Y81.591 E55.96169
G1 X165.68 Y80.509 E56.44295
G1 X168.133 Y79.365 E56.92048
G1 X170.586 Y78.137 E57.40446
G1 X173.028 Y76.825 E57.89354
G1 X175.352 Y75.492 E58.36622
G1 X177.687 Y74.062 E58.8493
G1 X179.973 Y72.572 E59.33072
G1 X181.394 Y71.6 E59.63446
G1 X181.973 Y71.28 E59.75118
G1 X182.267 Y71.152 E59.80775
G1 X182.766 Y70.978 E59.90099
G1 X183.134 Y70.901 E59.96732
G1 X183.48 Y70.848 E60.02908
G1 X183.899 Y70.81 E60.1033
G1 X184.151 Y70.802 E60.14779
G1 X184.357 Y70.799 E60.18413
G1 X190.339 Y70.799 E61.23953
G1 X191.037 Y70.809 E61.36269
G1 X191.431 Y70.837 E61.43238
G1 F1500 E59.43238
G0 F900 X116.116 Y92.231
G0 X114.995 Y92.646
G0 X113.92 Y93.159
G0 X112.895 Y93.77
G0 X111.93 Y94.476
G0 X111.036 Y95.266
G0 X110.217 Y96.138
G0 X109.484 Y97.081
G0 X108.841 Y98.09
G0 X108.4 Y98.948
G0 X104.148 Y109.71
G1 F1500 E61.43238
G1 F1200 X103.832 Y108.623 E61.63209
G1 X103.749 Y108.314 E61.68854
G1 X103.694 Y108.075 E61.73181
G1 X103.62 Y107.711 E61.79734
G1 X103.58 Y107.496 E61.83593
G1 X103.492 Y106.954 E61.9328
G1 X103.456 Y106.677 E61.98209
G1 X103.342 Y105.509 E62.18913
G1 X103.324 Y105.26 E62.23318
G1 X103.319 Y105.183 E62.24679
G1 X103.311 Y104.969 E62.28457
G1 X103.308 Y104.697 E62.33257
G1 X103.309 Y104.442 E62.37756
G1 X103.31 Y104.355 E62.39291
G1 X103.322 Y103.872 E62.47815
G1 X103.338 Y103.592 E62.52763
G1 X103.457 Y102.284 E62.75935
G1 X103.499 Y101.999 E62.81017
G1 X103.671 Y101.055 E62.97946
G1 X103.766 Y100.611 E63.05957
G1 X103.771 Y100.612 E63.06047
G1 X103.828 Y100.351 E63.1076
G1 X103.97 Y99.848 E63.19982
G1 X104.224 Y99.037 E63.34975
G1 X104.28 Y98.88 E63.37916
G1 X104.472 Y98.379 E63.47382
G1 X104.762 Y97.687 E63.6062
G1 X104.861 Y97.468 E63.6486
G1 X105.128 Y96.926 E63.7552
G1 X105.39 Y96.431 E63.85401
G1 X105.531 Y96.183 E63.90434
G1 X106.052 Y95.337 E64.07963
G1 X106.168 Y95.16 E64.11697
G1 X106.337 Y94.92 E64.16875
G1 X107.092 Y93.922 E64.38954
G1 X107.352 Y93.607 E64.4616
G1 X107.622 Y93.302 E64.53347
G1 X107.778 Y93.136 E64.57366
G1 X107.777 Y93.136 E64.57383
G1 X108.255 Y92.637 E64.69574
G1 X108.465 Y92.441 E64.74643
G1 X108.461 Y92.436 E64.74755
G1 X108.822 Y92.107 E64.83373
G1 X108.87 Y92.064 E64.8451
G1 X109.41 Y91.597 E64.97105
G1 X109.618 Y91.428 E65.01834
G1 X110.043 Y91.106 E65.11241
G1 X110.106 Y91.06 E65.12617
G1 X110.726 Y90.62 E65.2603
G1 X111.306 Y90.253 E65.3814
G1 X111.976 Y89.865 E65.51799
G1 X112.184 Y89.752 E65.55976
G1 X112.764 Y89.462 E65.67416
G1 X113.258 Y89.234 E65.77016
G1 X113.508 Y89.128 E65.81806
G1 X114.442 Y88.766 E65.99479
G1 X114.704 Y88.674 E66.04378
G1 X114.705 Y88.677 E66.04434
G1 X114.962 Y88.591 E66.09215
G1 X115.918 Y88.321 E66.26742
G1 X116.236 Y88.241 E66.32527
G1 X116.508 Y88.192 E66.37403
G1 X116.506 Y88.183 E66.37566
G1 X117.364 Y88.024 E66.52961
G1 X117.84 Y87.95 E66.6146
G1 X118.092 Y87.918 E66.65942
G1 X118.661 Y87.867 E66.76021
G1 X118.699 Y87.865 E66.76692
G1 X119.381 Y87.823 E66.88747
G1 X119.636 Y87.814 E66.93249
G1 X120.198 Y87.816 E67.03164
G1 X120.198 Y87.815 E67.03182
G1 X121.544 Y87.857 E67.26941
G1 X121.603 Y87.859 E67.27982
G1 X123.261 Y87.932 E67.57262
G1 X125.91 Y87.977 E68.04005
G1 X128.662 Y87.943 E68.52562
G1 X131.334 Y87.837 E68.99741
G1 X134.016 Y87.652 E69.47171
G1 X136.709 Y87.391 E69.94906
G1 X139.409 Y87.051 E70.42918
G1 X142.061 Y86.641 E70.90262
G1 X144.738 Y86.15 E71.3828
G1 X147.367 Y85.59 E71.85704
G1 X149.983 Y84.955 E72.33198
G1 X152.609 Y84.238 E72.81224
G1 X155.174 Y83.46 E73.28513
G1 X157.75 Y82.597 E73.76444
G1 X160.262 Y81.677 E74.23642
G1 X162.786 Y80.67 E74.71585
G1 X165.279 Y79.593 E75.19498
G1 X167.695 Y78.466 E75.66532
G1 X170.126 Y77.249 E76.14497
G1 X172.519 Y75.964 E76.62418
G1 X174.846 Y74.628 E77.09758
G1 X177.164 Y73.209 E77.57708
G1 X179.427 Y71.734 E78.05366
G1 X180.829 Y70.775 E78.35335
G1 X181.574 Y70.363 E78.50355
G1 X181.868 Y70.235 E78.56012
G1 X182.432 Y70.033 E78.66581
G1 X182.983 Y69.913 E78.7653
G1 X183.329 Y69.86 E78.82706
G1 X183.867 Y69.81 E78.92239
G1 X184.348 Y69.799 E79.00727
G1 X190.353 Y69.799 E80.06672
G1 X191.051 Y69.809 E80.18988
G1 X191.558 Y69.845 E80.27956
G1 X191.847 Y69.882 E80.33096
G1 X192.436 Y69.998 E80.43688
G1 X192.91 Y70.153 E80.52486
G1 X193.205 Y70.268 E80.58072
G1 X193.748 Y70.523 E80.68656
G1 X194.255 Y70.849 E80.7929
G1 X194.516 Y71.043 E80.85028
G1 X194.973 Y71.432 E80.95616
G1 X195.353 Y71.853 E81.05622
G1 X195.585 Y72.148 E81.12243
G1 X195.62 Y72.195 E81.13277
G1 X195.946 Y72.699 E81.23867
G1 X196.137 Y73.088 E81.31513
G1 X196.261 Y73.373 E81.36996
G1 X196.463 Y73.937 E81.47566
G1 X196.583 Y74.483 E81.57429
G1 X196.636 Y74.827 E81.6357
G1 X196.686 Y75.367 E81.73138
G1 X196.696 Y75.753 E81.7995
G1 X196.697 Y76.284 E81.89318
G1 X196.697 Y76.356 E81.90589
G1 X196.687 Y77.054 E82.02905
G1 X196.672 Y77.356 E82.08239
G1 X196.664 Y77.454 E82.09974
G1 X196.633 Y77.73 E82.14874
G1 X196.602 Y77.945 E82.18706
G1 X196.464 Y78.576 E82.30102
G1 X196.396 Y78.806 E82.34334
G1 X195.65 Y81.483 E82.83363
G1 X195.004 Y84.081 E83.30595
G1 X194.422 Y86.741 E83.78635
G1 X193.92 Y89.39 E84.26203
G1 X193.498 Y92.023 E84.73249
G1 X193.14 Y94.755 E85.21862
G1 X192.869 Y97.392 E85.68631
G1 X192.666 Y100.131 E86.17087
G1 X192.544 Y102.808 E86.64366
G1 X192.496 Y105.821 E87.17531
G1 X192.496 Y125.855 E90.70987
G1 X192.482 Y126.713 E90.86127
G1 X192.439 Y127.721 E91.03927
G1 X192.363 Y130.412 E91.51423
G1 X192.363 Y133.129 E91.99358
G1 X192.439 Y135.802 E92.46537
G1 X192.593 Y138.517 E92.94514
G1 X192.823 Y141.216 E93.42305
G1 X192.993 Y142.704 E93.68728
G1 X192.999 Y142.76 E93.69722
G1 X193.127 Y144.044 E93.92487
G1 X193.133 Y144.113 E93.93709
G1 X193.165 Y144.584 E94.02038
G1 X193.175 Y144.869 E94.07069
G1 X193.175 Y146.298 E94.32281
G1 X193.161 Y146.558 E94.36875
G1 X193.127 Y146.975 E94.44256
G1 X193.121 Y146.975 E94.44362
G1 X193.112 Y147.133 E94.47154
G1 X193.03 Y147.836 E94.59641
G1 X192.991 Y148.098 E94.64315
G1 X192.896 Y148.627 E94.73797
G1 X192.771 Y149.221 E94.84506
G1 X192.707 Y149.483 E94.89265
G1 X192.448 Y150.417 E95.06365
G1 X192.356 Y150.715 E95.11867
G1 X192.256 Y150.976 E95.16799
G1 X192.264 Y150.979 E95.16949
G1 X191.934 Y151.847 E95.33333
G1 X191.826 Y152.108 E95.38316
G1 X191.711 Y152.363 E95.43251
G1 X191.226 Y153.353 E95.62701
G1 X191.099 Y153.597 E95.67554
G1 X190.962 Y153.84 E95.72476
G1 X190.717 Y154.245 E95.80827
G1 X190.289 Y154.907 E95.94735
G1 X190.286 Y154.905 E95.94798
G1 X190.139 Y155.125 E95.99467
G1 X189.85 Y155.517 E96.08059
G1 X189.805 Y155.577 E96.09382
G1 X189.386 Y156.112 E96.21371
G1 X189.202 Y156.326 E96.26351
G1 X189.204 Y156.328 E96.26401
G1 X188.864 Y156.711 E96.35436
G1 X188.427 Y157.174 E96.46669
