;FLAVOR:Marlin
;TIME:13294
;Filament used: 33.0082m
;Layer height: 0.4
;MINX:101.315
;MINY:67.799
;MINZ:0.4
;MAXX:198.695
;MAXY:182.201
;MAXZ:30
;Generated with Cura_SteamEngine 4.6.0
M140 S80
M105
M190 S80
M104 S250
M105
M109 S250
M82 ;absolute extrusion mode
G28 ; home all axes
 M117 Purge extruder
 G92 E0 ; reset extruder
 G1 Z1.0 F3000 ; move z up little to prevent scratching of surface
 G1 X2 Y20 Z0.3 F5000.0 ; move to start-line position
 G1 X2 Y200.0 Z0.3 F1500.0 E15 ; draw 1st line
 G1 X2 Y200.0 Z0.4 F5000.0 ; move to side a little
 G1 X2 Y20 Z0.4 F1500.0 E30 ; draw 2nd line
 G92 E0 ; reset extruder
 G1 Z1.0 F3000 ; move z up little to prevent scratching of surface
G92 E0
G92 E0
G1 F1500 E-2
;LAYER_COUNT:75
;LAYER:0
M107
G0 F900 X191.859 Y70.911 Z0.4
;TYPE:SKIRT
G1 F1500 E0
G1 F1200 X192.464 Y71.07 E0.11036
G1 X193.291 Y71.428 E0.26935
G1 X193.957 Y71.89 E0.41236
G1 X194.571 Y72.484 E0.56308
G1 X194.976 Y73.057 E0.68688
G1 X195.234 Y73.519 E0.78024
G1 X195.476 Y74.178 E0.90409
G1 X195.644 Y74.999 E1.05194
G1 X195.696 Y76.302 E1.28201
G1 X195.687 Y77.04 E1.41223
G1 X195.569 Y77.943 E1.5729
G1 X195.477 Y78.346 E1.64583
G1 X195.207 Y79.322 E1.82449
G1 X194.977 Y80.114 E1.96999
G1 X194.283 Y82.772 E2.45466
G1 X193.677 Y85.392 E2.92911
G1 X193.677 Y85.393 E2.92928
G1 X193.134 Y88.091 E3.41483
G1 X192.673 Y90.771 E3.8946
G1 X192.282 Y93.506 E4.38204
G1 X191.976 Y96.188 E4.85829
G1 X191.741 Y98.924 E5.34278
G1 X191.587 Y101.613 E5.81797
G1 X191.506 Y104.42 E6.31341
G1 X191.496 Y105.822 E6.56077
G1 X191.496 Y125.841 E10.09269
G1 X191.442 Y127.628 E10.40811
G1 X191.363 Y130.42 E10.9009
G1 X191.363 Y133.121 E11.37743
G1 X191.441 Y135.888 E11.8658
G1 X191.595 Y138.587 E12.34276
G1 X191.826 Y141.303 E12.82366
G1 X191.98 Y142.644 E13.06181
G1 X191.987 Y142.703 E13.07229
G1 X192.144 Y144.315 E13.35804
G1 X192.187 Y145.697 E13.60198
G1 X192.1 Y147.156 E13.85985
G1 X191.876 Y148.615 E14.12027
G1 X191.535 Y149.98 E14.3685
G1 X191.05 Y151.364 E14.62724
G1 X190.468 Y152.642 E14.87499
G1 X189.736 Y153.921 E15.13499
G1 X188.95 Y155.044 E15.37682
G1 X188.001 Y156.168 E15.63636
G1 X186.969 Y157.183 E15.89174
G1 X185.851 Y158.095 E16.14629
G1 X184.671 Y158.89 E16.39731
G1 X183.389 Y159.591 E16.6551
G1 X182.131 Y160.14 E16.89726
G1 X180.728 Y160.604 E17.15798
G1 X179.338 Y160.926 E17.40971
G1 X177.876 Y161.124 E17.67
G1 X176.436 Y161.184 E17.92428
G1 X173.686 Y161.273 E18.40971
G1 X170.915 Y161.441 E18.89949
G1 X168.237 Y161.678 E19.37381
G1 X165.501 Y162.001 E19.85987
G1 X162.801 Y162.395 E20.34127
G1 X160.137 Y162.862 E20.81845
G1 X157.465 Y163.408 E21.2996
G1 X154.771 Y164.04 E21.78781
G1 X152.147 Y164.734 E22.26667
G1 X149.54 Y165.503 E22.74621
G1 X146.943 Y166.349 E23.2281
G1 X144.361 Y167.271 E23.71181
G1 X141.837 Y168.255 E24.18976
G1 X139.284 Y169.334 E24.67875
G1 X136.86 Y170.44 E25.14883
G1 X134.373 Y171.661 E25.63763
G1 X131.948 Y172.938 E26.12117
G1 X129.598 Y174.263 E26.59714
G1 X127.249 Y175.674 E27.08059
G1 X124.941 Y177.151 E27.56403
G1 X124.552 Y177.417 E27.64717
G1 X122.936 Y178.485 E27.98892
G1 X122.474 Y178.742 E28.08219
G1 X121.901 Y178.957 E28.19016
G1 X121.395 Y179.089 E28.28242
G1 X120.351 Y179.181 E28.46733
G1 X120.259 Y179.184 E28.48357
G1 X119.075 Y179.2 E28.69248
G1 X113.219 Y179.201 E29.72564
G1 X112.46 Y179.191 E29.85956
G1 X111.561 Y179.073 E30.01953
G1 X110.848 Y178.877 E30.14999
G1 X110.262 Y178.6 E30.26435
G1 X109.811 Y178.324 E30.35764
G1 X109.298 Y177.894 E30.47573
G1 X108.929 Y177.516 E30.56893
G1 X108.524 Y176.943 E30.69273
G1 X108.266 Y176.481 E30.78609
G1 X108.024 Y175.822 E30.90994
G1 X107.856 Y175.001 E31.05779
G1 X107.804 Y173.698 E31.28786
G1 X107.813 Y172.96 E31.41808
G1 X107.938 Y172.022 E31.58503
G1 X108.028 Y171.634 E31.6553
G1 X108.336 Y170.518 E31.85956
G1 X109.028 Y167.864 E32.34345
G1 X109.64 Y165.218 E32.82261
G1 X110.178 Y162.543 E33.304
G1 X110.637 Y159.873 E33.78198
G1 X111.029 Y157.13 E34.27084
G1 X111.336 Y154.446 E34.74746
G1 X111.57 Y151.715 E35.23105
G1 X111.724 Y149.023 E35.70677
G1 X111.804 Y146.25 E36.19621
G1 X111.806 Y143.547 E36.6731
G1 X111.73 Y140.781 E37.16128
G1 X111.579 Y138.113 E37.63274
G1 X111.346 Y135.35 E38.12195
G1 X111.04 Y132.637 E38.60363
G1 X110.66 Y129.959 E39.08084
G1 X110.199 Y127.258 E39.56426
G1 X109.663 Y124.575 E40.04698
G1 X109.055 Y121.931 E40.52563
G1 X108.362 Y119.261 E41.0123
G1 X107.614 Y116.682 E41.48606
G1 X106.769 Y114.049 E41.97393
G1 X105.87 Y111.494 E42.4518
G1 X105.511 Y110.55 E42.62998
G1 X105.142 Y109.541 E42.81953
G1 X104.822 Y108.47 E43.01674
G1 X104.544 Y107.184 E43.24886
G1 X104.362 Y105.743 E43.50512
G1 X104.315 Y104.256 E43.7676
G1 X104.4 Y102.849 E44.01628
G1 X104.628 Y101.374 E44.27961
G1 X104.985 Y99.952 E44.53827
G1 X105.467 Y98.593 E44.79267
G1 X106.077 Y97.272 E45.04938
G1 X106.82 Y95.993 E45.31035
G1 X107.64 Y94.84 E45.55997
G1 X108.606 Y93.719 E45.82105
G1 X109.674 Y92.692 E46.08246
G1 X110.767 Y91.819 E46.32925
G1 X112.031 Y90.989 E46.59604
G1 X113.287 Y90.323 E46.84686
G1 X114.634 Y89.761 E47.10436
G1 X116.057 Y89.319 E47.36725
G1 X117.411 Y89.031 E47.61148
G1 X118.92 Y88.854 E47.87954
G1 X120.35 Y88.82 E48.1319
G1 X120.46 Y88.822 E48.15131
G1 X121.551 Y88.858 E48.3439
G1 X121.602 Y88.86 E48.3529
G1 X122.932 Y88.923 E48.58782
G1 X125.635 Y88.976 E49.06479
G1 X128.371 Y88.952 E49.54752
G1 X131.106 Y88.85 E50.03039
G1 X133.835 Y88.671 E50.51289
G1 X136.562 Y88.414 E50.99615
G1 X139.243 Y88.086 E51.47268
G1 X141.981 Y87.672 E51.96123
G1 X144.618 Y87.195 E52.43402
G1 X147.323 Y86.628 E52.92163
G1 X149.977 Y85.992 E53.40313
G1 X152.618 Y85.279 E53.88576
G1 X155.207 Y84.502 E54.36266
G1 X157.809 Y83.64 E54.84626
G1 X160.367 Y82.712 E55.32635
G1 X162.928 Y81.699 E55.81224
G1 X165.406 Y80.637 E56.28789
G1 X167.921 Y79.474 E56.77675
G1 X170.321 Y78.281 E57.24961
G1 X172.752 Y76.986 E57.73556
G1 X175.131 Y75.631 E58.21859
G1 X177.451 Y74.219 E58.69776
G1 X179.745 Y72.734 E59.17988
G1 X180.426 Y72.267 E59.32557
G1 X181.551 Y71.522 E59.56362
G1 X182.012 Y71.264 E59.65683
G1 X182.672 Y71.021 E59.78091
G1 X183.465 Y70.854 E59.92389
G1 X184.237 Y70.816 E60.06026
G1 X185.426 Y70.8 E60.27005
G1 X190.28 Y70.799 E61.12643
G1 X190.331 Y70.799 E61.13543
G1 X191.037 Y70.809 E61.26
G1 X191.859 Y70.911 E61.40614
G0 F900 X192.042 Y69.928
G1 F1200 X192.745 Y70.11 E61.53426
G1 X193.601 Y70.46 E61.69742
G1 X194.271 Y70.863 E61.83536
G1 X194.863 Y71.356 E61.97128
G1 X195.285 Y71.781 E62.07695
G1 X195.81 Y72.505 E62.23473
G1 X196.107 Y73.026 E62.34053
G1 X196.425 Y73.862 E62.49834
G1 X196.576 Y74.442 E62.60408
G1 X196.672 Y75.344 E62.76412
G1 X196.696 Y76.412 E62.95259
G1 X196.687 Y77.054 E63.06587
G1 X196.548 Y78.149 E63.26061
G1 X196.441 Y78.613 E63.34462
G1 X196.171 Y79.589 E63.52328
G1 X195.934 Y80.404 E63.67302
G1 X195.257 Y82.999 E64.14618
G1 X194.659 Y85.585 E64.61446
G1 X194.118 Y88.276 E65.09873
G1 X193.659 Y90.941 E65.57584
G1 X193.276 Y93.62 E66.05329
G1 X192.968 Y96.319 E66.53256
G1 X192.741 Y98.96 E67.00023
G1 X192.585 Y101.699 E67.48425
G1 X192.507 Y104.39 E67.95922
G1 X192.496 Y105.829 E68.21311
G1 X192.496 Y125.855 E71.74626
G1 X192.482 Y126.713 E71.89766
G1 X192.439 Y127.721 E72.07566
G1 X192.363 Y130.412 E72.55062
G1 X192.363 Y133.129 E73.02997
G1 X192.439 Y135.802 E73.50176
G1 X192.593 Y138.517 E73.98153
G1 X192.823 Y141.207 E74.45785
G1 X192.974 Y142.53 E74.69278
G1 X192.982 Y142.606 E74.70627
G1 X193.139 Y144.218 E74.99201
G1 X193.187 Y145.69 E75.25185
G1 X193.096 Y147.242 E75.52614
G1 X192.999 Y148.02 E75.66447
G1 X192.757 Y149.281 E75.891
G1 X192.498 Y150.247 E76.06745
G1 X191.985 Y151.717 E76.34214
G1 X191.368 Y153.078 E76.60578
G1 X191.006 Y153.755 E76.74123
G1 X190.337 Y154.835 E76.96536
G1 X189.678 Y155.739 E77.16274
G1 X188.747 Y156.834 E77.41631
G1 X187.653 Y157.913 E77.68741
G1 X186.465 Y158.885 E77.95822
G1 X185.209 Y159.733 E78.22559
G1 X183.848 Y160.48 E78.4995
G1 X182.506 Y161.067 E78.75793
G1 X181.017 Y161.561 E79.03471
G1 X179.539 Y161.905 E79.30244
G1 X177.985 Y162.118 E79.57917
G1 X176.475 Y162.184 E79.84584
G1 X173.708 Y162.273 E80.33427
G1 X170.995 Y162.437 E80.81379
G1 X168.337 Y162.673 E81.28458
G1 X165.652 Y162.99 E81.76158
G1 X162.948 Y163.385 E82.24371
G1 X160.335 Y163.843 E82.71174
G1 X157.644 Y164.393 E83.19633
G1 X155.046 Y165.002 E83.66711
G1 X152.402 Y165.701 E84.14961
G1 X149.848 Y166.454 E84.61939
G1 X147.242 Y167.303 E85.10294
G1 X144.734 Y168.2 E85.57288
G1 X142.213 Y169.182 E86.0502
G1 X139.686 Y170.25 E86.53422
G1 X137.268 Y171.353 E87.00311
G1 X134.847 Y172.542 E87.47898
G1 X132.416 Y173.822 E87.9637
G1 X130.1 Y175.127 E88.43271
G1 X127.773 Y176.525 E88.91165
G1 X125.505 Y177.977 E89.38677
G1 X125.103 Y178.251 E89.4726
G1 X123.487 Y179.319 E89.81435
G1 X122.966 Y179.616 E89.92015
G1 X122.221 Y179.904 E90.06107
G1 X121.604 Y180.067 E90.17366
G1 X120.391 Y180.18 E90.38859
G1 X120.273 Y180.184 E90.40943
G1 X119.089 Y180.2 E90.61834
G1 X113.219 Y180.201 E91.65397
G1 X112.446 Y180.191 E91.79036
G1 X111.349 Y180.05 E91.9855
G1 X110.566 Y179.839 E92.12857
G1 X109.806 Y179.49 E92.27611
G1 X109.291 Y179.181 E92.38207
G1 X108.637 Y178.644 E92.53137
G1 X108.215 Y178.219 E92.63704
G1 X107.69 Y177.495 E92.79482
G1 X107.393 Y176.974 E92.90063
G1 X107.075 Y176.138 E93.05843
G1 X106.924 Y175.558 E93.16417
G1 X106.828 Y174.657 E93.32403
G1 X106.804 Y173.588 E93.51268
G1 X106.813 Y172.946 E93.62596
G1 X106.934 Y171.944 E93.80403
G1 X107.064 Y171.368 E93.9082
G1 X107.372 Y170.252 E94.11246
G1 X108.058 Y167.621 E94.59216
G1 X108.664 Y164.998 E95.06712
G1 X109.19 Y162.386 E95.53721
G1 X109.651 Y159.704 E96.01733
G1 X110.034 Y157.021 E96.49548
G1 X110.343 Y154.318 E96.97547
G1 X110.57 Y151.676 E97.44331
G1 X110.726 Y148.937 E97.92734
G1 X110.804 Y146.247 E98.40213
G1 X110.806 Y143.539 E98.8799
G1 X110.732 Y140.864 E99.35202
G1 X110.579 Y138.149 E99.83178
G1 X110.353 Y135.472 E100.30576
G1 X110.046 Y132.748 E100.7894
G1 X109.675 Y130.132 E101.25555
G1 X109.217 Y127.447 E101.7361
G1 X108.683 Y124.779 E102.21615
G1 X108.08 Y122.155 E102.69117
G1 X107.401 Y119.539 E103.168
G1 X106.653 Y116.96 E103.64176
G1 X105.819 Y114.36 E104.12349
G1 X104.938 Y111.858 E104.59148
G1 X104.576 Y110.906 E104.77117
G1 X104.2 Y109.878 E104.96429
G1 X103.898 Y108.881 E105.14809
G1 X103.563 Y107.378 E105.41976
G1 X103.367 Y105.843 E105.69278
G1 X103.315 Y104.263 E105.97169
G1 X103.404 Y102.764 E106.23662
G1 X103.502 Y101.983 E106.37549
G1 X103.741 Y100.727 E106.60106
G1 X104.022 Y99.683 E106.79181
G1 X104.533 Y98.237 E107.06238
G1 X105.179 Y96.831 E107.33537
G1 X105.968 Y95.469 E107.61308
G1 X106.84 Y94.241 E107.8788
G1 X107.864 Y93.048 E108.15618
G1 X108.998 Y91.955 E108.43405
G1 X110.161 Y91.023 E108.69699
G1 X111.502 Y90.14 E108.98027
G1 X112.839 Y89.429 E109.24743
G1 X114.271 Y88.829 E109.52136
G1 X115.783 Y88.357 E109.80082
G1 X117.227 Y88.048 E110.06135
G1 X118.827 Y87.858 E110.34561
G1 X120.351 Y87.82 E110.61457
G1 X120.493 Y87.822 E110.63963
G1 X121.584 Y87.858 E110.83222
G1 X122.962 Y87.923 E111.07561
G1 X125.646 Y87.976 E111.54923
G1 X128.36 Y87.952 E112.02808
G1 X131.074 Y87.851 E112.50724
G1 X133.744 Y87.676 E112.97931
G1 X136.422 Y87.424 E113.45387
G1 X139.149 Y87.09 E113.93859
G1 X141.79 Y86.69 E114.40985
G1 X144.452 Y86.209 E114.88711
G1 X147.094 Y85.655 E115.36337
G1 X149.734 Y85.023 E115.8423
G1 X152.321 Y84.324 E116.31509
G1 X154.921 Y83.544 E116.794
G1 X157.469 Y82.699 E117.26761
G1 X160.005 Y81.779 E117.74357
G1 X162.556 Y80.771 E118.2275
G1 X165.011 Y79.719 E118.69872
G1 X167.459 Y78.586 E119.17463
G1 X169.895 Y77.376 E119.65451
G1 X172.249 Y76.122 E120.12508
G1 X174.63 Y74.765 E120.60859
G1 X176.908 Y73.379 E121.07904
G1 X179.19 Y71.902 E121.55862
G1 X179.873 Y71.433 E121.7048
G1 X180.998 Y70.688 E121.94285
G1 X181.519 Y70.391 E122.04866
G1 X182.355 Y70.072 E122.20653
G1 X183.293 Y69.867 E122.37592
G1 X184.223 Y69.816 E122.54025
G1 X185.412 Y69.8 E122.75004
G1 X190.28 Y69.799 E123.60889
G1 X190.345 Y69.799 E123.62036
G1 X191.051 Y69.809 E123.74493
G1 X192.042 Y69.928 E123.92103
G0 F900 X191.065 Y68.81
G1 F1200 X192.225 Y68.945 E124.12707
G1 X193.026 Y69.151 E124.27298
G1 X193.65 Y69.375 E124.38995
G1 X194.233 Y69.664 E124.50475
G1 X194.798 Y70.011 E124.62174
G1 X195.524 Y70.605 E124.78723
G1 X195.994 Y71.073 E124.90425
G1 X196.644 Y71.954 E125.09741
G1 X196.976 Y72.528 E125.2144
G1 X197.374 Y73.546 E125.40724
G1 X197.545 Y74.186 E125.52412
G1 X197.671 Y75.305 E125.72279
G1 X197.695 Y76.426 E125.92061
G1 X197.686 Y77.068 E126.03389
G1 X197.554 Y78.215 E126.23759
G1 X197.405 Y78.879 E126.35765
G1 X197.135 Y79.855 E126.53631
G1 X196.901 Y80.662 E126.68455
G1 X196.229 Y83.234 E127.15356
G1 X195.634 Y85.809 E127.61983
G1 X195.101 Y88.457 E128.09639
G1 X194.65 Y91.076 E128.56525
G1 X194.265 Y93.768 E129.04503
G1 X193.968 Y96.373 E129.5076
G1 X193.736 Y99.069 E129.98501
G1 X193.585 Y101.713 E130.45225
G1 X193.507 Y104.413 E130.9288
G1 X193.496 Y105.837 E131.18005
G1 X193.496 Y125.793 E134.70085
G1 X193.363 Y130.441 E135.52123
G1 X193.363 Y133.1 E135.99035
G1 X193.439 Y135.787 E136.4646
G1 X193.591 Y138.446 E136.93449
G1 X193.818 Y141.111 E137.40637
G1 X193.967 Y142.416 E137.63811
G1 X193.977 Y142.509 E137.65461
G1 X194.134 Y144.121 E137.94036
G1 X194.187 Y145.683 E138.2161
G1 X194.156 Y146.598 E138.37762
G1 X194.033 Y147.861 E138.60151
G1 X193.844 Y148.97 E138.79999
G1 X193.462 Y150.515 E139.08078
G1 X192.921 Y152.071 E139.37142
G1 X192.268 Y153.514 E139.65086
G1 X191.861 Y154.274 E139.80296
G1 X191.177 Y155.378 E140.03209
G1 X190.558 Y156.233 E140.21832
G1 X189.987 Y156.947 E140.37962
G1 X189.108 Y157.908 E140.6094
G1 X188.336 Y158.643 E140.79746
G1 X187.079 Y159.674 E141.08428
G1 X185.747 Y160.576 E141.3681
G1 X185.021 Y161 E141.51643
G1 X183.806 Y161.609 E141.75621
G1 X182.881 Y161.994 E141.93298
G1 X182.035 Y162.298 E142.09158
G1 X180.774 Y162.663 E142.32319
G1 X179.739 Y162.885 E142.50994
G1 X178.867 Y163.027 E142.66582
G1 X177.586 Y163.154 E142.89293
G1 X176.464 Y163.184 E143.09095
G1 X173.766 Y163.271 E143.5672
G1 X171.07 Y163.435 E144.04373
G1 X168.439 Y163.668 E144.50973
G1 X165.772 Y163.982 E144.98352
G1 X163.118 Y164.37 E145.45674
G1 X160.497 Y164.829 E145.92619
G1 X157.896 Y165.361 E146.39458
G1 X155.254 Y165.981 E146.87337
G1 X152.689 Y166.659 E147.34145
G1 X150.125 Y167.415 E147.81307
G1 X147.592 Y168.24 E148.28307
G1 X145.086 Y169.136 E148.75261
G1 X142.576 Y170.114 E149.22787
G1 X140.101 Y171.16 E149.70193
G1 X137.705 Y172.253 E150.16656
G1 X135.292 Y173.438 E150.64084
G1 X132.912 Y174.692 E151.11546
G1 X130.575 Y176.008 E151.58865
G1 X128.323 Y177.362 E152.05225
G1 X126.039 Y178.823 E152.5306
G1 X125.654 Y179.085 E152.61277
G1 X124.038 Y180.153 E152.95451
G1 X123.464 Y180.485 E153.0715
G1 X122.541 Y180.852 E153.24675
G1 X121.813 Y181.045 E153.37962
G1 X120.883 Y181.162 E153.54499
G1 X120.286 Y181.183 E153.65039
G1 X119.102 Y181.199 E153.8593
G1 X119.029 Y181.2 E153.87218
G1 X113.219 Y181.201 E154.89723
G1 X112.431 Y181.19 E155.03627
G1 X111.298 Y181.06 E155.23747
G1 X110.291 Y180.803 E155.42083
G1 X109.35 Y180.38 E155.60285
G1 X108.779 Y180.042 E155.71992
G1 X107.976 Y179.395 E155.90185
G1 X107.506 Y178.927 E156.01887
G1 X106.856 Y178.046 E156.21203
G1 X106.524 Y177.472 E156.32902
G1 X106.126 Y176.454 E156.52187
G1 X105.955 Y175.814 E156.63874
G1 X105.829 Y174.695 E156.83741
G1 X105.805 Y173.574 E157.03523
G1 X105.814 Y172.932 E157.14851
G1 X105.951 Y171.762 E157.35634
G1 X106.1 Y171.102 E157.47572
G1 X106.408 Y169.986 E157.67997
G1 X107.08 Y167.41 E158.14966
G1 X107.685 Y164.791 E158.6239
G1 X108.209 Y162.191 E159.09183
G1 X108.665 Y159.534 E159.56746
G1 X109.046 Y156.868 E160.04259
G1 X109.343 Y154.264 E160.50499
G1 X109.575 Y151.567 E160.98258
G1 X109.726 Y148.922 E161.44999
G1 X109.804 Y146.226 E161.92584
G1 X109.806 Y143.566 E162.39514
G1 X109.732 Y140.877 E162.86973
G1 X109.584 Y138.254 E163.33324
G1 X109.354 Y135.53 E163.81554
G1 X109.061 Y132.929 E164.27734
G1 X108.677 Y130.225 E164.75918
G1 X108.235 Y127.636 E165.22257
G1 X107.706 Y124.989 E165.69881
G1 X107.114 Y122.413 E166.16513
G1 X106.434 Y119.794 E166.64252
G1 X105.696 Y117.25 E167.10986
