;FLAVOR:Marlin
;TIME:13270
;Filament used: 33.0069m
;Layer height: 0.4
;MINX:101.315
;MINY:67.799
;MINZ:0.4
;MAXX:198.693
;MAXY:182.201
;MAXZ:30
;Generated with Cura_SteamEngine 4.6.0
M140 S80
M105
M190 S80
M104 S250
M105
M109 S250
M82 ;absolute extrusion mode
G28 ; home all axes
 M117 Purge extruder
 G92 E0 ; reset extruder
 G1 Z1.0 F3000 ; move z up little to prevent scratching of surface
 G1 X2 Y20 Z0.3 F5000.0 ; move to start-line position
 G1 X2 Y200.0 Z0.3 F1500.0 E15 ; draw 1st line
 G1 X2 Y200.0 Z0.4 F5000.0 ; move to side a little
 G1 X2 Y20 Z0.4 F1500.0 E30 ; draw 2nd line
 G92 E0 ; reset extruder
 G1 Z1.0 F3000 ; move z up little to prevent scratching of surface
G92 E0
G92 E0
G1 F1500 E-2
;LAYER_COUNT:75
;LAYER:0
M107
G0 F900 X191.72 Y70.874 Z0.4
;TYPE:SKIRT
G1 F1500 E0
G1 F1200 X192.238 Y70.981 E0.09332
G1 X192.842 Y71.2 E0.20667
G1 X193.319 Y71.429 E0.30002
G1 X193.92 Y71.846 E0.42908
G1 X194.319 Y72.193 E0.52237
G1 X194.783 Y72.746 E0.64973
G1 X195.101 Y73.239 E0.75324
G1 X195.344 Y73.772 E0.85658
G1 X195.518 Y74.271 E0.94982
G1 X195.647 Y74.979 E1.07679
G1 X195.694 Y75.656 E1.19652
G1 X195.687 Y77.04 E1.4407
G1 X195.643 Y77.587 E1.53752
G1 X195.505 Y78.293 E1.66443
G1 X195.433 Y78.537 E1.70931
G1 X194.687 Y81.215 E2.19978
G1 X194.025 Y83.877 E2.68374
G1 X193.447 Y86.517 E3.16054
G1 X192.936 Y89.211 E3.64431
G1 X192.507 Y91.891 E4.12316
G1 X192.152 Y94.59 E4.60344
G1 X191.868 Y97.355 E5.09383
G1 X191.669 Y100.048 E5.57025
G1 X191.546 Y102.742 E6.04604
G1 X191.496 Y105.876 E6.59904
G1 X191.496 Y125.841 E10.12143
G1 X191.483 Y126.67 E10.26771
G1 X191.442 Y127.628 E10.43688
G1 X191.363 Y130.42 E10.92967
G1 X191.363 Y133.121 E11.4062
G1 X191.441 Y135.888 E11.89457
G1 X191.595 Y138.587 E12.37153
G1 X191.826 Y141.303 E12.85244
G1 X191.98 Y142.644 E13.09058
G1 X191.987 Y142.703 E13.10106
G1 X192.144 Y144.315 E13.38681
G1 X192.182 Y144.972 E13.50292
G1 X192.175 Y146.22 E13.72311
G1 X192.089 Y147.261 E13.90739
G1 X192.015 Y147.843 E14.0109
G1 X191.78 Y149.071 E14.23149
G1 X191.507 Y150.075 E14.41505
G1 X191.329 Y150.626 E14.51721
G1 X190.872 Y151.796 E14.73882
G1 X190.419 Y152.739 E14.92339
G1 X190.151 Y153.237 E15.02317
G1 X189.498 Y154.292 E15.24207
G1 X188.891 Y155.122 E15.42349
G1 X188.496 Y155.614 E15.5348
G1 X187.661 Y156.528 E15.75322
G1 X186.875 Y157.268 E15.94368
G1 X186.462 Y157.62 E16.03942
G1 X185.477 Y158.369 E16.25774
G1 X184.578 Y158.948 E16.4464
G1 X184.104 Y159.222 E16.54299
G1 X182.948 Y159.803 E16.77125
G1 X182.033 Y160.178 E16.94572
G1 X181.457 Y160.384 E17.05364
G1 X180.259 Y160.731 E17.27369
G1 X179.222 Y160.947 E17.46057
G1 X178.648 Y161.039 E17.56314
G1 X177.431 Y161.16 E17.77891
G1 X176.438 Y161.184 E17.95415
G1 X173.689 Y161.273 E18.43941
G1 X170.925 Y161.44 E18.92795
G1 X168.235 Y161.68 E19.40442
G1 X165.504 Y162.002 E19.88959
G1 X162.812 Y162.395 E20.36957
G1 X160.136 Y162.865 E20.84892
G1 X157.469 Y163.41 E21.32917
G1 X154.771 Y164.043 E21.8181
G1 X154.768 Y164.043 E21.81863
G1 X152.167 Y164.732 E22.29335
G1 X149.544 Y165.506 E22.77585
G1 X146.946 Y166.352 E23.2579
G1 X144.364 Y167.274 E23.74161
G1 X141.825 Y168.264 E24.22241
G1 X139.306 Y169.33 E24.70499
G1 X136.864 Y170.444 E25.17854
G1 X134.377 Y171.665 E25.66735
G1 X131.953 Y172.942 E26.15072
G1 X129.603 Y174.267 E26.62669
G1 X127.246 Y175.683 E27.11181
G1 X124.96 Y177.147 E27.59074
G1 X123.75 Y177.973 E27.84922
G1 X123.064 Y178.428 E27.99445
G1 X122.527 Y178.72 E28.10229
G1 X122.233 Y178.848 E28.15886
G1 X121.734 Y179.022 E28.2521
G1 X121.02 Y179.152 E28.38014
G1 X120.266 Y179.2 E28.51344
G1 X120.143 Y179.201 E28.53514
G1 X113.161 Y179.201 E29.76696
G1 X112.464 Y179.191 E29.88995
G1 X111.781 Y179.126 E30.01099
G1 X111.263 Y179.02 E30.10427
G1 X110.648 Y178.796 E30.21975
G1 X110.172 Y178.567 E30.31294
G1 X109.598 Y178.17 E30.43608
G1 X109.199 Y177.824 E30.52925
G1 X108.736 Y177.274 E30.65609
G1 X108.439 Y176.836 E30.74946
G1 X108.116 Y176.139 E30.88499
G1 X107.958 Y175.634 E30.97835
G1 X107.853 Y175.023 E31.08772
G1 X107.804 Y174.238 E31.22649
G1 X107.813 Y172.959 E31.45215
G1 X107.858 Y172.406 E31.55004
G1 X107.969 Y171.8 E31.65873
G1 X108.082 Y171.372 E31.73683
G1 X108.618 Y169.454 E32.08818
G1 X109.271 Y166.831 E32.56508
G1 X109.85 Y164.197 E33.04089
G1 X109.852 Y164.185 E33.04303
G1 X110.365 Y161.479 E33.52895
G1 X110.8 Y158.771 E34.01285
G1 X111.152 Y156.094 E34.48921
G1 X111.437 Y153.334 E34.97874
G1 X111.638 Y150.626 E35.45782
G1 X111.763 Y147.909 E35.93769
G1 X111.811 Y145.188 E36.41782
G1 X111.782 Y142.437 E36.9032
G1 X111.677 Y139.738 E37.37974
G1 X111.493 Y137.004 E37.86319
G1 X111.233 Y134.284 E38.34526
G1 X110.9 Y131.601 E38.82225
G1 X110.48 Y128.856 E39.31219
G1 X109.995 Y126.199 E39.7887
G1 X109.435 Y123.55 E40.26639
G1 X108.789 Y120.868 E40.7531
G1 X108.074 Y118.239 E41.23378
G1 X107.277 Y115.599 E41.72031
G1 X106.428 Y113.052 E42.19398
G1 X105.079 Y109.35 E42.88913
G1 X104.738 Y108.14 E43.11093
G1 X104.521 Y107.059 E43.30545
G1 X104.438 Y106.499 E43.40533
G1 X104.329 Y105.305 E43.61686
G1 X104.315 Y104.256 E43.80195
G1 X104.337 Y103.582 E43.92093
G1 X104.454 Y102.375 E44.13488
G1 X104.628 Y101.374 E44.31413
G1 X104.719 Y100.934 E44.3934
G1 X104.985 Y99.952 E44.5729
G1 X105.179 Y99.349 E44.68465
G1 X105.644 Y98.168 E44.90858
G1 X106.127 Y97.175 E45.1034
G1 X106.4 Y96.676 E45.20375
G1 X107.05 Y95.64 E45.41953
G1 X107.715 Y94.743 E45.61653
G1 X108.063 Y94.32 E45.71317
G1 X108.908 Y93.403 E45.93317
G1 X109.674 Y92.692 E46.11756
G1 X110.165 Y92.277 E46.23099
G1 X111.145 Y91.548 E46.44648
G1 X112.031 Y90.989 E46.6313
G1 X112.58 Y90.677 E46.74271
G1 X113.705 Y90.129 E46.96349
G1 X114.741 Y89.721 E47.15993
G1 X115.236 Y89.553 E47.25216
G1 X116.48 Y89.211 E47.47978
G1 X117.521 Y89.012 E47.66677
G1 X118.081 Y88.932 E47.76657
G1 X119.366 Y88.825 E47.99406
G1 X120.459 Y88.822 E48.1869
G1 X121.597 Y88.859 E48.38778
G1 X121.649 Y88.861 E48.39696
G1 X122.957 Y88.923 E48.62799
G1 X125.657 Y88.975 E49.10444
G1 X128.394 Y88.95 E49.58734
G1 X131.164 Y88.846 E50.07639
G1 X133.858 Y88.668 E50.55273
G1 X136.55 Y88.414 E51.02978
G1 X139.301 Y88.076 E51.51878
G1 X141.97 Y87.671 E51.99506
G1 X144.667 Y87.183 E52.47862
G1 X147.328 Y86.623 E52.95838
G1 X149.991 Y85.985 E53.4415
G1 X152.64 Y85.268 E53.92568
G1 X155.229 Y84.491 E54.40258
G1 X157.831 Y83.627 E54.88629
G1 X160.418 Y82.687 E55.37191
G1 X162.936 Y81.691 E55.84964
G1 X165.438 Y80.617 E56.33002
G1 X167.897 Y79.479 E56.80806
G1 X170.381 Y78.243 E57.29756
G1 X172.77 Y76.968 E57.77532
G1 X175.133 Y75.621 E58.2552
G1 X177.475 Y74.195 E58.73896
G1 X179.757 Y72.718 E59.21854
G1 X181.115 Y71.785 E59.50923
G1 X181.442 Y71.569 E59.57837
G1 X181.97 Y71.282 E59.6844
G1 X182.263 Y71.154 E59.74081
G1 X182.762 Y70.979 E59.83411
G1 X183.48 Y70.848 E59.96287
G1 X184.234 Y70.8 E60.09617
G1 X184.357 Y70.799 E60.11787
G1 X190.339 Y70.799 E61.17327
G1 X191.037 Y70.809 E61.29643
G1 X191.72 Y70.874 E61.41747
G0 F900 X191.847 Y69.882
G1 F1200 X192.436 Y69.998 E61.52338
G1 X193.205 Y70.268 E61.66718
G1 X193.748 Y70.523 E61.77301
G1 X194.255 Y70.849 E61.87936
G1 X194.516 Y71.043 E61.93673
G1 X194.973 Y71.432 E62.04262
G1 X195.497 Y72.034 E62.18343
G1 X195.946 Y72.699 E62.32499
G1 X196.261 Y73.373 E62.45625
G1 X196.463 Y73.937 E62.56194
G1 X196.583 Y74.483 E62.66057
G1 X196.636 Y74.827 E62.72198
G1 X196.694 Y75.624 E62.86296
G1 X196.687 Y77.055 E63.11544
G1 X196.633 Y77.73 E63.23491
G1 X196.464 Y78.576 E63.38711
G1 X196.396 Y78.806 E63.42943
G1 X195.65 Y81.483 E63.91972
G1 X195.004 Y84.081 E64.39204
G1 X194.422 Y86.741 E64.87244
G1 X193.922 Y89.377 E65.3458
G1 X193.498 Y92.023 E65.81859
G1 X193.14 Y94.755 E66.30471
G1 X192.869 Y97.392 E66.7724
G1 X192.666 Y100.131 E67.25696
G1 X192.544 Y102.808 E67.72975
G1 X192.496 Y105.821 E68.2614
G1 X192.496 Y125.855 E71.79596
G1 X192.482 Y126.713 E71.94736
G1 X192.439 Y127.721 E72.12536
G1 X192.363 Y130.412 E72.60032
G1 X192.363 Y133.129 E73.07968
G1 X192.439 Y135.802 E73.55146
G1 X192.593 Y138.517 E74.03123
G1 X192.823 Y141.207 E74.50756
G1 X192.974 Y142.53 E74.74249
G1 X192.982 Y142.606 E74.75597
G1 X193.139 Y144.218 E75.04172
G1 X193.182 Y144.965 E75.17373
G1 X193.174 Y146.247 E75.39991
G1 X193.083 Y147.377 E75.59992
G1 X192.999 Y148.02 E75.71433
G1 X192.757 Y149.281 E75.94087
G1 X192.498 Y150.247 E76.11732
G1 X192.356 Y150.713 E76.20326
G1 X191.985 Y151.717 E76.3921
G1 X191.691 Y152.411 E76.52508
G1 X191.147 Y153.507 E76.74095
G1 X190.591 Y154.439 E76.93242
G1 X190.177 Y155.067 E77.06513
G1 X189.428 Y156.058 E77.28429
G1 X188.747 Y156.834 E77.46644
G1 X188.203 Y157.398 E77.60469
G1 X187.269 Y158.251 E77.82786
G1 X186.465 Y158.885 E78.0085
G1 X185.845 Y159.327 E78.14284
G1 X184.8 Y159.979 E78.36015
G1 X183.848 Y160.48 E78.54995
G1 X183.134 Y160.813 E78.68894
G1 X182.007 Y161.253 E78.90239
G1 X181.017 Y161.561 E79.08531
G1 X180.261 Y161.757 E79.2231
G1 X179.02 Y161.996 E79.44608
G1 X177.985 Y162.118 E79.62994
G1 X177.241 Y162.17 E79.76153
G1 X176.478 Y162.184 E79.89616
G1 X173.711 Y162.273 E80.38459
G1 X171.002 Y162.437 E80.86341
G1 X168.337 Y162.675 E81.33547
G1 X165.66 Y162.99 E81.81102
G1 X162.954 Y163.386 E82.29352
G1 X160.334 Y163.846 E82.76284
G1 X157.648 Y164.395 E83.24652
G1 X155.026 Y165.01 E83.72167
G1 X152.43 Y165.697 E84.19544
G1 X149.852 Y166.457 E84.66963
G1 X147.266 Y167.3 E85.1495
G1 X144.717 Y168.21 E85.62702
G1 X142.2 Y169.191 E86.10362
G1 X139.708 Y170.246 E86.58106
G1 X137.272 Y171.357 E87.05343
G1 X134.823 Y172.56 E87.53482
G1 X132.448 Y173.811 E88.00841
G1 X130.105 Y175.131 E88.48287
G1 X127.77 Y176.534 E88.96347
G1 X125.524 Y177.973 E89.43409
G1 X124.314 Y178.799 E89.69256
G1 X123.617 Y179.261 E89.84009
G1 X122.926 Y179.637 E89.97889
G1 X122.632 Y179.765 E90.03546
G1 X122.068 Y179.967 E90.14115
G1 X121.517 Y180.087 E90.24065
G1 X121.171 Y180.14 E90.3024
G1 X120.381 Y180.198 E90.44215
G1 X120.152 Y180.201 E90.48256
G1 X113.146 Y180.201 E91.71862
G1 X112.449 Y180.191 E91.8416
G1 X111.654 Y180.118 E91.98245
G1 X111.066 Y180.002 E92.08819
G1 X110.284 Y179.727 E92.23444
G1 X109.742 Y179.472 E92.34012
G1 X109.239 Y179.149 E92.44558
G1 X109.002 Y178.973 E92.49767
G1 X108.546 Y178.584 E92.60341
G1 X108.159 Y178.156 E92.70522
G1 X107.952 Y177.895 E92.76399
G1 X107.612 Y177.402 E92.86965
G1 X107.242 Y176.641 E93.01894
G1 X107.003 Y175.94 E93.1496
G1 X106.865 Y175.175 E93.28675
G1 X106.804 Y174.24 E93.45206
G1 X106.813 Y172.945 E93.68054
G1 X106.868 Y172.261 E93.80161
G1 X107.002 Y171.545 E93.93012
G1 X107.119 Y171.102 E94.01096
G1 X107.647 Y169.212 E94.35718
G1 X108.299 Y166.591 E94.83369
G1 X108.872 Y163.986 E95.30427
G1 X109.378 Y161.316 E95.78372
G1 X109.806 Y158.653 E96.25958
G1 X110.164 Y155.934 E96.74343
G1 X110.436 Y153.299 E97.21079
G1 X110.64 Y150.558 E97.69572
G1 X110.763 Y147.881 E98.16851
G1 X110.811 Y145.198 E98.64195
G1 X110.783 Y142.486 E99.12045
G1 X110.677 Y139.773 E99.59946
G1 X110.497 Y137.095 E100.073
G1 X110.239 Y134.396 E100.55135
G1 X109.904 Y131.699 E101.03084
G1 X109.498 Y129.051 E101.50348
G1 X109.016 Y126.403 E101.97834
G1 X108.453 Y123.741 E102.45838
G1 X107.822 Y121.122 E102.93367
G1 X107.111 Y118.506 E103.41195
G1 X106.33 Y115.92 E103.88854
G1 X105.478 Y113.364 E104.36389
G1 X104.544 Y110.806 E104.84433
G1 X104.201 Y109.88 E105.01855
G1 X103.898 Y108.881 E105.20273
G1 X103.716 Y108.151 E105.33547
G1 X103.477 Y106.862 E105.56676
G1 X103.367 Y105.843 E105.74759
G1 X103.321 Y105.094 E105.87998
G1 X103.325 Y103.766 E106.11428
G1 X103.404 Y102.764 E106.29161
G1 X103.502 Y101.983 E106.43048
G1 X103.741 Y100.727 E106.65605
G1 X104.022 Y99.683 E106.8468
G1 X104.245 Y98.993 E106.97473
G1 X104.721 Y97.781 E107.20446
G1 X105.179 Y96.831 E107.39053
G1 X105.548 Y96.152 E107.52687
G1 X106.214 Y95.09 E107.74804
G1 X106.84 Y94.241 E107.93414
G1 X107.321 Y93.649 E108.06871
G1 X108.188 Y92.709 E108.29433
G1 X108.998 Y91.955 E108.48957
G1 X109.559 Y91.481 E108.61914
G1 X110.568 Y90.732 E108.84085
G1 X111.502 Y90.14 E109.03594
G1 X112.132 Y89.783 E109.1637
G1 X113.287 Y89.22 E109.39039
G1 X114.271 Y88.829 E109.5772
G1 X114.962 Y88.591 E109.70614
G1 X116.236 Y88.241 E109.93924
G1 X117.227 Y88.048 E110.11737
G1 X117.988 Y87.936 E110.25307
G1 X119.305 Y87.827 E110.48622
G1 X120.351 Y87.82 E110.67077
G1 X120.491 Y87.822 E110.69547
G1 X121.629 Y87.859 E110.89636
G1 X122.989 Y87.923 E111.13656
G1 X125.667 Y87.975 E111.60913
G1 X128.382 Y87.95 E112.08815
G1 X131.096 Y87.848 E112.56732
G1 X133.769 Y87.672 E113.03993
G1 X136.476 Y87.416 E113.51965
G1 X139.136 Y87.089 E113.99249
G1 X141.811 Y86.683 E114.46984
G1 X144.465 Y86.203 E114.94567
G1 X147.139 Y85.64 E115.42779
G1 X149.739 Y85.017 E115.89949
G1 X152.342 Y84.313 E116.37523
G1 X154.942 Y83.532 E116.85419
G1 X157.49 Y82.687 E117.32781
G1 X160.067 Y81.75 E117.81158
G1 X162.563 Y80.762 E118.28519
G1 X165 Y79.717 E118.75301
G1 X167.507 Y78.556 E119.24044
G1 X169.912 Y77.36 E119.71433
G1 X172.281 Y76.096 E120.18806
G1 X174.632 Y74.756 E120.66548
G1 X176.931 Y73.355 E121.14047
G1 X179.219 Y71.874 E121.62133
G1 X180.549 Y70.961 E121.90594
G1 X180.891 Y70.734 E121.97836
G1 X181.57 Y70.365 E122.11471
G1 X181.863 Y70.237 E122.17112
G1 X182.427 Y70.034 E122.27687
G1 X182.983 Y69.913 E122.37726
G1 X183.329 Y69.86 E122.43902
G1 X184.119 Y69.802 E122.57877
G1 X184.348 Y69.799 E122.61918
G1 X190.353 Y69.799 E123.67863
G1 X191.051 Y69.809 E123.80179
G1 X191.847 Y69.882 E123.94282
G0 F900 X191.066 Y68.81
G1 F1200 X191.974 Y68.891 E124.10365
G1 X192.626 Y69.014 E124.22071
G1 X193.274 Y69.222 E124.34078
G1 X193.569 Y69.337 E124.39664
G1 X194.171 Y69.614 E124.51356
G1 X194.852 Y70.047 E124.65593
G1 X195.113 Y70.241 E124.71331
G1 X195.62 Y70.668 E124.83025
G1 X196.28 Y71.412 E125.00572
G1 X196.422 Y71.598 E125.04701
G1 X196.785 Y72.153 E125.16401
G1 X197.178 Y72.974 E125.3246
G1 X197.406 Y73.597 E125.44164
G1 X197.571 Y74.33 E125.5742
G1 X197.624 Y74.674 E125.63561
G1 X197.693 Y75.593 E125.7982
G1 X197.686 Y77.069 E126.05861
G1 X197.661 Y77.535 E126.14095
G1 X197.592 Y78.088 E126.23927
G1 X197.423 Y78.859 E126.37852
G1 X197.349 Y79.11 E126.42469
G1 X196.627 Y81.699 E126.89889
G1 X195.974 Y84.327 E127.37665
G1 X195.406 Y86.922 E127.84532
G1 X194.905 Y89.565 E128.31992
G1 X194.483 Y92.204 E128.79143
G1 X194.136 Y94.845 E129.26138
G1 X193.864 Y97.497 E129.73173
G1 X193.665 Y100.178 E130.20603
G1 X193.544 Y102.836 E130.67546
G1 X193.496 Y105.821 E131.20217
G1 X193.496 Y125.793 E134.7258
G1 X193.481 Y126.755 E134.89554
G1 X193.441 Y127.685 E135.05977
G1 X193.363 Y130.441 E135.5462
G1 X193.363 Y133.1 E136.01533
G1 X193.439 Y135.787 E136.48958
G1 X193.591 Y138.446 E136.95947
G1 X193.818 Y141.111 E137.43135
G1 X193.967 Y142.416 E137.66309
G1 X193.977 Y142.509 E137.67959
G1 X194.134 Y144.121 E137.96534
G1 X194.182 Y144.958 E138.11325
G1 X194.174 Y146.275 E138.34561
G1 X194.093 Y147.328 E138.53194
G1 X193.983 Y148.198 E138.68665
G1 X193.735 Y149.492 E138.91911
G1 X193.721 Y149.489 E138.92163
G1 X193.659 Y149.805 E138.97845
G1 X193.312 Y151.008 E139.19934
G1 X192.921 Y152.071 E139.39917
G1 X192.591 Y152.847 E139.54795
G1 X192.033 Y153.97 E139.76919
G1 X191.446 Y154.958 E139.97194
G1 X190.981 Y155.661 E140.12065
G1 X190.215 Y156.675 E140.34485
G1 X189.492 Y157.501 E140.53853
G1 X188.886 Y158.128 E140.69237
G1 X187.926 Y159.005 E140.92178
G1 X187.079 Y159.674 E141.1122
G1 X186.383 Y160.17 E141.26299
G1 X185.312 Y160.838 E141.48568
G1 X184.306 Y161.369 E141.68638
G1 X183.509 Y161.74 E141.84148
G1 X182.354 Y162.191 E142.06024
G1 X181.306 Y162.518 E142.25393
G1 X180.461 Y162.737 E142.40793
G1 X179.188 Y162.982 E142.63665
G1 X178.095 Y163.112 E142.83084
G1 X177.259 Y163.17 E142.97869
G1 X176.467 Y163.184 E143.11844
G1 X173.769 Y163.271 E143.5947
G1 X171.08 Y163.434 E144.06998
G1 X168.437 Y163.67 E144.53814
G1 X165.775 Y163.983 E145.01103
G1 X163.135 Y164.369 E145.48175
G1 X160.49 Y164.834 E145.95556
G1 X157.9 Y165.363 E146.42194
G1 X155.268 Y165.98 E146.89889
G1 X152.685 Y166.664 E147.37031
G1 X150.129 Y167.418 E147.84048
G1 X147.596 Y168.243 E148.31047
G1 X145.089 Y169.139 E148.78018
G1 X142.576 Y170.118 E149.256
G1 X140.11 Y171.162 E149.72846
G1 X137.709 Y172.257 E150.19403
G1 X135.269 Y173.456 E150.67369
