;FLAVOR:Marlin
;TIME:13354
;Filament used: 32.9976m
;Layer height: 0.4
;MINX:101.315
;MINY:67.799
;MINZ:0.4
;MAXX:198.692
;MAXY:182.201
;MAXZ:30
;Generated with Cura_SteamEngine 4.6.0
M140 S80
M105
M190 S80
M104 S250
M105
M109 S250
M82 ;absolute extrusion mode
G28 ; home all axes
 M117 Purge extruder
 G92 E0 ; reset extruder
 G1 Z1.0 F3000 ; move z up little to prevent scratching of surface
 G1 X2 Y20 Z0.3 F5000.0 ; move to start-line position
 G1 X2 Y200.0 Z0.3 F1500.0 E15 ; draw 1st line
 G1 X2 Y200.0 Z0.4 F5000.0 ; move to side a little
 G1 X2 Y20 Z0.4 F1500.0 E30 ; draw 2nd line
 G92 E0 ; reset extruder
 G1 Z1.0 F3000 ; move z up little to prevent scratching of surface
G92 E0
G92 E0
G1 F1500 E-2
;LAYER_COUNT:75
;LAYER:0
M107
G0 F900 X192.082 Y70.983 Z0.4
;TYPE:SKIRT
G1 F1500 E0
G1 F1200 X193.431 Y71.593 E0.2612
G1 X194.358 Y72.257 E0.46238
G1 X194.985 Y73.109 E0.64901
G1 X195.466 Y74.506 E0.90968
G1 X195.678 Y75.707 E1.12485
G1 X195.687 Y77.039 E1.35986
G1 X195.426 Y78.421 E1.60799
G1 X195.413 Y78.469 E1.61677
G1 X194.943 Y80.092 E1.91487
G1 X194.255 Y82.741 E2.39774
G1 X193.646 Y85.392 E2.87763
G1 X193.113 Y88.06 E3.35765
G1 X192.651 Y90.771 E3.84284
G1 X192.271 Y93.444 E4.31917
G1 X191.964 Y96.164 E4.80211
G1 X191.733 Y98.894 E5.28548
G1 X191.58 Y101.626 E5.76823
G1 X191.496 Y105.676 E6.48292
G1 X191.496 Y125.841 E10.0406
G1 X191.442 Y127.628 E10.35602
G1 X191.363 Y130.42 E10.84881
G1 X191.363 Y133.12 E11.32516
G1 X191.441 Y135.888 E11.81371
G1 X191.595 Y138.588 E12.29084
G1 X191.826 Y141.303 E12.77158
G1 X191.98 Y142.644 E13.00972
G1 X191.986 Y142.703 E13.02018
G1 X192.143 Y144.314 E13.30576
G1 X192.187 Y145.697 E13.54988
G1 X192.1 Y147.156 E13.80775
G1 X191.876 Y148.615 E14.06817
G1 X191.535 Y149.98 E14.3164
G1 X191.05 Y151.364 E14.57513
G1 X190.468 Y152.642 E14.82289
G1 X189.736 Y153.921 E15.08288
G1 X188.95 Y155.044 E15.32472
G1 X188.001 Y156.168 E15.58426
G1 X186.969 Y157.183 E15.83964
G1 X185.851 Y158.095 E16.09419
G1 X184.671 Y158.89 E16.34521
G1 X183.389 Y159.591 E16.603
G1 X182.131 Y160.14 E16.84516
G1 X180.728 Y160.604 E17.10587
G1 X179.338 Y160.926 E17.3576
G1 X177.876 Y161.124 E17.6179
G1 X176.392 Y161.186 E17.87995
G1 X173.646 Y161.275 E18.36467
G1 X170.881 Y161.443 E18.8534
G1 X168.187 Y161.684 E19.33059
G1 X165.464 Y162.005 E19.81433
G1 X162.761 Y162.401 E20.29631
G1 X160.104 Y162.868 E20.77227
G1 X157.41 Y163.42 E21.25744
G1 X154.724 Y164.049 E21.74415
G1 X152.113 Y164.741 E22.2207
G1 X149.476 Y165.519 E22.70577
G1 X146.903 Y166.358 E23.18325
G1 X144.353 Y167.271 E23.66111
G1 X141.768 Y168.279 E24.15062
G1 X139.289 Y169.328 E24.62553
G1 X136.795 Y170.467 E25.10926
G1 X134.32 Y171.682 E25.5957
G1 X131.922 Y172.947 E26.07403
G1 X129.548 Y174.284 E26.55473
G1 X127.229 Y175.679 E27.03219
G1 X124.886 Y177.181 E27.52321
G1 X123.399 Y178.184 E27.83966
G1 X122.326 Y178.732 E28.05222
G1 X121.05 Y179.01 E28.28263
G1 X119.843 Y179.177 E28.49761
G1 X118.781 Y179.199 E28.68501
G1 X118.71 Y179.2 E28.69754
G1 X113.219 Y179.201 E29.66631
G1 X111.934 Y179.143 E29.89325
G1 X110.95 Y178.831 E30.07537
G1 X109.611 Y178.137 E30.34146
G1 X108.847 Y177.41 E30.52752
G1 X108.255 Y176.248 E30.7576
G1 X107.931 Y175.1 E30.96806
G1 X107.808 Y173.542 E31.24379
G1 X107.848 Y172.51 E31.426
G1 X108.2 Y171.118 E31.67932
G1 X108.363 Y170.556 E31.78255
G1 X109.049 Y167.924 E32.26243
G1 X109.659 Y165.285 E32.7403
G1 X110.203 Y162.581 E33.22692
G1 X110.661 Y159.914 E33.70434
G1 X111.053 Y157.172 E34.19303
G1 X111.361 Y154.472 E34.67247
G1 X111.593 Y151.761 E35.15252
G1 X111.747 Y149.063 E35.6293
G1 X111.826 Y146.293 E36.1182
G1 X111.828 Y143.591 E36.59491
G1 X111.751 Y140.855 E37.07781
G1 X111.596 Y138.076 E37.56887
G1 X111.371 Y135.428 E38.03773
G1 X111.06 Y132.675 E38.52653
G1 X110.68 Y130.002 E39.00286
G1 X110.22 Y127.307 E39.48522
G1 X109.683 Y124.62 E39.96865
G1 X109.067 Y121.941 E40.45364
G1 X108.394 Y119.352 E40.92559
G1 X107.625 Y116.701 E41.41258
G1 X106.784 Y114.08 E41.89823
G1 X105.885 Y111.529 E42.37542
G1 X105.523 Y110.585 E42.5538
G1 X105.142 Y109.541 E42.74987
G1 X104.822 Y108.47 E42.94708
G1 X104.544 Y107.184 E43.17921
G1 X104.362 Y105.743 E43.43546
G1 X104.315 Y104.256 E43.69794
G1 X104.4 Y102.849 E43.94663
G1 X104.628 Y101.374 E44.20995
G1 X104.985 Y99.952 E44.46862
G1 X105.467 Y98.593 E44.72302
G1 X106.077 Y97.272 E44.97973
G1 X106.82 Y95.993 E45.24069
G1 X107.64 Y94.84 E45.49031
G1 X108.606 Y93.719 E45.75139
G1 X109.672 Y92.694 E46.0123
G1 X110.767 Y91.819 E46.25959
G1 X112.031 Y90.989 E46.52638
G1 X113.287 Y90.323 E46.7772
G1 X114.64 Y89.758 E47.03588
G1 X116.057 Y89.319 E47.29761
G1 X117.411 Y89.031 E47.54183
G1 X118.92 Y88.854 E47.80989
G1 X120.35 Y88.82 E48.06225
G1 X120.458 Y88.822 E48.08131
G1 X121.574 Y88.858 E48.27831
G1 X121.628 Y88.86 E48.28784
G1 X122.973 Y88.924 E48.52541
G1 X125.671 Y88.976 E49.0015
G1 X128.408 Y88.951 E49.4844
G1 X131.178 Y88.847 E49.97345
G1 X133.872 Y88.669 E50.44979
G1 X136.564 Y88.415 E50.92684
G1 X139.315 Y88.077 E51.41585
G1 X141.989 Y87.671 E51.89302
G1 X144.676 Y87.186 E52.37475
G1 X147.366 Y86.62 E52.85973
G1 X149.989 Y85.99 E53.33566
G1 X152.635 Y85.276 E53.81919
G1 X155.263 Y84.485 E54.30339
G1 X157.835 Y83.633 E54.78141
G1 X160.432 Y82.689 E55.26893
G1 X162.95 Y81.693 E55.74667
G1 X165.452 Y80.619 E56.22704
G1 X167.911 Y79.481 E56.70509
G1 X170.395 Y78.245 E57.19459
G1 X172.785 Y76.97 E57.6725
G1 X175.153 Y75.62 E58.15341
G1 X177.46 Y74.216 E58.62988
G1 X180.925 Y71.938 E59.36148
G1 X182.182 Y71.266 E59.61296
G1 X183.449 Y70.99 E59.84173
G1 X184.657 Y70.823 E60.05689
G1 X185.719 Y70.801 E60.24429
G1 X185.79 Y70.8 E60.25682
G1 X190.28 Y70.799 E61.04898
G1 X190.33 Y70.799 E61.0578
G1 X191.042 Y70.809 E61.18343
G1 X192.082 Y70.983 E61.36947
G0 F900 X192.24 Y69.985
G1 F1200 X193.26 Y70.395 E61.56342
G1 X194.392 Y70.997 E61.78962
G1 X195.462 Y72.003 E62.04873
G1 X196.055 Y73.043 E62.25995
G1 X196.425 Y74.225 E62.47847
G1 X196.648 Y75.245 E62.66268
G1 X196.692 Y76.439 E62.87347
G1 X196.6 Y77.878 E63.12787
G1 X196.373 Y78.747 E63.28633
G1 X195.915 Y80.328 E63.57674
G1 X195.228 Y82.974 E64.05904
G1 X194.624 Y85.602 E64.53479
G1 X194.097 Y88.241 E65.00957
G1 X193.638 Y90.93 E65.49085
G1 X193.261 Y93.591 E65.96502
G1 X192.959 Y96.258 E66.43856
G1 X192.73 Y98.963 E66.9175
G1 X192.58 Y101.646 E67.3916
G1 X192.496 Y105.697 E68.10646
G1 X192.496 Y125.855 E71.66291
G1 X192.482 Y126.713 E71.8143
G1 X192.439 Y127.721 E71.9923
G1 X192.363 Y130.412 E72.46726
G1 X192.363 Y133.128 E72.94644
G1 X192.439 Y135.802 E73.4184
G1 X192.593 Y138.518 E73.89835
G1 X192.823 Y141.207 E74.3745
G1 X192.974 Y142.53 E74.60943
G1 X192.982 Y142.606 E74.62291
G1 X193.139 Y144.217 E74.90849
G1 X193.187 Y145.69 E75.1685
G1 X193.096 Y147.242 E75.44279
G1 X192.86 Y148.792 E75.7194
G1 X192.498 Y150.247 E75.98393
G1 X191.985 Y151.717 E76.25862
G1 X191.368 Y153.078 E76.52226
G1 X190.591 Y154.439 E76.79876
G1 X189.754 Y155.639 E77.05689
G1 X188.747 Y156.834 E77.33259
G1 X187.653 Y157.913 E77.60369
G1 X186.465 Y158.885 E77.8745
G1 X185.209 Y159.733 E78.14187
G1 X183.848 Y160.48 E78.41578
G1 X182.506 Y161.067 E78.67421
G1 X181.017 Y161.561 E78.95099
G1 X179.539 Y161.905 E79.21872
G1 X177.985 Y162.118 E79.49545
G1 X176.432 Y162.186 E79.76971
G1 X173.67 Y162.275 E80.25726
G1 X170.96 Y162.44 E80.73626
G1 X168.286 Y162.679 E81.20991
G1 X165.62 Y162.993 E81.68352
G1 X162.903 Y163.391 E82.168
G1 X160.261 Y163.855 E82.64125
G1 X157.629 Y164.395 E83.11529
G1 X154.999 Y165.011 E83.59185
G1 X152.367 Y165.709 E84.07226
G1 X149.785 Y166.47 E84.54717
G1 X147.234 Y167.302 E85.02057
G1 X144.675 Y168.218 E85.50011
G1 X142.163 Y169.198 E85.97583
G1 X139.661 Y170.257 E86.45516
G1 X137.232 Y171.366 E86.92626
G1 X134.809 Y172.556 E87.40252
G1 X132.376 Y173.839 E87.8878
G1 X130.051 Y175.149 E88.35862
G1 X127.756 Y176.529 E88.83109
G1 X125.44 Y178.013 E89.31638
G1 X123.958 Y179.013 E89.63181
G1 X122.776 Y179.636 E89.86754
G1 X121.25 Y179.99 E90.14392
G1 X119.864 Y180.177 E90.39066
G1 X118.802 Y180.199 E90.57807
G1 X118.71 Y180.2 E90.5943
G1 X113.219 Y180.201 E91.56307
G1 X111.849 Y180.142 E91.805
G1 X110.743 Y179.829 E92.0078
G1 X109.624 Y179.303 E92.22594
G1 X108.631 Y178.635 E92.43709
G1 X107.849 Y177.729 E92.64824
G1 X107.295 Y176.529 E92.88143
G1 X106.963 Y175.35 E93.09753
G1 X106.822 Y174.312 E93.28234
G1 X106.813 Y172.948 E93.52299
G1 X106.978 Y171.787 E93.72989
G1 X107.253 Y170.792 E93.91201
G1 X107.396 Y170.3 E94.00241
G1 X108.083 Y167.664 E94.48301
G1 X108.677 Y165.093 E94.94855
G1 X109.221 Y162.391 E95.43483
G1 X109.677 Y159.733 E95.91063
G1 X110.059 Y157.058 E96.38736
G1 X110.363 Y154.392 E96.86077
G1 X110.595 Y151.687 E97.33976
G1 X110.749 Y148.978 E97.81847
G1 X110.826 Y146.299 E98.29132
G1 X110.828 Y143.583 E98.7705
G1 X110.753 Y140.901 E99.24387
G1 X110.602 Y138.198 E99.7215
G1 X110.372 Y135.486 E100.20169
G1 X110.07 Y132.822 E100.6747
G1 X109.693 Y130.164 E101.14834
G1 X109.232 Y127.461 E101.63212
G1 X108.712 Y124.865 E102.09922
G1 X108.096 Y122.182 E102.58489
G1 X107.422 Y119.589 E103.05758
G1 X106.671 Y117 E103.53318
G1 X105.837 Y114.402 E104.01458
G1 X104.953 Y111.893 E104.48391
G1 X104.589 Y110.943 E104.6634
G1 X104.2 Y109.878 E104.86343
G1 X103.898 Y108.881 E105.04723
G1 X103.563 Y107.378 E105.3189
G1 X103.367 Y105.843 E105.59192
G1 X103.315 Y104.263 E105.87083
G1 X103.404 Y102.764 E106.13576
G1 X103.644 Y101.196 E106.41562
G1 X104.022 Y99.683 E106.69076
G1 X104.533 Y98.237 E106.96134
G1 X105.179 Y96.831 E107.23433
G1 X105.968 Y95.469 E107.51203
G1 X106.84 Y94.241 E107.77775
G1 X107.864 Y93.048 E108.05513
G1 X108.996 Y91.957 E108.33251
G1 X110.161 Y91.023 E108.59595
G1 X111.502 Y90.14 E108.87922
G1 X112.839 Y89.429 E109.14639
G1 X114.277 Y88.826 E109.42149
G1 X115.783 Y88.357 E109.69978
G1 X117.227 Y88.048 E109.96031
G1 X118.827 Y87.858 E110.24458
G1 X120.351 Y87.82 E110.51354
G1 X120.49 Y87.822 E110.53807
G1 X121.606 Y87.858 E110.73506
G1 X121.676 Y87.861 E110.74742
G1 X123.005 Y87.924 E110.98216
G1 X125.681 Y87.976 E111.45437
G1 X128.395 Y87.951 E111.93322
G1 X131.11 Y87.849 E112.41256
G1 X133.783 Y87.673 E112.88517
G1 X136.49 Y87.417 E113.3649
G1 X139.15 Y87.09 E113.83773
G1 X141.837 Y86.682 E114.31723
G1 X144.468 Y86.207 E114.78891
G1 X147.136 Y85.646 E115.26992
G1 X149.787 Y85.01 E115.7509
G1 X152.361 Y84.315 E116.22129
G1 X154.955 Y83.534 E116.69924
G1 X157.484 Y82.696 E117.16928
G1 X160.081 Y81.752 E117.6568
G1 X162.577 Y80.764 E118.13041
G1 X165.014 Y79.719 E118.59823
G1 X167.521 Y78.558 E119.08566
G1 X169.913 Y77.368 E119.55702
G1 X172.293 Y76.099 E120.03287
G1 X174.667 Y74.745 E120.51505
G1 X176.939 Y73.363 E120.98423
G1 X180.345 Y71.123 E121.70345
G1 X181.734 Y70.361 E121.98296
G1 X183.248 Y70.01 E122.25716
G1 X184.636 Y69.823 E122.50426
G1 X185.698 Y69.801 E122.69166
G1 X185.79 Y69.8 E122.70789
G1 X190.28 Y69.799 E123.50006
G1 X190.344 Y69.799 E123.51135
G1 X191.056 Y69.809 E123.63698
G1 X192.24 Y69.985 E123.84817
G0 F900 X191.731 Y68.859
G1 F1200 X193.179 Y69.262 E124.11334
G1 X194.316 Y69.799 E124.33519
G1 X195.424 Y70.523 E124.56871
G1 X196.214 Y71.341 E124.76934
G1 X196.899 Y72.474 E125.00293
G1 X197.385 Y73.943 E125.27592
G1 X197.632 Y75.058 E125.4774
G1 X197.692 Y76.42 E125.71793
G1 X197.638 Y77.726 E125.94854
G1 X197.355 Y78.95 E126.17019
G1 X197.334 Y79.026 E126.1841
G1 X196.873 Y80.616 E126.47617
G1 X196.194 Y83.232 E126.953
G1 X195.601 Y85.813 E127.42023
G1 X195.085 Y88.398 E127.88529
G1 X194.63 Y91.065 E128.36263
G1 X194.251 Y93.737 E128.83876
G1 X193.952 Y96.383 E129.30856
G1 X193.728 Y99.031 E129.77741
G1 X193.581 Y101.66 E130.24197
G1 X193.496 Y105.707 E130.95613
G1 X193.496 Y125.793 E134.49987
G1 X193.363 Y130.441 E135.32025
G1 X193.363 Y133.099 E135.78919
G1 X193.439 Y135.787 E136.26362
G1 X193.591 Y138.447 E136.73369
G1 X193.818 Y141.111 E137.2054
G1 X193.967 Y142.416 E137.43713
G1 X193.977 Y142.509 E137.45363
G1 X194.134 Y144.12 E137.73921
G1 X194.187 Y145.683 E138.01512
G1 X194.093 Y147.328 E138.30582
G1 X193.844 Y148.97 E138.59883
G1 X193.462 Y150.515 E138.87962
G1 X192.921 Y152.071 E139.17026
G1 X192.268 Y153.514 E139.4497
G1 X191.446 Y154.958 E139.74285
G1 X190.558 Y156.233 E140.01698
G1 X189.492 Y157.501 E140.30924
G1 X188.336 Y158.643 E140.59593
G1 X187.079 Y159.674 E140.88276
G1 X185.747 Y160.576 E141.16657
G1 X184.306 Y161.369 E141.45676
G1 X182.881 Y161.994 E141.73129
G1 X181.306 Y162.518 E142.02414
G1 X179.739 Y162.885 E142.30808
G1 X178.095 Y163.112 E142.60088
G1 X176.418 Y163.186 E142.89704
G1 X173.728 Y163.273 E143.37188
G1 X171.038 Y163.437 E143.84735
G1 X168.386 Y163.674 E144.31711
G1 X165.74 Y163.986 E144.78717
G1 X163.079 Y164.376 E145.26166
G1 X160.459 Y164.836 E145.73097
G1 X157.841 Y165.372 E146.20245
G1 X155.208 Y165.99 E146.67961
G1 X152.656 Y166.666 E147.14538
G1 X150.094 Y167.422 E147.61666
G1 X147.533 Y168.257 E148.0919
G1 X145.048 Y169.146 E148.55754
G1 X142.539 Y170.125 E149.0327
G1 X140.077 Y171.167 E149.50437
G1 X137.656 Y172.272 E149.97389
G1 X135.227 Y173.465 E150.45133
G1 X132.9 Y174.692 E150.91546
G1 X130.527 Y176.03 E151.39609
G1 X128.294 Y177.372 E151.85572
G1 X125.975 Y178.859 E152.34175
G1 X124.566 Y179.809 E152.64156
G1 X123.239 Y180.532 E152.90818
G1 X121.45 Y180.97 E153.23313
G1 X119.885 Y181.177 E153.51164
G1 X118.823 Y181.199 E153.69905
G1 X118.71 Y181.2 E153.71899
G1 X113.219 Y181.201 E154.68776
G1 X111.771 Y181.141 E154.94344
G1 X110.35 Y180.749 E155.20351
G1 X109.181 Y180.199 E155.43144
G1 X108.074 Y179.475 E155.66481
G1 X107.171 Y178.507 E155.89837
G1 X106.525 Y177.352 E156.13185
G1 X106.112 Y176.042 E156.37418
G1 X105.868 Y174.948 E156.57194
G1 X105.808 Y173.58 E156.81353
G1 X105.868 Y172.227 E157.05247
G1 X106.272 Y170.586 E157.35063
G1 X106.437 Y170.019 E157.45482
G1 X107.1 Y167.472 E157.91915
G1 X107.702 Y164.869 E158.39052
G1 X108.234 Y162.228 E158.86583
G1 X108.688 Y159.581 E159.33965
G1 X109.07 Y156.91 E159.81569
G1 X109.368 Y154.3 E160.27916
G1 X109.598 Y151.616 E160.75443
G1 X109.749 Y148.963 E161.22325
G1 X109.826 Y146.27 E161.69856
G1 X109.828 Y143.61 E162.16786
G1 X109.753 Y140.914 E162.6437
G1 X109.605 Y138.27 E163.1109
G1 X109.379 Y135.609 E163.58207
G1 X109.08 Y132.968 E164.051
G1 X108.702 Y130.302 E164.52606
G1 X108.248 Y127.644 E165.0018
G1 X107.728 Y125.042 E165.46994
G1 X107.13 Y122.439 E165.94115
G1 X106.452 Y119.834 E166.41605
G1 X105.72 Y117.31 E166.87971
G1 X104.89 Y114.724 E167.35888
G1 X104.017 Y112.244 E167.82274
G1 X103.655 Y111.301 E168.00095
G1 X103.259 Y110.216 E168.20472
G1 X102.939 Y109.164 E168.39872
G1 X102.582 Y107.572 E168.68657
G1 X102.372 Y105.943 E168.97635
G1 X102.315 Y104.271 E169.27151
G1 X102.407 Y102.678 E169.55303
G1 X102.659 Y101.018 E169.84925
G1 X103.059 Y99.413 E170.14108
G1 X103.598 Y97.881 E170.42761
G1 X104.282 Y96.39 E170.71703
G1 X105.116 Y94.945 E171.01138
G1 X106.039 Y93.642 E171.2931
G1 X107.122 Y92.378 E171.58677
G1 X108.32 Y91.22 E171.88073
G1 X109.556 Y90.227 E172.16045
G1 X110.973 Y89.292 E172.45997
G1 X112.392 Y88.535 E172.74372
G1 X113.914 Y87.894 E173.03509
G1 X115.508 Y87.396 E173.32972
G1 X117.043 Y87.065 E173.60676
G1 X118.735 Y86.863 E173.9074
G1 X120.352 Y86.82 E174.19278
G1 X120.522 Y86.823 E174.22278
G1 X121.638 Y86.859 E174.41978
G1 X121.723 Y86.862 E174.43478
G1 X123.036 Y86.925 E174.6667
G1 X125.691 Y86.975 E175.1352
G1 X128.385 Y86.951 E175.61052
G1 X131.041 Y86.851 E176.07944
G1 X133.694 Y86.676 E176.54853
G1 X136.38 Y86.422 E177.02453
G1 X139.019 Y86.098 E177.49362
G1 X141.686 Y85.694 E177.96952
G1 X144.294 Y85.223 E178.43709
G1 X146.914 Y84.672 E178.90944
G1 X149.502 Y84.05 E179.37904
G1 X152.096 Y83.35 E179.85307
G1 X154.668 Y82.576 E180.32694
G1 X157.186 Y81.741 E180.79498
G1 X159.688 Y80.832 E181.26463
G1 X162.204 Y79.836 E181.74204
G1 X164.619 Y78.8 E182.20567
G1 X167.074 Y77.664 E182.68292
G1 X169.458 Y76.478 E183.1527
G1 X171.83 Y75.213 E183.62698
G1 X174.114 Y73.91 E184.09091
G1 X176.417 Y72.509 E184.5665
G1 X179.783 Y70.296 E185.27721
G1 X180.668 Y69.736 E185.46198
G1 X182.114 Y69.222 E185.73273
G1 X183.241 Y68.995 E185.93556
G1 X184.615 Y68.823 E186.17987
G1 X185.677 Y68.801 E186.36727
G1 X185.79 Y68.8 E186.38721
