;FLAVOR:Marlin
;TIME:2747
;Filament used: 2.41829m
;Layer height: 0.28
;MINX:124.198
;MINY:139.66
;MINZ:0.28
;MAXX:183.73
;MAXY:188.961
;MAXZ:25.98
;Generated with Cura_SteamEngine 4.6.0
M140 S80
M105
M190 S80
M104 S250
M105
M109 S250
M82 ;absolute extrusion mode
G28 ; home all axes
 M117 Purge extruder
 G92 E0 ; reset extruder
 G1 Z1.0 F3000 ; move z up little to prevent scratching of surface
 G1 X2 Y20 Z0.3 F5000.0 ; move to start-line position
 G1 X2 Y200.0 Z0.3 F1500.0 E15 ; draw 1st line
 G1 X2 Y200.0 Z0.4 F5000.0 ; move to side a little
 G1 X2 Y20 Z0.4 F1500.0 E30 ; draw 2nd line
 G92 E0 ; reset extruder
 G1 Z1.0 F3000 ; move z up little to prevent scratching of surface
G92 E0
G92 E0
G1 F1500 E-2
;LAYER_COUNT:93
;LAYER:0
M107
G1 F600 Z0.78
G0 F900 X150.619 Y141.487 Z0.78
;TYPE:SKIRT
G1 F600 Z0.28
G1 F1500 E0
G1 F1200 X151.205 Y141.556 E0.04372
G1 X151.564 Y141.616 E0.07069
G1 X152.012 Y141.706 E0.10455
G1 X152.277 Y141.77 E0.12475
G1 X152.563 Y141.854 E0.14684
G1 X152.769 Y141.92 E0.16287
G1 X153.049 Y142.022 E0.18495
G1 X153.215 Y142.09 E0.19825
G1 X153.735 Y142.321 E0.24041
G1 X154.043 Y142.477 E0.26599
G1 X154.176 Y142.556 E0.27745
G1 X154.981 Y143.058 E0.34775
G1 X155.268 Y143.256 E0.37359
G1 X155.961 Y143.758 E0.437
G1 X158.249 Y145.317 E0.64215
G1 X160.531 Y146.778 E0.84294
G1 X162.865 Y148.181 E1.04473
G1 X165.263 Y149.533 E1.24872
G1 X167.672 Y150.802 E1.45048
G1 X170.153 Y152.021 E1.65531
G1 X172.614 Y153.144 E1.85576
G1 X174.872 Y154.109 E2.03772
G1 X175.401 Y154.36 E2.0811
G1 X175.673 Y154.504 E2.10391
G1 X176.265 Y154.846 E2.15457
G1 X176.583 Y155.047 E2.18245
G1 X176.676 Y155.111 E2.19081
G1 X177.059 Y155.382 E2.22558
G1 X177.207 Y155.493 E2.23929
G1 X177.648 Y155.847 E2.28119
G1 X178.013 Y156.158 E2.31672
G1 X178.365 Y156.493 E2.35273
G1 X178.575 Y156.704 E2.37479
G1 X178.709 Y156.847 E2.38931
G1 X179.147 Y157.345 E2.43845
G1 X179.357 Y157.602 E2.46305
G1 X179.622 Y157.948 E2.49534
G1 X179.924 Y158.376 E2.53416
G1 X180.011 Y158.511 E2.54606
G1 X180.294 Y158.974 E2.58627
G1 X180.397 Y159.156 E2.60176
G1 X180.687 Y159.706 E2.64784
G1 X180.783 Y159.902 E2.66401
G1 X181.048 Y160.497 E2.71227
G1 X181.201 Y160.893 E2.74373
G1 X181.342 Y161.301 E2.77572
G1 X181.33 Y161.305 E2.77666
G1 X181.4 Y161.482 E2.79076
G1 X181.523 Y161.923 E2.82468
G1 X181.652 Y162.437 E2.86395
G1 X181.692 Y162.62 E2.87783
G1 X181.747 Y162.91 E2.89971
G1 X181.839 Y163.526 E2.94586
G1 X181.881 Y163.942 E2.97684
G1 X181.925 Y164.623 E3.02741
G1 X181.931 Y164.966 E3.05283
G1 X181.926 Y165.309 E3.07825
G1 X181.918 Y165.496 E3.09212
G1 X181.84 Y166.475 E3.16489
G1 X181.825 Y166.58 E3.17275
G1 X181.729 Y167.176 E3.21748
G1 X181.674 Y167.466 E3.23935
G1 X181.671 Y167.465 E3.23959
G1 X181.634 Y167.651 E3.25364
G1 X181.511 Y168.136 E3.29072
G1 X181.376 Y168.592 E3.32596
G1 X181.181 Y169.163 E3.37067
G1 X180.994 Y169.637 E3.40842
G1 X180.799 Y170.071 E3.44368
G1 X180.62 Y170.434 E3.47367
G1 X180.529 Y170.606 E3.48809
G1 X180.172 Y171.23 E3.54136
G1 X180.016 Y171.484 E3.56345
G1 X179.906 Y171.651 E3.57827
G1 X179.686 Y171.962 E3.6065
G1 X179.381 Y172.368 E3.64412
G1 X178.832 Y173.022 E3.7074
G1 X178.485 Y173.391 E3.74493
G1 X178.113 Y173.747 E3.78308
G1 X177.988 Y173.859 E3.79552
G1 X177.554 Y174.228 E3.83773
G1 X177.386 Y174.361 E3.85361
G1 X176.874 Y174.742 E3.9009
G1 X176.692 Y174.868 E3.9173
G1 X175.971 Y175.33 E3.98076
G1 X175.819 Y175.417 E3.99373
G1 X175.426 Y175.627 E4.02675
G1 X175.251 Y175.713 E4.0412
G1 X174.812 Y175.915 E4.07701
G1 X172.617 Y176.874 E4.2545
G1 X170.143 Y178.04 E4.45717
G1 X167.719 Y179.266 E4.65845
G1 X165.297 Y180.579 E4.8626
G1 X162.922 Y181.956 E5.06603
G1 X160.614 Y183.38 E5.26698
G1 X157.631 Y185.359 E5.53224
G1 X157.115 Y185.711 E5.57853
G1 X156.545 Y186.062 E5.62813
G1 X156.291 Y186.204 E5.64969
G1 X156.061 Y186.319 E5.66875
G1 X155.838 Y186.42 E5.68689
G1 X155.326 Y186.628 E5.72784
G1 X155.1 Y186.711 E5.74568
G1 X154.886 Y186.781 E5.76236
G1 X154.592 Y186.865 E5.78502
G1 X154.281 Y186.945 E5.80881
G1 X154.002 Y187.004 E5.82995
G1 X153.29 Y187.11 E5.88329
G1 X152.947 Y187.143 E5.90882
G1 X152.77 Y187.152 E5.92195
G1 X152.334 Y187.161 E5.95427
G1 X151.838 Y187.146 E5.99104
G1 X151.652 Y187.132 E6.00486
G1 X151.388 Y187.101 E6.02456
G1 X150.796 Y187.005 E6.069
G1 X150.38 Y186.922 E6.10043
G1 X150.082 Y186.848 E6.12318
G1 X149.707 Y186.736 E6.15218
G1 X149.5 Y186.667 E6.16835
G1 X149.285 Y186.587 E6.18535
G1 X149.043 Y186.49 E6.20467
G1 X148.791 Y186.38 E6.22504
G1 X148.406 Y186.188 E6.25692
G1 X147.995 Y185.958 E6.29182
G1 X147.697 Y185.774 E6.31777
G1 X147.527 Y185.658 E6.33302
G1 X145.416 Y184.124 E6.52639
G1 X143.156 Y182.576 E6.72937
G1 X140.844 Y181.088 E6.9331
G1 X138.529 Y179.689 E7.13354
G1 X136.103 Y178.313 E7.34021
G1 X133.741 Y177.062 E7.53826
G1 X133.027 Y176.705 E7.59742
G1 X132.022 Y176.178 E7.6815
G1 X131.598 Y175.923 E7.71817
G1 X131.263 Y175.704 E7.74782
G1 X131.073 Y175.57 E7.76505
G1 X130.449 Y175.096 E7.82312
G1 X130.276 Y174.955 E7.83965
G1 X129.76 Y174.505 E7.89039
G1 X129.58 Y174.336 E7.90868
G1 X129.244 Y173.989 E7.94447
G1 X128.637 Y173.301 E8.01246
G1 X128.535 Y173.171 E8.02471
G1 X128.15 Y172.652 E8.07259
G1 X127.911 Y172.289 E8.10479
G1 X127.559 Y171.712 E8.15488
G1 X127.461 Y171.538 E8.16968
G1 X127.372 Y171.369 E8.18383
G1 X127.062 Y170.729 E8.23652
G1 X126.877 Y170.307 E8.27067
G1 X126.878 Y170.307 E8.27074
G1 X126.792 Y170.097 E8.28756
G1 X126.501 Y169.261 E8.35315
G1 X126.387 Y168.862 E8.3839
G1 X126.276 Y168.404 E8.41882
G1 X126.162 Y167.83 E8.46218
G1 X126.107 Y167.481 E8.48836
G1 X126.075 Y167.207 E8.5088
G1 X126.023 Y166.62 E8.55247
G1 X126.011 Y166.394 E8.56924
G1 X125.998 Y165.734 E8.61816
G1 X126.001 Y165.507 E8.63498
G1 X126.03 Y164.918 E8.67868
G1 X126.048 Y164.699 E8.69496
G1 X126.128 Y164.011 E8.74628
G1 X126.164 Y163.778 E8.76375
G1 X126.266 Y163.261 E8.8028
G1 X126.43 Y162.594 E8.8537
G1 X126.55 Y162.189 E8.885
G1 X126.726 Y161.674 E8.92533
G1 X126.758 Y161.59 E8.93199
G1 X126.927 Y161.175 E8.96519
G1 X127.187 Y160.593 E9.01242
G1 X127.368 Y160.236 E9.04208
G1 X127.595 Y159.822 E9.07707
G1 X127.659 Y159.714 E9.08637
G1 X127.913 Y159.307 E9.12192
G1 X128.199 Y158.887 E9.15957
G1 X128.322 Y158.717 E9.17512
G1 X128.448 Y158.554 E9.19039
G1 X129.006 Y157.876 E9.25546
G1 X129.187 Y157.674 E9.27555
G1 X129.528 Y157.323 E9.31182
G1 X129.873 Y157.001 E9.34679
G1 X130.597 Y156.384 E9.41727
G1 X131.413 Y155.732 E9.49467
G1 X131.437 Y155.713 E9.49694
G1 X132.38 Y154.973 E9.58576
G1 X134.496 Y153.217 E9.78951
G1 X136.529 Y151.428 E9.99018
G1 X138.544 Y149.553 E10.19414
G1 X140.048 Y148.08 E10.35013
G1 X141.949 Y146.124 E10.55224
G1 X142.369 Y145.67 E10.59807
G1 X142.383 Y145.654 E10.59965
G1 X144 Y143.929 E10.77485
G1 X144.362 Y143.585 E10.81185
G1 X144.539 Y143.433 E10.82914
G1 X144.673 Y143.325 E10.84189
G1 X145.014 Y143.065 E10.87367
G1 X145.233 Y142.918 E10.89321
G1 X145.82 Y142.557 E10.94428
G1 X146.068 Y142.419 E10.96531
G1 X146.289 Y142.308 E10.98363
G1 X146.514 Y142.205 E11.00197
G1 X147.054 Y141.986 E11.04515
G1 X147.248 Y141.915 E11.06046
G1 X147.45 Y141.848 E11.07623
G1 X147.869 Y141.731 E11.10846
G1 X148.01 Y141.7 E11.11916
G1 X148.6 Y141.582 E11.16375
G1 X148.792 Y141.55 E11.17817
G1 X149.029 Y141.517 E11.1959
G1 X149.284 Y141.491 E11.21489
G1 X149.679 Y141.467 E11.24422
G1 X149.866 Y141.461 E11.25808
G1 X150.274 Y141.463 E11.28831
G1 X150.619 Y141.487 E11.31394
G0 F900 X150.688 Y140.89
G1 F1200 X151.297 Y140.964 E11.3594
G1 X151.682 Y141.027 E11.38831
G1 X152.13 Y141.117 E11.42217
G1 X152.444 Y141.194 E11.44612
G1 X152.746 Y141.283 E11.46945
G1 X152.952 Y141.349 E11.48548
G1 X153.262 Y141.461 E11.50991
G1 X153.458 Y141.542 E11.52562
G1 X153.978 Y141.773 E11.56778
G1 X154.334 Y141.953 E11.59734
G1 X154.492 Y142.045 E11.61089
G1 X155.166 Y142.462 E11.66962
G1 X155.321 Y142.564 E11.68337
G1 X155.62 Y142.77 E11.71028
G1 X156.302 Y143.264 E11.77268
G1 X158.562 Y144.804 E11.97533
G1 X160.866 Y146.279 E12.17804
G1 X163.161 Y147.659 E12.37648
G1 X165.556 Y149.008 E12.58016
G1 X167.948 Y150.269 E12.78053
G1 X170.412 Y151.48 E12.98397
G1 X172.863 Y152.597 E13.18356
G1 X175.128 Y153.566 E13.36611
G1 X175.817 Y153.899 E13.42282
G1 X175.97 Y153.983 E13.43575
G1 X176.585 Y154.338 E13.48837
G1 X176.915 Y154.548 E13.51735
G1 X177.023 Y154.621 E13.52701
G1 X177.406 Y154.892 E13.56178
G1 X177.581 Y155.024 E13.57802
G1 X178.037 Y155.39 E13.62135
G1 X178.414 Y155.712 E13.65809
G1 X178.79 Y156.07 E13.69656
G1 X179 Y156.281 E13.71862
G1 X179.158 Y156.449 E13.73571
G1 X179.61 Y156.963 E13.78643
G1 X179.831 Y157.235 E13.8124
G1 X180.109 Y157.597 E13.84622
G1 X180.42 Y158.039 E13.88626
G1 X180.523 Y158.198 E13.9003
G1 X180.806 Y158.661 E13.94051
G1 X180.928 Y158.876 E13.95883
G1 X181.218 Y159.426 E14.0049
G1 X181.331 Y159.658 E14.02403
G1 X181.596 Y160.253 E14.07229
G1 X181.768 Y160.697 E14.10757
G1 X181.909 Y161.105 E14.13956
G1 X181.9 Y161.108 E14.14026
G1 X181.977 Y161.319 E14.15691
G1 X182.105 Y161.777 E14.19214
G1 X182.234 Y162.291 E14.23141
G1 X182.282 Y162.508 E14.24788
G1 X182.339 Y162.813 E14.27087
G1 X182.436 Y163.463 E14.31957
G1 X182.479 Y163.9 E14.35211
G1 X182.525 Y164.609 E14.40476
G1 X182.531 Y164.975 E14.43188
G1 X182.526 Y165.318 E14.4573
G1 X182.516 Y165.539 E14.47369
G1 X182.463 Y166.28 E14.52874
G1 X182.435 Y166.55 E14.54886
G1 X182.417 Y166.673 E14.55807
G1 X182.319 Y167.288 E14.60421
G1 X182.264 Y167.578 E14.62609
G1 X182.26 Y167.577 E14.62639
G1 X182.217 Y167.797 E14.643
G1 X182.087 Y168.305 E14.68186
G1 X181.946 Y168.778 E14.71843
G1 X181.741 Y169.38 E14.76555
G1 X181.543 Y169.879 E14.80533
G1 X181.337 Y170.337 E14.84255
G1 X181.158 Y170.7 E14.87254
G1 X181.05 Y170.903 E14.88958
G1 X180.684 Y171.543 E14.94421
G1 X180.527 Y171.798 E14.9664
G1 X180.397 Y171.996 E14.98395
G1 X180.17 Y172.318 E15.01314
G1 X179.983 Y172.572 E15.03651
G1 X179.842 Y172.752 E15.05346
G1 X179.411 Y173.271 E15.10345
G1 X179.272 Y173.429 E15.11904
G1 X178.905 Y173.819 E15.15872
G1 X178.733 Y173.987 E15.17654
G1 X178.525 Y174.183 E15.19772
G1 X178.376 Y174.316 E15.21252
G1 X177.942 Y174.685 E15.25473
G1 X177.744 Y174.843 E15.2735
G1 X177.232 Y175.224 E15.32079
G1 X177.018 Y175.373 E15.34011
G1 X176.282 Y175.843 E15.40482
G1 X176.102 Y175.946 E15.42019
G1 X175.709 Y176.156 E15.45321
G1 X175.502 Y176.258 E15.47031
G1 X175.052 Y176.465 E15.50701
G1 X172.873 Y177.417 E15.68321
G1 X170.387 Y178.589 E15.88687
G1 X167.993 Y179.799 E16.08563
G1 X165.602 Y181.096 E16.2872
G1 X163.24 Y182.465 E16.48949
G1 X160.935 Y183.888 E16.69022
G1 X157.961 Y185.861 E16.95468
G1 X157.604 Y186.108 E16.98685
G1 X157.43 Y186.222 E17.00226
G1 X156.86 Y186.573 E17.05186
G1 X156.559 Y186.74 E17.07737
G1 X156.329 Y186.855 E17.09643
G1 X156.066 Y186.975 E17.11785
G1 X155.532 Y187.191 E17.16053
G1 X155.306 Y187.274 E17.17837
G1 X155.054 Y187.357 E17.19803
G1 X154.742 Y187.446 E17.22207
G1 X154.431 Y187.526 E17.24587
G1 X154.1 Y187.596 E17.27094
G1 X153.538 Y187.683 E17.31308
G1 X153.349 Y187.707 E17.32719
G1 X152.99 Y187.741 E17.35392
G1 X152.788 Y187.752 E17.36891
G1 X152.524 Y187.76 E17.38848
G1 X152.321 Y187.761 E17.40352
G1 X152.001 Y187.754 E17.42724
G1 X151.793 Y187.744 E17.44267
G1 X151.607 Y187.73 E17.45649
G1 X151.294 Y187.694 E17.47984
G1 X150.679 Y187.594 E17.52601
G1 X150.263 Y187.511 E17.55744
G1 X149.91 Y187.423 E17.5844
G1 X149.535 Y187.311 E17.6134
G1 X149.291 Y187.229 E17.63247
G1 X149.076 Y187.149 E17.64947
G1 X148.803 Y187.04 E17.67125
G1 X148.551 Y186.93 E17.69163
G1 X148.229 Y186.774 E17.71814
G1 X148.113 Y186.711 E17.72792
G1 X147.702 Y186.481 E17.76282
G1 X147.375 Y186.28 E17.79126
G1 X147.174 Y186.144 E17.80925
G1 X145.05 Y184.6 E18.00382
G1 X142.816 Y183.071 E18.20442
G1 X140.543 Y181.607 E18.40476
G1 X138.194 Y180.187 E18.60816
G1 X135.862 Y178.865 E18.80679
G1 X133.409 Y177.566 E19.01247
G1 X132.707 Y177.215 E19.07063
G1 X131.907 Y176.8 E19.13741
G1 X131.716 Y176.694 E19.1536
G1 X131.27 Y176.425 E19.19219
G1 X130.935 Y176.206 E19.22185
G1 X130.71 Y176.048 E19.24222
G1 X130.086 Y175.574 E19.30029
G1 X129.882 Y175.407 E19.31983
G1 X129.366 Y174.957 E19.37056
G1 X129.153 Y174.757 E19.39221
G1 X128.796 Y174.388 E19.43025
G1 X128.176 Y173.685 E19.49971
G1 X128.055 Y173.532 E19.51417
G1 X127.779 Y173.165 E19.54819
G1 X127.651 Y172.984 E19.56462
G1 X127.4 Y172.603 E19.59843
G1 X127.036 Y172.007 E19.65018
G1 X126.938 Y171.833 E19.66497
G1 X126.833 Y171.633 E19.68171
G1 X126.512 Y170.97 E19.7363
G1 X126.327 Y170.548 E19.77044
G1 X126.329 Y170.547 E19.7706
G1 X126.228 Y170.301 E19.79031
G1 X125.925 Y169.431 E19.85857
G1 X125.804 Y169.007 E19.89125
G1 X125.688 Y168.523 E19.92813
G1 X125.571 Y167.93 E19.97291
G1 X125.511 Y167.554 E20.00113
G1 X125.477 Y167.26 E20.02306
G1 X125.425 Y166.673 E20.06673
G1 X125.411 Y166.406 E20.08654
G1 X125.398 Y165.746 E20.13545
G1 X125.402 Y165.477 E20.15539
G1 X125.431 Y164.888 E20.19909
G1 X125.452 Y164.63 E20.21827
G1 X125.532 Y163.942 E20.26959
G1 X125.574 Y163.666 E20.29028
G1 X125.639 Y163.323 E20.31615
G1 X125.684 Y163.118 E20.3317
G1 X125.902 Y162.252 E20.39787
G1 X125.981 Y161.998 E20.41758
G1 X126.165 Y161.46 E20.45972
G1 X126.378 Y160.933 E20.50184
G1 X126.651 Y160.325 E20.55122
G1 X126.841 Y159.95 E20.58237
G1 X127.076 Y159.52 E20.61868
G1 X127.149 Y159.398 E20.62922
G1 X127.416 Y158.972 E20.66647
G1 X127.713 Y158.535 E20.70562
G1 X127.836 Y158.365 E20.72117
G1 X127.985 Y158.173 E20.73918
G1 X128.543 Y157.495 E20.80425
G1 X128.757 Y157.255 E20.82808
G1 X129.098 Y156.904 E20.86434
G1 X129.483 Y156.545 E20.90334
G1 X130.223 Y155.915 E20.97536
G1 X131.039 Y155.263 E21.05276
G1 X131.997 Y154.512 E21.14296
G1 X134.1 Y152.765 E21.34554
G1 X136.131 Y150.978 E21.546
G1 X138.137 Y149.112 E21.74901
G1 X139.623 Y147.658 E21.90307
G1 X141.503 Y145.722 E22.10303
G1 X141.929 Y145.262 E22.14949
G1 X141.946 Y145.244 E22.15133
G1 X143.563 Y143.519 E22.32653
G1 X143.852 Y143.237 E22.35645
G1 X143.971 Y143.13 E22.36831
G1 X144.148 Y142.978 E22.38559
G1 X144.306 Y142.85 E22.40066
G1 X144.66 Y142.581 E22.43361
G1 X144.919 Y142.407 E22.45673
G1 X145.506 Y142.046 E22.50779
G1 X145.799 Y141.883 E22.53264
G1 X146.02 Y141.772 E22.55096
G1 X146.286 Y141.65 E22.57265
G1 X146.848 Y141.423 E22.61756
G1 X147.042 Y141.352 E22.63287
G1 X147.281 Y141.273 E22.65152
G1 X147.726 Y141.149 E22.68575
G1 X147.892 Y141.112 E22.69835
G1 X148.482 Y140.994 E22.74294
G1 X148.709 Y140.955 E22.76001
G1 X148.946 Y140.922 E22.77774
G1 X149.247 Y140.892 E22.80015
G1 X149.642 Y140.868 E22.82948
G1 X149.863 Y140.861 E22.84586
G1 X150.3 Y140.864 E22.87824
G1 X150.688 Y140.89 E22.90706
G0 F900 X150.756 Y140.294
G1 F1200 X151.389 Y140.371 E22.95431
G1 X151.8 Y140.439 E22.98518
G1 X152.248 Y140.529 E23.01904
G1 X152.61 Y140.618 E23.04666
G1 X152.929 Y140.712 E23.0713
G1 X153.135 Y140.778 E23.08733
G1 X153.475 Y140.9 E23.1141
G1 X153.702 Y140.994 E23.1323
G1 X154.222 Y141.225 E23.17447
G1 X154.625 Y141.428 E23.2079
G1 X154.808 Y141.535 E23.22361
G1 X155.482 Y141.952 E23.28234
G1 X155.661 Y142.069 E23.29819
G1 X155.972 Y142.284 E23.3262
G1 X156.667 Y142.787 E23.38978
G1 X158.891 Y144.303 E23.58922
G1 X161.149 Y145.748 E23.78786
G1 X163.508 Y147.167 E23.99185
G1 X165.805 Y148.461 E24.18721
G1 X168.238 Y149.744 E24.39103
G1 X170.657 Y150.932 E24.59073
G1 X173.096 Y152.044 E24.78935
G1 X175.383 Y153.023 E24.97369
G1 X176.091 Y153.366 E25.03199
G1 X176.268 Y153.462 E25.04691
G1 X176.905 Y153.831 E25.10146
G1 X177.248 Y154.049 E25.13157
G1 X177.369 Y154.132 E25.14245
G1 X177.752 Y154.403 E25.17721
G1 X177.954 Y154.554 E25.1959
G1 X178.426 Y154.933 E25.24076
G1 X178.815 Y155.266 E25.2787
G1 X179.216 Y155.647 E25.31969
G1 X179.426 Y155.858 E25.34175
G1 X179.608 Y156.052 E25.36146
G1 X180.072 Y156.582 E25.41365
G1 X180.306 Y156.868 E25.44104
G1 X180.595 Y157.245 E25.47624
G1 X180.916 Y157.702 E25.51762
G1 X181.035 Y157.885 E25.53379
G1 X181.318 Y158.348 E25.574
G1 X181.459 Y158.596 E25.59514
G1 X181.749 Y159.146 E25.64122
G1 X181.879 Y159.414 E25.66329
G1 X182.144 Y160.009 E25.71155
G1 X182.335 Y160.501 E25.75066
G1 X182.476 Y160.909 E25.78265
G1 X182.473 Y160.91 E25.78288
