;FLAVOR:Marlin
;TIME:10368
;Filament used: 10.1021m
;Layer height: 0.28
;MINX:73.706
;MINY:77.219
;MINZ:0.3
;MAXX:226.297
;MAXY:228.736
;MAXZ:45.94
;Generated with Cura_SteamEngine 4.6.0
M140 S80
M105
M190 S80
M104 S230
M105
M109 S230
M82 ;absolute extrusion mode
G28 ; home all axes
 M117 Purge extruder
 G92 E0 ; reset extruder
 G1 Z1.0 F3000 ; move z up little to prevent scratching of surface
 G1 X2 Y20 Z0.3 F5000.0 ; move to start-line position
 G1 X2 Y200.0 Z0.3 F1500.0 E15 ; draw 1st line
 G1 X2 Y200.0 Z0.4 F5000.0 ; move to side a little
 G1 X2 Y20 Z0.4 F1500.0 E30 ; draw 2nd line
 G92 E0 ; reset extruder
 G1 Z1.0 F3000 ; move z up little to prevent scratching of surface
G92 E0
G92 E0
G1 F1500 E-6.5
;LAYER_COUNT:164
;LAYER:0
M107
G0 F6000 X95.881 Y105.05 Z0.3
;TYPE:SKIRT
G1 F1500 E0
G1 F1200 X97.764 Y103.311 E0.14066
G1 X98.015 Y103.089 E0.15905
G1 X99.969 Y101.428 E0.2998
G1 X100.221 Y101.222 E0.31766
G1 X102.239 Y99.641 E0.45834
G1 X102.502 Y99.444 E0.47638
G1 X104.582 Y97.946 E0.61705
G1 X104.851 Y97.76 E0.635
G1 X106.989 Y96.347 E0.77564
G1 X107.266 Y96.172 E0.79362
G1 X109.461 Y94.845 E0.93438
G1 X109.744 Y94.682 E0.9523
G1 X111.989 Y93.445 E1.09297
G1 X112.282 Y93.291 E1.11114
G1 X114.576 Y92.146 E1.25184
G1 X114.872 Y92.005 E1.26983
G1 X117.209 Y90.954 E1.41046
G1 X117.507 Y90.827 E1.42824
G1 X119.886 Y89.869 E1.56898
G1 X120.193 Y89.753 E1.58699
G1 X122.608 Y88.892 E1.7277
G1 X122.919 Y88.788 E1.74569
G1 X125.366 Y88.025 E1.88636
G1 X125.684 Y87.933 E1.90453
G1 X128.16 Y87.27 E2.0452
G1 X128.475 Y87.192 E2.063
G1 X130.977 Y86.628 E2.20376
G1 X131.3 Y86.562 E2.22185
G1 X133.822 Y86.1 E2.36256
G1 X134.143 Y86.048 E2.3804
G1 X136.681 Y85.687 E2.52109
G1 X137.011 Y85.647 E2.53933
G1 X139.563 Y85.39 E2.68009
G1 X139.887 Y85.364 E2.69793
G1 X140.139 Y85.349 E2.71178
G1 X140.167 Y84.794 E2.74228
G1 X140.286 Y83.997 E2.78651
G1 X140.483 Y83.214 E2.83081
G1 X140.649 Y82.729 E2.85895
G1 X140.713 Y82.559 E2.86892
G1 X141.034 Y81.819 E2.91318
G1 X141.427 Y81.115 E2.95743
G1 X141.888 Y80.452 E3.00175
G1 X142.412 Y79.839 E3.046
G1 X142.994 Y79.281 E3.09025
G1 X143.629 Y78.782 E3.13457
G1 X144.31 Y78.35 E3.17883
G1 X145.292 Y77.875 E3.23869
G1 X145.461 Y77.807 E3.24869
G1 X146.224 Y77.544 E3.29298
G1 X147.009 Y77.357 E3.33727
G1 X147.808 Y77.248 E3.38152
G1 X148.542 Y77.219 E3.42184
G1 X169.652 Y77.329 E4.58035
G1 X170.458 Y77.373 E4.62465
G1 X171.255 Y77.497 E4.66892
G1 X171.99 Y77.685 E4.71055
G1 X188.86 Y82.842 E5.67865
G1 X188.884 Y82.85 E5.68004
G1 X189.098 Y82.916 E5.69233
G1 X189.856 Y83.191 E5.73658
G1 X190.583 Y83.541 E5.78086
G1 X191.272 Y83.96 E5.82512
G1 X191.916 Y84.446 E5.86939
G1 X192.509 Y84.993 E5.91367
G1 X192.642 Y85.143 E5.92467
G1 X205.5 Y85.143 E6.63031
G1 X205.894 Y85.153 E6.65194
G1 X207.132 Y85.213 E6.71996
G1 X207.934 Y85.291 E6.76418
G1 X209.166 Y85.474 E6.83253
G1 X209.952 Y85.631 E6.87652
G1 X211.155 Y85.933 E6.94459
G1 X211.91 Y86.162 E6.98788
G1 X213.081 Y86.58 E7.05612
G1 X213.826 Y86.888 E7.10036
G1 X214.948 Y87.419 E7.16848
G1 X215.647 Y87.793 E7.21199
G1 X216.711 Y88.43 E7.28005
G1 X217.384 Y88.879 E7.32444
G1 X218.383 Y89.621 E7.39274
G1 X218.989 Y90.119 E7.43578
G1 X219.909 Y90.951 E7.50386
G1 X220.483 Y91.525 E7.5484
G1 X221.316 Y92.445 E7.61651
G1 X221.817 Y93.055 E7.65983
G1 X222.558 Y94.053 E7.72805
G1 X223.009 Y94.729 E7.77265
G1 X223.647 Y95.796 E7.84087
G1 X224.017 Y96.488 E7.88394
G1 X224.548 Y97.609 E7.95201
G1 X224.857 Y98.354 E7.99627
G1 X225.276 Y99.526 E8.06458
G1 X225.506 Y100.284 E8.10805
G1 X225.808 Y101.487 E8.17612
G1 X225.965 Y102.276 E8.22026
G1 X226.147 Y103.504 E8.28839
G1 X226.225 Y104.291 E8.33179
G1 X226.287 Y105.533 E8.40004
G1 X226.297 Y105.939 E8.42233
G1 X226.297 Y173.403 E12.1247
G1 X226.296 Y207.938 E14.01995
G1 X226.286 Y208.338 E14.04191
G1 X226.225 Y209.578 E14.11004
G1 X226.147 Y210.369 E14.15366
G1 X225.965 Y211.6 E14.22195
G1 X225.808 Y212.393 E14.26632
G1 X225.506 Y213.595 E14.33433
G1 X225.276 Y214.35 E14.37765
G1 X224.858 Y215.52 E14.44583
G1 X224.549 Y216.266 E14.49014
G1 X224.017 Y217.389 E14.55834
G1 X223.647 Y218.082 E14.60145
G1 X223.01 Y219.147 E14.66955
G1 X222.562 Y219.818 E14.71383
G1 X221.821 Y220.817 E14.78209
G1 X221.317 Y221.431 E14.82568
G1 X220.485 Y222.35 E14.89372
G1 X219.915 Y222.921 E14.93799
G1 X218.994 Y223.755 E15.00618
G1 X218.38 Y224.258 E15.04974
G1 X217.38 Y225 E15.11808
G1 X216.711 Y225.447 E15.16223
G1 X215.647 Y226.084 E15.23029
G1 X214.948 Y226.458 E15.27379
G1 X213.826 Y226.989 E15.34192
G1 X213.086 Y227.295 E15.38586
G1 X211.915 Y227.714 E15.45412
G1 X211.155 Y227.945 E15.49771
G1 X209.952 Y228.247 E15.56578
G1 X209.161 Y228.404 E15.61003
G1 X207.93 Y228.586 E15.67832
G1 X207.146 Y228.664 E15.72156
G1 X205.907 Y228.726 E15.78964
G1 X205.5 Y228.736 E15.81198
G1 X145.5 Y228.735 E19.10474
G1 X145.335 Y228.733 E19.11379
G1 X142.772 Y228.681 E19.25448
G1 X142.445 Y228.668 E19.27244
G1 X139.887 Y228.513 E19.41308
G1 X139.563 Y228.487 E19.43091
G1 X137.011 Y228.23 E19.57167
G1 X136.683 Y228.19 E19.58981
G1 X134.146 Y227.83 E19.73043
G1 X133.821 Y227.777 E19.7485
G1 X131.298 Y227.314 E19.88927
G1 X130.979 Y227.249 E19.90714
G1 X128.478 Y226.686 E20.04783
G1 X128.482 Y226.67 E20.04873
G1 X128.158 Y226.608 E20.06684
G1 X125.681 Y225.944 E20.20757
G1 X125.368 Y225.854 E20.22545
G1 X122.922 Y225.092 E20.36604
G1 X122.613 Y224.979 E20.3841
G1 X122.61 Y224.987 E20.38457
G1 X120.194 Y224.126 E20.52532
G1 X119.888 Y224.009 E20.5433
G1 X117.51 Y223.052 E20.68398
G1 X117.209 Y222.924 E20.70193
G1 X114.871 Y221.872 E20.84262
G1 X114.573 Y221.731 E20.86072
G1 X112.281 Y220.586 E21.00132
G1 X111.997 Y220.426 E21.01921
G1 X111.993 Y220.434 E21.0197
G1 X109.746 Y219.197 E21.16047
G1 X109.459 Y219.031 E21.17866
G1 X107.265 Y217.704 E21.31938
G1 X106.991 Y217.531 E21.33716
G1 X104.852 Y216.118 E21.47785
G1 X104.581 Y215.931 E21.49592
G1 X102.5 Y214.432 E21.63666
G1 X102.238 Y214.235 E21.65465
G1 X100.221 Y212.655 E21.79526
G1 X99.966 Y212.446 E21.81336
G1 X98.014 Y210.785 E21.95402
G1 X97.771 Y210.57 E21.97182
G1 X95.886 Y208.832 E22.11253
G1 X95.647 Y208.602 E22.13073
G1 X93.834 Y206.788 E22.27148
G1 X93.608 Y206.553 E22.28937
G1 X91.87 Y204.669 E22.43004
G1 X91.652 Y204.424 E22.44804
G1 X89.991 Y202.471 E22.58874
G1 X89.787 Y202.221 E22.60645
G1 X88.205 Y200.204 E22.74712
G1 X88.005 Y199.937 E22.76543
G1 X86.507 Y197.857 E22.9061
G1 X86.32 Y197.587 E22.92413
G1 X84.907 Y195.448 E23.06481
G1 X84.733 Y195.172 E23.08272
G1 X83.406 Y192.977 E23.22348
G1 X83.243 Y192.694 E23.2414
G1 X82.006 Y190.449 E23.38207
G1 X81.852 Y190.156 E23.40024
G1 X80.707 Y187.862 E23.54094
G1 X80.709 Y187.861 E23.54106
G1 X80.565 Y187.566 E23.55908
G1 X79.514 Y185.229 E23.6997
G1 X79.388 Y184.932 E23.71741
G1 X78.43 Y182.554 E23.8581
G1 X78.322 Y182.243 E23.87617
G1 X78.314 Y182.246 E23.87664
G1 X77.453 Y179.831 E24.01734
G1 X77.348 Y179.518 E24.03546
G1 X76.585 Y177.069 E24.17623
G1 X76.495 Y176.757 E24.19405
G1 X75.831 Y174.282 E24.33468
G1 X75.752 Y173.963 E24.35272
G1 X75.188 Y171.461 E24.49347
G1 X75.132 Y171.136 E24.51157
G1 X75.123 Y171.138 E24.51208
G1 X74.661 Y168.617 E24.65273
G1 X74.609 Y168.293 E24.67074
G1 X74.249 Y165.754 E24.81147
G1 X74.209 Y165.43 E24.82939
G1 X73.951 Y162.88 E24.97004
G1 X73.925 Y162.55 E24.98821
G1 X73.771 Y159.992 E25.12885
G1 X73.758 Y159.668 E25.14664
G1 X73.706 Y157.104 E25.28738
G1 X73.706 Y156.774 E25.30549
G1 X73.758 Y154.212 E25.44612
G1 X73.771 Y153.888 E25.46391
G1 X73.925 Y151.328 E25.60466
G1 X73.951 Y150.998 E25.62283
G1 X74.209 Y148.448 E25.76348
G1 X74.249 Y148.124 E25.7814
G1 X74.609 Y145.585 E25.92213
G1 X74.661 Y145.261 E25.94014
G1 X75.123 Y142.739 E26.08085
G1 X75.189 Y142.418 E26.09883
G1 X75.752 Y139.917 E26.23952
G1 X75.831 Y139.597 E26.25761
G1 X76.495 Y137.121 E26.39829
G1 X76.586 Y136.807 E26.41623
G1 X77.349 Y134.359 E26.55695
G1 X77.453 Y134.047 E26.575
G1 X78.314 Y131.632 E26.7157
G1 X78.43 Y131.327 E26.73361
G1 X79.387 Y128.949 E26.87428
G1 X79.515 Y128.647 E26.89229
G1 X80.567 Y126.31 E27.03293
G1 X80.706 Y126.017 E27.05073
G1 X81.851 Y123.722 E27.19148
G1 X82.004 Y123.43 E27.20957
G1 X83.24 Y121.185 E27.35022
G1 X83.407 Y120.896 E27.36853
G1 X84.735 Y118.702 E27.50928
G1 X84.907 Y118.431 E27.52689
G1 X86.319 Y116.293 E27.6675
G1 X86.505 Y116.023 E27.6855
G1 X88.004 Y113.941 E27.82629
G1 X88.204 Y113.675 E27.84455
G1 X89.785 Y111.658 E27.9852
G1 X89.992 Y111.405 E28.00314
G1 X91.654 Y109.452 E28.14387
G1 X91.867 Y109.211 E28.16152
G1 X93.604 Y107.326 E28.30219
G1 X93.837 Y107.083 E28.32067
G1 X95.651 Y105.271 E28.46138
G1 X95.881 Y105.05 E28.47888
G0 F6000 X96.18 Y105.373
G1 F1200 X98.063 Y103.634 E28.61955
G1 X98.3 Y103.424 E28.63692
G1 X100.254 Y101.763 E28.77767
G1 X100.492 Y101.569 E28.79452
G1 X102.51 Y99.988 E28.9352
G1 X102.759 Y99.801 E28.95229
G1 X104.839 Y98.303 E29.09296
G1 X105.093 Y98.127 E29.10992
G1 X107.231 Y96.714 E29.25056
G1 X107.493 Y96.549 E29.26755
G1 X109.688 Y95.222 E29.40832
G1 X109.956 Y95.067 E29.42531
G1 X112.201 Y93.83 E29.56598
G1 X112.478 Y93.685 E29.58313
G1 X114.772 Y92.54 E29.72384
G1 X115.053 Y92.406 E29.74092
G1 X117.39 Y91.355 E29.88155
G1 X117.672 Y91.235 E29.89837
G1 X120.051 Y90.277 E30.03911
G1 X120.341 Y90.167 E30.05613
G1 X122.756 Y89.306 E30.19684
G1 X123.05 Y89.208 E30.21385
G1 X125.497 Y88.445 E30.35451
G1 X125.797 Y88.358 E30.37165
G1 X128.273 Y87.695 E30.51232
G1 X128.572 Y87.621 E30.52923
G1 X131.074 Y87.057 E30.66998
G1 X131.38 Y86.995 E30.68711
G1 X133.902 Y86.533 E30.82782
G1 X134.205 Y86.484 E30.84467
G1 X136.743 Y86.123 E30.98535
G1 X137.055 Y86.085 E31.0026
G1 X139.607 Y85.828 E31.14336
G1 X139.913 Y85.803 E31.16021
G1 X140.567 Y85.763 E31.19617
G1 X140.567 Y85.6 E31.20511
G1 X140.607 Y84.816 E31.24819
G1 X140.726 Y84.041 E31.29122
G1 X140.923 Y83.282 E31.33426
G1 X141.125 Y82.714 E31.36734
G1 X141.438 Y81.995 E31.41038
G1 X141.823 Y81.311 E31.45345
G1 X142.276 Y80.67 E31.49653
G1 X142.791 Y80.079 E31.53955
G1 X143.364 Y79.543 E31.58261
G1 X143.989 Y79.068 E31.62569
G1 X144.659 Y78.659 E31.66877
G1 X145.457 Y78.284 E31.71715
G1 X145.626 Y78.216 E31.72715
G1 X146.368 Y77.96 E31.77023
G1 X147.132 Y77.782 E31.81328
G1 X147.91 Y77.682 E31.85633
G1 X148.54 Y77.659 E31.89092
G1 X169.65 Y77.769 E33.04944
G1 X170.433 Y77.813 E33.09248
G1 X171.208 Y77.937 E33.13555
G1 X171.861 Y78.105 E33.17255
G1 X188.731 Y83.262 E34.14066
G1 X188.754 Y83.27 E34.14199
G1 X188.968 Y83.336 E34.15428
G1 X189.705 Y83.605 E34.19734
G1 X190.411 Y83.948 E34.24041
G1 X191.078 Y84.361 E34.28347
G1 X191.7 Y84.839 E34.32652
G1 X192.27 Y85.378 E34.36957
G1 X192.446 Y85.583 E34.3844
G1 X205.5 Y85.583 E35.10079
G1 X205.873 Y85.592 E35.12127
G1 X207.111 Y85.652 E35.18929
G1 X207.869 Y85.727 E35.23109
G1 X209.101 Y85.91 E35.29944
G1 X209.845 Y86.058 E35.34107
G1 X211.048 Y86.36 E35.40914
G1 X211.762 Y86.576 E35.45008
G1 X212.933 Y86.994 E35.51831
G1 X213.638 Y87.286 E35.56019
G1 X214.76 Y87.817 E35.62831
G1 X215.421 Y88.17 E35.66944
G1 X216.485 Y88.807 E35.73749
G1 X217.121 Y89.233 E35.7795
G1 X218.12 Y89.975 E35.84779
G1 X218.694 Y90.445 E35.88851
G1 X219.614 Y91.277 E35.95658
G1 X220.157 Y91.82 E35.99872
G1 X220.99 Y92.74 E36.06683
G1 X221.464 Y93.318 E36.10785
G1 X222.205 Y94.316 E36.17607
G1 X222.632 Y94.954 E36.2182
G1 X223.27 Y96.021 E36.28643
G1 X223.62 Y96.677 E36.32723
G1 X224.151 Y97.798 E36.3953
G1 X224.443 Y98.502 E36.43713
G1 X224.862 Y99.674 E36.50543
G1 X225.079 Y100.391 E36.54655
G1 X225.381 Y101.594 E36.61461
G1 X225.53 Y102.34 E36.65636
G1 X225.712 Y103.568 E36.72449
G1 X225.785 Y104.313 E36.76557
G1 X225.847 Y105.555 E36.83382
G1 X225.857 Y105.939 E36.8549
G1 X225.857 Y173.403 E40.55727
G1 X225.856 Y207.938 E42.45252
G1 X225.847 Y208.316 E42.47327
G1 X225.786 Y209.556 E42.54141
G1 X225.712 Y210.304 E42.58266
G1 X225.53 Y211.535 E42.65095
G1 X225.381 Y212.285 E42.69291
G1 X225.079 Y213.487 E42.76093
G1 X224.862 Y214.202 E42.80193
G1 X224.444 Y215.372 E42.87011
G1 X224.152 Y216.078 E42.91204
G1 X223.62 Y217.201 E42.98024
G1 X223.269 Y217.856 E43.02102
G1 X222.632 Y218.921 E43.08912
G1 X222.208 Y219.556 E43.13103
G1 X221.467 Y220.555 E43.19928
G1 X220.991 Y221.136 E43.2405
G1 X220.159 Y222.055 E43.30854
G1 X219.619 Y222.595 E43.35045
G1 X218.698 Y223.429 E43.41863
G1 X218.118 Y223.905 E43.45981
G1 X217.118 Y224.647 E43.52815
G1 X216.485 Y225.07 E43.56993
G1 X215.421 Y225.707 E43.63798
G1 X214.76 Y226.06 E43.67911
G1 X213.638 Y226.591 E43.74723
G1 X212.938 Y226.881 E43.78881
G1 X211.767 Y227.3 E43.85707
G1 X211.048 Y227.518 E43.8983
G1 X209.845 Y227.82 E43.96637
G1 X209.096 Y227.969 E44.00828
G1 X207.865 Y228.151 E44.07657
G1 X207.124 Y228.224 E44.11743
G1 X205.885 Y228.286 E44.18551
G1 X205.5 Y228.296 E44.20664
G1 X145.5 Y228.295 E47.4994
G1 X145.344 Y228.293 E47.50796
G1 X142.781 Y228.241 E47.64864
G1 X142.471 Y228.229 E47.66567
G1 X139.913 Y228.074 E47.80631
G1 X139.607 Y228.049 E47.82316
G1 X137.055 Y227.792 E47.96392
G1 X136.745 Y227.755 E47.98105
G1 X134.208 Y227.395 E48.12167
G1 X133.9 Y227.345 E48.1388
G1 X131.377 Y226.882 E48.27957
G1 X131.076 Y226.82 E48.29644
G1 X128.575 Y226.257 E48.43712
G1 X128.577 Y226.249 E48.43758
G1 X128.272 Y226.183 E48.4547
G1 X125.795 Y225.519 E48.59544
G1 X125.499 Y225.434 E48.61234
G1 X123.053 Y224.672 E48.75293
G1 X122.761 Y224.564 E48.77002
G1 X122.758 Y224.572 E48.77049
G1 X120.342 Y223.711 E48.91125
G1 X120.052 Y223.601 E48.92827
G1 X117.674 Y222.644 E49.06894
G1 X117.389 Y222.523 E49.08593
G1 X115.051 Y221.471 E49.22663
G1 X114.77 Y221.337 E49.24372
G1 X112.478 Y220.192 E49.38432
G1 X112.21 Y220.041 E49.4012
G1 X112.206 Y220.048 E49.40165
G1 X109.959 Y218.811 E49.54241
G1 X109.687 Y218.655 E49.55962
G1 X107.493 Y217.328 E49.70033
G1 X107.234 Y217.164 E49.71716
G1 X105.095 Y215.751 E49.85784
G1 X104.839 Y215.574 E49.87492
G1 X102.758 Y214.075 E50.01567
G1 X102.51 Y213.889 E50.03268
G1 X100.493 Y212.309 E50.17329
G1 X100.251 Y212.111 E50.19045
G1 X98.299 Y210.45 E50.33111
G1 X98.069 Y210.247 E50.34795
G1 X96.184 Y208.509 E50.48865
G1 X95.958 Y208.291 E50.50589
G1 X94.145 Y206.477 E50.64663
G1 X93.931 Y206.255 E50.66356
G1 X92.193 Y204.371 E50.80422
G1 X91.987 Y204.139 E50.82125
G1 X90.326 Y202.186 E50.96195
G1 X90.133 Y201.949 E50.97872
G1 X88.551 Y199.932 E51.1194
G1 X88.362 Y199.68 E51.13669
G1 X86.864 Y197.6 E51.27736
G1 X86.687 Y197.344 E51.29444
G1 X85.274 Y195.205 E51.43513
G1 X85.11 Y194.945 E51.452
G1 X83.783 Y192.75 E51.59276
G1 X83.628 Y192.482 E51.60975
G1 X82.391 Y190.237 E51.75042
G1 X82.246 Y189.96 E51.76758
G1 X81.101 Y187.666 E51.90828
G1 X81.112 Y187.661 E51.90894
G1 X80.966 Y187.385 E51.92608
G1 X79.915 Y185.048 E52.0667
G1 X79.796 Y184.767 E52.08345
G1 X78.838 Y182.389 E52.22414
G1 X78.736 Y182.095 E52.24122
G1 X78.728 Y182.098 E52.24169
G1 X77.867 Y179.683 E52.3824
G1 X77.769 Y179.387 E52.39951
G1 X77.006 Y176.938 E52.54028
G1 X76.92 Y176.643 E52.55714
G1 X76.256 Y174.168 E52.69777
G1 X76.181 Y173.866 E52.71485
G1 X75.617 Y171.364 E52.8556
G1 X75.564 Y171.057 E52.8727
G1 X75.556 Y171.059 E52.87315
G1 X75.094 Y168.538 E53.01381
G1 X75.044 Y168.231 E53.03087
G1 X74.684 Y165.692 E53.17161
G1 X74.647 Y165.386 E53.18852
G1 X74.389 Y162.836 E53.32918
G1 X74.364 Y162.524 E53.34636
G1 X74.21 Y159.966 E53.48699
G1 X74.198 Y159.659 E53.50385
G1 X74.146 Y157.095 E53.64459
G1 X74.146 Y156.783 E53.66171
G1 X74.198 Y154.221 E53.80234
G1 X74.21 Y153.915 E53.81915
G1 X74.364 Y151.355 E53.95989
G1 X74.389 Y151.042 E53.97713
G1 X74.647 Y148.492 E54.11778
G1 X74.684 Y148.186 E54.1347
G1 X75.044 Y145.647 E54.27543
G1 X75.094 Y145.341 E54.29245
G1 X75.556 Y142.819 E54.43315
G1 X75.618 Y142.515 E54.45018
G1 X76.181 Y140.014 E54.59087
G1 X76.256 Y139.711 E54.608
G1 X76.92 Y137.235 E54.74868
G1 X77.006 Y136.938 E54.76565
G1 X77.769 Y134.49 E54.90637
G1 X77.867 Y134.195 E54.92343
G1 X78.728 Y131.78 E55.06413
G1 X78.838 Y131.491 E55.0811
G1 X79.795 Y129.113 E55.22178
G1 X79.917 Y128.827 E55.23884
G1 X80.969 Y126.49 E55.37949
G1 X81.1 Y126.213 E55.3963
G1 X82.245 Y123.918 E55.53706
G1 X82.39 Y123.642 E55.55417
G1 X83.626 Y121.397 E55.69481
G1 X83.784 Y121.124 E55.71212
G1 X85.112 Y118.93 E55.85286
