;FLAVOR:Marlin
;TIME:9178
;Filament used: 11.5386m
;Layer height: 0.3
;MINX:78.56
;MINY:77.942
;MINZ:0.3
;MAXX:221.441
;MAXY:223.704
;MAXZ:32.3
;Generated with Cura_SteamEngine 4.6.0
M140 S80
M105
M190 S80
M104 S250
M105
M109 S250
M82 ;absolute extrusion mode
G28 ; home all axes
 M117 Purge extruder
 G92 E0 ; reset extruder
 G1 Z1.0 F3000 ; move z up little to prevent scratching of surface
 G1 X2 Y20 Z0.3 F5000.0 ; move to start-line position
 G1 X2 Y200.0 Z0.3 F1500.0 E15 ; draw 1st line
 G1 X2 Y200.0 Z0.4 F5000.0 ; move to side a little
 G1 X2 Y20 Z0.4 F1500.0 E30 ; draw 2nd line
 G92 E0 ; reset extruder
 G1 Z1.0 F3000 ; move z up little to prevent scratching of surface
G92 E0
G92 E0
G1 F1500 E-6
;LAYER_COUNT:106
;LAYER:0
M107
G1 F600 Z0.8
G0 F900 X99.692 Y107.952 Z0.8
;TYPE:SKIRT
G1 F600 Z0.3
G1 F1500 E0
G1 F1200 X100.395 Y107.301 E0.07947
G1 X101.086 Y106.681 E0.15647
G1 X101.116 Y106.654 E0.15982
G1 X101.858 Y106.006 E0.24153
G1 X102.52 Y105.446 E0.31345
G1 X102.546 Y105.424 E0.31627
G1 X103.275 Y104.821 E0.39474
G1 X103.789 Y104.406 E0.44953
G1 X104.811 Y103.609 E0.55703
G1 X105.479 Y103.106 E0.62639
G1 X105.507 Y103.085 E0.62929
G1 X106.337 Y102.475 E0.71472
G1 X107.007 Y101.999 E0.78289
G1 X107.038 Y101.977 E0.78605
G1 X107.898 Y101.383 E0.87274
G1 X108.568 Y100.936 E0.93954
G1 X108.603 Y100.913 E0.94301
G1 X109.924 Y100.058 E1.07353
G1 X111.528 Y99.084 E1.22918
G1 X113.157 Y98.154 E1.38476
G1 X114.815 Y97.269 E1.54064
G1 X116.497 Y96.432 E1.69647
G1 X118.199 Y95.643 E1.85207
G1 X119.913 Y94.906 E2.00682
G1 X121.256 Y94.366 E2.12687
G1 X123.046 Y93.7 E2.28528
G1 X124.857 Y93.085 E2.44392
G1 X126.684 Y92.521 E2.60251
G1 X128.526 Y92.01 E2.76106
G1 X130.294 Y91.572 E2.91214
G1 X130.381 Y91.558 E2.91944
G1 X130.38 Y91.553 E2.91987
G1 X132.25 Y91.147 E3.07858
G1 X134.13 Y90.795 E3.23723
G1 X136.019 Y90.497 E3.39584
G1 X137.914 Y90.254 E3.5543
G1 X139.818 Y90.064 E3.71301
G1 X141.707 Y89.931 E3.87008
G1 X142.6 Y89.888 E3.94423
G1 X142.82 Y89.885 E3.96248
G1 X143.153 Y89.892 E3.99011
G1 X144.033 Y89.868 E4.06312
G1 X144.359 Y89.841 E4.09025
G1 X144.593 Y89.83 E4.10968
G1 X145.876 Y89.822 E4.2161
G1 X145.874 Y89.272 E4.26172
G1 X145.874 Y89.257 E4.26296
G1 X145.887 Y81.765 E4.88437
G1 X145.956 Y81.113 E4.93875
G1 X146.014 Y80.841 E4.96182
G1 X146.158 Y80.36 E5.00346
G1 X146.313 Y80.021 E5.03438
G1 X146.416 Y79.827 E5.0526
G1 X146.686 Y79.404 E5.09422
G1 X147.019 Y79.029 E5.13582
G1 X147.245 Y78.833 E5.16063
G1 X147.455 Y78.667 E5.18283
G1 X147.872 Y78.388 E5.22445
G1 X148.328 Y78.179 E5.26605
G1 X148.872 Y78.034 E5.31275
G1 X149.179 Y77.981 E5.33859
G1 X149.921 Y77.942 E5.40022
G1 X150.15 Y77.957 E5.41925
G1 X150.864 Y78.087 E5.47944
G1 X173.006 Y84.846 E7.39962
G1 X173.009 Y84.847 E7.39988
G1 X187.361 Y89.243 E8.64486
G1 X188.033 Y89.539 E8.70576
G1 X188.251 Y89.667 E8.72673
G1 X188.473 Y89.822 E8.74919
G1 X205.584 Y89.823 E10.16842
G1 X205.808 Y89.829 E10.187
G1 X206.449 Y89.852 E10.2402
G1 X206.641 Y89.865 E10.25616
G1 X207.475 Y89.946 E10.32566
G1 X207.685 Y89.973 E10.34322
G1 X208.512 Y90.11 E10.41275
G1 X208.51 Y90.124 E10.41393
G1 X208.715 Y90.15 E10.43106
G1 X209.527 Y90.34 E10.50023
G1 X209.727 Y90.394 E10.51742
G1 X210.528 Y90.638 E10.58687
G1 X210.72 Y90.703 E10.60368
G1 X211.506 Y90.999 E10.67334
G1 X211.694 Y91.077 E10.69022
G1 X212.455 Y91.421 E10.75949
G1 X212.645 Y91.515 E10.77707
G1 X213.382 Y91.91 E10.84643
G1 X213.555 Y92.01 E10.863
G1 X214.267 Y92.452 E10.93251
G1 X214.442 Y92.568 E10.94993
G1 X215.121 Y93.055 E11.01923
G1 X215.282 Y93.179 E11.03609
G1 X215.93 Y93.71 E11.10557
G1 X216.09 Y93.85 E11.12321
G1 X216.7 Y94.423 E11.19262
G1 X216.839 Y94.562 E11.20893
G1 X217.413 Y95.173 E11.27846
G1 X217.552 Y95.332 E11.29598
G1 X218.082 Y95.978 E11.36528
G1 X218.207 Y96.141 E11.38232
G1 X218.695 Y96.822 E11.45181
G1 X218.811 Y96.995 E11.46909
G1 X219.252 Y97.705 E11.53841
G1 X219.352 Y97.879 E11.55506
G1 X219.748 Y98.618 E11.6246
G1 X219.842 Y98.808 E11.64218
G1 X220.187 Y99.571 E11.71163
G1 X220.186 Y99.571 E11.71172
G1 X220.267 Y99.762 E11.72892
G1 X220.561 Y100.546 E11.79837
G1 X220.626 Y100.738 E11.81519
G1 X220.869 Y101.539 E11.88461
G1 X220.922 Y101.733 E11.90129
G1 X221.113 Y102.546 E11.97056
G1 X221.145 Y102.755 E11.9881
G1 X221.153 Y102.754 E11.98877
G1 X221.313 Y103.756 E12.07293
G1 X221.337 Y103.98 E12.09161
G1 X221.341 Y104.018 E12.09478
G1 X221.399 Y104.628 E12.14561
G1 X221.411 Y104.821 E12.16164
G1 X221.441 Y105.763 E12.23982
G1 X221.44 Y207.762 E20.69986
G1 X221.438 Y207.864 E20.70833
G1 X221.411 Y208.7 E20.7777
G1 X221.398 Y208.906 E20.79482
G1 X221.316 Y209.74 E20.86433
G1 X221.289 Y209.943 E20.88132
G1 X221.153 Y210.77 E20.95083
G1 X221.14 Y210.768 E20.95192
G1 X221.113 Y210.979 E20.96956
G1 X220.922 Y211.792 E21.03883
G1 X220.869 Y211.986 E21.05551
G1 X220.626 Y212.787 E21.12494
G1 X220.559 Y212.984 E21.1422
G1 X220.263 Y213.769 E21.21178
G1 X220.187 Y213.954 E21.22837
G1 X219.843 Y214.716 E21.29772
G1 X219.748 Y214.908 E21.31548
G1 X219.353 Y215.645 E21.38484
G1 X219.254 Y215.817 E21.4013
G1 X218.813 Y216.528 E21.47069
G1 X218.695 Y216.705 E21.48834
G1 X218.207 Y217.385 E21.55776
G1 X218.083 Y217.546 E21.57461
G1 X217.552 Y218.193 E21.64404
G1 X217.415 Y218.35 E21.66132
G1 X216.842 Y218.961 E21.7308
G1 X216.701 Y219.102 E21.74734
G1 X216.09 Y219.676 E21.81687
G1 X215.929 Y219.817 E21.83462
G1 X215.282 Y220.347 E21.90399
G1 X215.123 Y220.469 E21.92061
G1 X214.443 Y220.957 E21.99003
G1 X214.268 Y221.074 E22.00749
G1 X213.558 Y221.515 E22.07682
G1 X213.381 Y221.617 E22.09376
G1 X212.642 Y222.012 E22.16326
G1 X212.458 Y222.103 E22.18029
G1 X211.697 Y222.448 E22.24959
G1 X211.503 Y222.528 E22.267
G1 X210.717 Y222.823 E22.33663
G1 X210.528 Y222.887 E22.35318
G1 X209.727 Y223.131 E22.42263
G1 X209.53 Y223.184 E22.43955
G1 X208.718 Y223.375 E22.50874
G1 X208.507 Y223.407 E22.52644
G1 X208.508 Y223.416 E22.52719
G1 X207.681 Y223.552 E22.59671
G1 X207.478 Y223.579 E22.61369
G1 X206.644 Y223.661 E22.6832
G1 X206.441 Y223.674 E22.70007
G1 X205.5 Y223.704 E22.77816
G1 X145.5 Y223.703 E27.75471
G1 X145.471 Y223.703 E27.75711
G1 X144.595 Y223.695 E27.82977
G1 X144.375 Y223.685 E27.84804
G1 X144.047 Y223.659 E27.87533
G1 X143.182 Y223.634 E27.94711
G1 X142.887 Y223.643 E27.97159
G1 X142.633 Y223.641 E27.99265
G1 X141.701 Y223.595 E28.07005
G1 X139.831 Y223.462 E28.22554
G1 X137.963 Y223.277 E28.38124
G1 X136.099 Y223.04 E28.53709
G1 X134.246 Y222.75 E28.69265
G1 X132.397 Y222.408 E28.84861
G1 X130.647 Y222.034 E28.99704
G1 X130.648 Y222.028 E28.99754
G1 X130.56 Y222.016 E29.00491
G1 X128.736 Y221.571 E29.16064
G1 X126.926 Y221.075 E29.3163
G1 X125.128 Y220.528 E29.47218
G1 X123.351 Y219.932 E29.62763
G1 X121.584 Y219.285 E29.78371
G1 X119.741 Y218.549 E29.94831
G1 X119.103 Y218.277 E30.00584
G1 X119.065 Y218.26 E30.00929
G1 X117.652 Y217.635 E30.13744
G1 X115.933 Y216.82 E30.29523
G1 X114.613 Y216.151 E30.41797
G1 X113.961 Y215.805 E30.47919
G1 X112.954 Y215.258 E30.57424
G1 X112.299 Y214.887 E30.63668
G1 X112.261 Y214.865 E30.64032
G1 X110.901 Y214.069 E30.77103
G1 X109.708 Y213.331 E30.88738
G1 X109.051 Y212.908 E30.95219
G1 X108.13 Y212.3 E31.04372
G1 X107.472 Y211.85 E31.10984
G1 X107.444 Y211.831 E31.11265
G1 X106.579 Y211.225 E31.20025
G1 X105.921 Y210.747 E31.26771
G1 X105.06 Y210.106 E31.35674
G1 X104.405 Y209.602 E31.42528
G1 X104.375 Y209.579 E31.42842
G1 X103.613 Y208.978 E31.50891
G1 X103.574 Y208.947 E31.51305
G1 X102.921 Y208.415 E31.58291
G1 X102.888 Y208.388 E31.58644
G1 X102.155 Y207.774 E31.66575
G1 X101.471 Y207.184 E31.74067
G1 X101.44 Y207.156 E31.74414
G1 X100.736 Y206.532 E31.82217
G1 X100.699 Y206.5 E31.82622
G1 X100.056 Y205.912 E31.89849
G1 X99.351 Y205.251 E31.97865
G1 X98.681 Y204.605 E32.05584
G1 X98.001 Y203.929 E32.13537
G1 X97.966 Y203.894 E32.13948
G1 X97.336 Y203.248 E32.21432
G1 X97.31 Y203.222 E32.21737
G1 X96.692 Y202.573 E32.2917
G1 X96.661 Y202.541 E32.2954
G1 X96.004 Y201.83 E32.37569
G1 X95.416 Y201.174 E32.44876
G1 X94.743 Y200.406 E32.53346
G1 X94.184 Y199.746 E32.6052
G1 X94.158 Y199.714 E32.60861
G1 X93.555 Y198.983 E32.68721
G1 X93.525 Y198.946 E32.69116
G1 X92.994 Y198.282 E32.76168
G1 X92.343 Y197.448 E32.84943
G1 X91.841 Y196.78 E32.91874
G1 X91.823 Y196.756 E32.92123
G1 X91.212 Y195.926 E33.00671
G1 X90.736 Y195.256 E33.07488
G1 X90.714 Y195.225 E33.07803
G1 X90.121 Y194.368 E33.16447
G1 X89.673 Y193.698 E33.23132
G1 X88.802 Y192.348 E33.36458
G1 X88.103 Y191.208 E33.47549
G1 X88.084 Y191.178 E33.47844
G1 X87.821 Y190.735 E33.52117
G1 X86.891 Y189.105 E33.67682
G1 X86.008 Y187.45 E33.83241
G1 X85.168 Y185.765 E33.98857
G1 X84.385 Y184.074 E34.14313
G1 X83.823 Y182.781 E34.26007
G1 X83.137 Y181.093 E34.41119
G1 X83.109 Y181.005 E34.41885
G1 X83.104 Y181.007 E34.4193
G1 X82.438 Y179.216 E34.57779
G1 X81.823 Y177.407 E34.73627
G1 X81.258 Y175.578 E34.89504
G1 X80.748 Y173.736 E35.05357
G1 X80.289 Y171.882 E35.21199
G1 X79.901 Y170.102 E35.36309
G1 X79.889 Y170.011 E35.3707
G1 X79.884 Y170.012 E35.37113
G1 X79.533 Y168.134 E35.52959
G1 X79.234 Y166.243 E35.68838
G1 X78.991 Y164.347 E35.84693
G1 X78.802 Y162.446 E36.00538
G1 X78.667 Y160.551 E36.16295
G1 X78.644 Y160.06 E36.20372
G1 X78.644 Y160.043 E36.20513
G1 X78.586 Y158.63 E36.32243
G1 X78.56 Y156.73 E36.48003
G1 X78.565 Y156.247 E36.5201
G1 X78.565 Y156.232 E36.52134
G1 X78.588 Y154.843 E36.63657
G1 X78.667 Y152.977 E36.79147
G1 X78.699 Y152.495 E36.83154
G1 X78.7 Y152.48 E36.83279
G1 X78.8 Y151.092 E36.94821
G1 X78.986 Y149.225 E37.10383
G1 X79.223 Y147.362 E37.2596
G1 X79.513 Y145.508 E37.41524
G1 X79.855 Y143.66 E37.57112
G1 X80.248 Y141.824 E37.72685
G1 X80.671 Y140.084 E37.87538
G1 X80.672 Y140.084 E37.87546
G1 X80.692 Y139.998 E37.88278
G1 X81.188 Y138.188 E38.03845
G1 X81.734 Y136.393 E38.19406
G1 X82.33 Y134.613 E38.34976
G1 X82.976 Y132.849 E38.50557
G1 X83.674 Y131.101 E38.66168
G1 X84.464 Y129.274 E38.82678
G1 X84.759 Y128.631 E38.88546
G1 X85.265 Y127.559 E38.98378
G1 X85.586 Y126.912 E39.04368
G1 X85.598 Y126.888 E39.04591
G1 X86.112 Y125.876 E39.14005
G1 X86.458 Y125.224 E39.20127
G1 X87.003 Y124.22 E39.29603
G1 X87.373 Y123.565 E39.35842
G1 X87.945 Y122.581 E39.45283
G1 X88.342 Y121.924 E39.51649
G1 X88.358 Y121.897 E39.5191
G1 X88.933 Y120.968 E39.60972
G1 X89.357 Y120.311 E39.67457
G1 X89.373 Y120.287 E39.67696
G1 X89.962 Y119.392 E39.76583
G1 X90.413 Y118.733 E39.83206
G1 X90.433 Y118.704 E39.83499
G1 X91.037 Y117.844 E39.92215
G1 X91.514 Y117.186 E39.98956
G1 X91.537 Y117.154 E39.99283
G1 X92.126 Y116.363 E40.07463
G1 X92.658 Y115.67 E40.14709
G1 X92.684 Y115.636 E40.15064
G1 X93.286 Y114.874 E40.23119
G1 X93.314 Y114.839 E40.2349
G1 X93.846 Y114.185 E40.30483
G1 X93.875 Y114.151 E40.30854
G1 X94.488 Y113.419 E40.38773
G1 X94.52 Y113.381 E40.39185
G1 X95.081 Y112.732 E40.463
G1 X95.107 Y112.703 E40.46623
G1 X95.731 Y111.999 E40.54426
G1 X95.76 Y111.966 E40.5479
G1 X96.348 Y111.321 E40.62029
G1 X97.012 Y110.614 E40.70074
G1 X97.042 Y110.582 E40.70438
G1 X97.66 Y109.942 E40.77817
G1 X97.69 Y109.911 E40.78175
G1 X98.331 Y109.265 E40.85723
G1 X98.364 Y109.232 E40.8611
G1 X99.009 Y108.601 E40.93594
G1 X99.042 Y108.57 E40.9397
G1 X99.692 Y107.952 E41.01409
G0 F900 X100.174 Y108.459
G1 F1200 X100.198 Y108.438 E41.01673
G1 X100.871 Y107.815 E41.0928
G1 X100.898 Y107.79 E41.09585
G1 X101.553 Y107.202 E41.16886
G1 X102.279 Y106.567 E41.24886
G1 X102.31 Y106.54 E41.25227
G1 X102.972 Y105.98 E41.32419
G1 X102.992 Y105.963 E41.32636
G1 X103.721 Y105.36 E41.40483
G1 X103.743 Y105.343 E41.40714
G1 X104.187 Y104.984 E41.4545
G1 X104.22 Y104.958 E41.45798
G1 X105.199 Y104.194 E41.56098
G1 X105.232 Y104.168 E41.56447
G1 X105.9 Y103.665 E41.63382
G1 X105.922 Y103.649 E41.63608
G1 X106.709 Y103.07 E41.71712
G1 X106.742 Y103.046 E41.7205
G1 X107.412 Y102.57 E41.78867
G1 X107.437 Y102.552 E41.79123
G1 X108.252 Y101.988 E41.87343
G1 X108.286 Y101.965 E41.87684
G1 X108.956 Y101.518 E41.94364
G1 X108.983 Y101.5 E41.94633
G1 X110.288 Y100.656 E42.07524
G1 X111.875 Y99.692 E42.22925
G1 X113.488 Y98.772 E42.38327
G1 X115.128 Y97.896 E42.53748
G1 X116.792 Y97.067 E42.69168
G1 X118.476 Y96.286 E42.84564
G1 X120.174 Y95.555 E42.99897
G1 X121.5 Y95.022 E43.11751
G1 X123.272 Y94.363 E43.27432
G1 X125.064 Y93.753 E43.43133
G1 X126.872 Y93.196 E43.58824
G1 X128.694 Y92.69 E43.74508
G1 X130.462 Y92.252 E43.89616
G1 X130.53 Y92.242 E43.90186
G1 X130.529 Y92.237 E43.90228
G1 X132.379 Y91.835 E44.0593
G1 X134.24 Y91.486 E44.21635
G1 X136.109 Y91.191 E44.37329
G1 X137.984 Y90.95 E44.53009
G1 X139.868 Y90.762 E44.68713
G1 X141.741 Y90.63 E44.84286
G1 X142.634 Y90.587 E44.91702
G1 X142.805 Y90.585 E44.9312
G1 X143.157 Y90.593 E44.9604
G1 X144.075 Y90.568 E45.03657
G1 X144.417 Y90.539 E45.06504
G1 X144.6 Y90.53 E45.08024
G1 X145.478 Y90.522 E45.15306
G1 X146.578 Y90.522 E45.2443
G1 X146.574 Y89.27 E45.34815
G1 X146.574 Y89.258 E45.34914
G1 X146.587 Y81.766 E45.97055
G1 X146.641 Y81.259 E46.01284
G1 X146.699 Y80.987 E46.0359
G1 X146.83 Y80.565 E46.07255
G1 X146.931 Y80.349 E46.09233
G1 X147.034 Y80.155 E46.11055
G1 X147.276 Y79.785 E46.14722
G1 X147.679 Y79.382 E46.19449
G1 X147.889 Y79.216 E46.21669
G1 X148.259 Y78.974 E46.25336
G1 X148.667 Y78.803 E46.29005
G1 X148.991 Y78.724 E46.31772
G1 X149.298 Y78.671 E46.34356
G1 X149.875 Y78.64 E46.39148
G1 X150.104 Y78.655 E46.41052
G1 X150.659 Y78.757 E46.45732
G1 X172.801 Y85.516 E48.37749
G1 X172.804 Y85.516 E48.37774
G1 X187.156 Y89.912 E49.62272
G1 X187.679 Y90.142 E49.67011
G1 X187.897 Y90.27 E49.69108
G1 X188.248 Y90.522 E49.72692
G1 X205.566 Y90.523 E51.16331
G1 X205.79 Y90.529 E51.1819
G1 X205.812 Y90.53 E51.18373
G1 X206.573 Y90.561 E51.2469
G1 X207.407 Y90.642 E51.3164
G1 X207.57 Y90.664 E51.33004
G1 X208.397 Y90.801 E51.39957
G1 X208.396 Y90.808 E51.40015
G1 X208.555 Y90.831 E51.41348
G1 X209.367 Y91.021 E51.48265
G1 X209.523 Y91.063 E51.49605
G1 X210.324 Y91.307 E51.5655
G1 X210.473 Y91.358 E51.57856
G1 X211.405 Y91.714 E51.66131
G1 X212.166 Y92.058 E51.73058
G1 X212.314 Y92.132 E51.7443
G1 X213.186 Y92.604 E51.82654
G1 X213.898 Y93.046 E51.89605
G1 X214.034 Y93.137 E51.90963
G1 X214.713 Y93.624 E51.97893
G1 X214.838 Y93.72 E51.992
G1 X215.486 Y94.251 E52.06149
G1 X215.61 Y94.36 E52.07518
G1 X216.329 Y95.041 E52.15732
G1 X216.903 Y95.652 E52.22686
G1 X217.011 Y95.776 E52.2405
G1 X217.541 Y96.422 E52.3098
G1 X217.638 Y96.549 E52.32306
G1 X218.216 Y97.364 E52.40593
G1 X218.657 Y98.074 E52.47525
G1 X218.735 Y98.21 E52.48826
G1 X219.131 Y98.949 E52.5578
G1 X219.204 Y99.097 E52.57148
G1 X219.549 Y99.86 E52.64094
G1 X219.542 Y99.863 E52.64157
G1 X219.612 Y100.008 E52.65492
G1 X219.906 Y100.792 E52.72437
G1 X219.956 Y100.941 E52.73741
G1 X220.24 Y101.893 E52.81981
G1 X220.431 Y102.706 E52.88908
G1 X220.454 Y102.869 E52.90273
G1 X220.462 Y102.868 E52.9034
G1 X220.617 Y103.831 E52.9843
G1 X220.641 Y104.055 E53.00299
G1 X220.644 Y104.084 E53.0054
G1 X220.712 Y104.844 E53.06869
G1 X220.741 Y105.763 E53.14495
G1 X220.74 Y207.762 E61.605
G1 X220.739 Y207.841 E61.61156
G1 X220.712 Y208.677 E61.68093
G1 X220.701 Y208.838 E61.69432
G1 X220.599 Y209.83 E61.77703
G1 X220.463 Y210.657 E61.84654
G1 X220.455 Y210.656 E61.84721
G1 X220.431 Y210.819 E61.86088
G1 X220.24 Y211.632 E61.93015
G1 X220.199 Y211.783 E61.94312
G1 X219.956 Y212.584 E62.01255
G1 X219.904 Y212.737 E62.02595
G1 X219.549 Y213.666 E62.10844
G1 X219.205 Y214.428 E62.17779
G1 X219.131 Y214.577 E62.19158
G1 X218.659 Y215.448 E62.27375
G1 X218.218 Y216.159 E62.34315
G1 X218.126 Y216.296 E62.35684
G1 X217.542 Y217.102 E62.43939
G1 X217.011 Y217.749 E62.50881
G1 X216.904 Y217.871 E62.52227
G1 X216.222 Y218.592 E62.60459
G1 X215.611 Y219.166 E62.67412
G1 X215.486 Y219.275 E62.68788
G1 X214.839 Y219.805 E62.75725
G1 X214.714 Y219.9 E62.77027
G1 X213.899 Y220.479 E62.85319
G1 X213.051 Y221 E62.93574
G1 X212.312 Y221.395 E63.00524
G1 X212.169 Y221.465 E63.01845
G1 X211.257 Y221.873 E63.10132
G1 X210.324 Y222.218 E63.18382
G1 X209.523 Y222.462 E63.25327
G1 X209.37 Y222.503 E63.26641
G1 X208.558 Y222.694 E63.3356
G1 X208.394 Y222.717 E63.34933
G1 X208.395 Y222.726 E63.35009
G1 X207.568 Y222.862 E63.4196
