;FLAVOR:Marlin
;TIME:9740
;Filament used: 12.085m
;Layer height: 0.28
;MINX:79.022
;MINY:81.992
;MINZ:0.28
;MAXX:220.978
;MAXY:216.502
;MAXZ:33.54
;Generated with Cura_SteamEngine 4.6.0
M140 S80
M105
M190 S80
M104 S250
M105
M109 S250
M82 ;absolute extrusion mode
G28 ; home all axes
 M117 Purge extruder
 G92 E0 ; reset extruder
 G1 Z1.0 F3000 ; move z up little to prevent scratching of surface
 G1 X2 Y20 Z0.3 F5000.0 ; move to start-line position
 G1 X2 Y200.0 Z0.3 F1500.0 E15 ; draw 1st line
 G1 X2 Y200.0 Z0.4 F5000.0 ; move to side a little
 G1 X2 Y20 Z0.4 F1500.0 E30 ; draw 2nd line
 G92 E0 ; reset extruder
 G1 Z1.0 F3000 ; move z up little to prevent scratching of surface
G92 E0
G92 E0
G1 F1500 E-5
;LAYER_COUNT:118
;LAYER:0
M107
G1 F600 Z0.78
G0 F900 X98.514 Y101.443 Z0.78
;TYPE:SKIRT
G1 F600 Z0.28
G1 F1500 E0
G1 F1200 X99.399 Y100.577 E0.08562
G1 X99.818 Y100.176 E0.12572
G1 X99.851 Y100.144 E0.1289
G1 X100.775 Y99.289 E0.21595
G1 X101.508 Y98.632 E0.28402
G1 X102.639 Y97.655 E0.38736
G1 X104.08 Y96.474 E0.51619
G1 X105.557 Y95.33 E0.64538
G1 X107.056 Y94.237 E0.77366
G1 X108.174 Y93.462 E0.86772
G1 X108.204 Y93.441 E0.87026
G1 X108.559 Y93.202 E0.89985
G1 X108.597 Y93.178 E0.90296
G1 X110.164 Y92.161 E1.03213
G1 X111.757 Y91.193 E1.16102
G1 X113.374 Y90.271 E1.28974
G1 X115.023 Y89.391 E1.41898
G1 X116.69 Y88.561 E1.54775
G1 X118.384 Y87.774 E1.67691
G1 X120.084 Y87.045 E1.80481
G1 X121.418 Y86.508 E1.90425
G1 X123.196 Y85.847 E2.03541
G1 X124.996 Y85.234 E2.1669
G1 X126.807 Y84.676 E2.29794
G1 X128.637 Y84.167 E2.42928
G1 X130.403 Y83.729 E2.5551
G1 X130.479 Y83.717 E2.56042
G1 X130.478 Y83.713 E2.5607
G1 X132.336 Y83.309 E2.69218
G1 X134.203 Y82.96 E2.82351
G1 X136.077 Y82.664 E2.9547
G1 X137.96 Y82.422 E3.08598
G1 X139.849 Y82.233 E3.21725
G1 X141.733 Y82.099 E3.34786
G1 X142.497 Y82.063 E3.40074
G1 X142.714 Y82.062 E3.41575
G1 X143.186 Y82.074 E3.4484
G1 X144.026 Y82.051 E3.5065
G1 X144.52 Y82.009 E3.54079
G1 X144.723 Y81.999 E3.55484
G1 X145.475 Y81.992 E3.60684
G1 X205.5 Y81.992 E7.75744
G1 X205.59 Y81.994 E7.76366
G1 X206.6 Y82.033 E7.83356
G1 X207.433 Y82.115 E7.89143
G1 X207.607 Y82.138 E7.90357
G1 X208.433 Y82.274 E7.96146
G1 X208.43 Y82.29 E7.96258
G1 X208.612 Y82.309 E7.97523
G1 X209.424 Y82.5 E8.03292
G1 X209.591 Y82.545 E8.04487
G1 X210.391 Y82.788 E8.10269
G1 X210.556 Y82.844 E8.11474
G1 X211.341 Y83.139 E8.17272
G1 X211.507 Y83.207 E8.18513
G1 X212.267 Y83.552 E8.24284
G1 X212.421 Y83.629 E8.25475
G1 X213.158 Y84.022 E8.3125
G1 X213.313 Y84.111 E8.32486
G1 X214.024 Y84.553 E8.38275
G1 X214.17 Y84.65 E8.39487
G1 X214.849 Y85.136 E8.45261
G1 X214.994 Y85.248 E8.46528
G1 X215.64 Y85.78 E8.52315
G1 X215.769 Y85.893 E8.53501
G1 X216.379 Y86.464 E8.59278
G1 X216.505 Y86.59 E8.6051
G1 X217.078 Y87.202 E8.66308
G1 X217.193 Y87.333 E8.67513
G1 X217.723 Y87.978 E8.73286
G1 X217.832 Y88.12 E8.74523
G1 X218.416 Y88.944 E8.81507
G1 X218.857 Y89.652 E8.87275
G1 X218.946 Y89.807 E8.88511
G1 X219.341 Y90.546 E8.94305
G1 X219.42 Y90.707 E8.95545
G1 X219.83 Y91.625 E9.02497
G1 X220.126 Y92.408 E9.08285
G1 X220.184 Y92.581 E9.09547
G1 X220.471 Y93.546 E9.16509
G1 X220.662 Y94.36 E9.2229
G1 X220.687 Y94.536 E9.23519
G1 X220.696 Y94.535 E9.23582
G1 X220.833 Y95.36 E9.29365
G1 X220.856 Y95.537 E9.30599
G1 X220.938 Y96.37 E9.36387
G1 X220.95 Y96.548 E9.3762
G1 X220.978 Y97.47 E9.43999
G1 X220.978 Y199.469 E16.493
G1 X220.977 Y199.556 E16.49901
G1 X220.95 Y200.392 E16.55685
G1 X220.938 Y200.57 E16.56919
G1 X220.856 Y201.403 E16.62707
G1 X220.833 Y201.58 E16.63941
G1 X220.696 Y202.406 E16.6973
G1 X220.68 Y202.403 E16.69843
G1 X220.661 Y202.582 E16.71088
G1 X220.47 Y203.395 E16.76862
G1 X220.426 Y203.559 E16.78037
G1 X220.184 Y204.359 E16.83816
G1 X220.126 Y204.531 E16.85071
G1 X219.83 Y205.315 E16.90866
G1 X219.764 Y205.473 E16.9205
G1 X219.42 Y206.234 E16.97825
G1 X219.34 Y206.396 E16.99074
G1 X218.86 Y207.283 E17.06048
G1 X218.419 Y207.993 E17.11827
G1 X218.32 Y208.14 E17.13053
G1 X217.833 Y208.82 E17.18836
G1 X217.724 Y208.962 E17.20074
G1 X217.193 Y209.608 E17.25856
G1 X217.078 Y209.739 E17.27062
G1 X216.506 Y210.35 E17.32849
G1 X216.38 Y210.476 E17.34081
G1 X215.769 Y211.048 E17.39869
G1 X215.64 Y211.161 E17.41055
G1 X214.995 Y211.692 E17.46832
G1 X214.849 Y211.805 E17.48108
G1 X214.169 Y212.291 E17.53888
G1 X214.027 Y212.385 E17.55065
G1 X213.318 Y212.827 E17.60843
G1 X213.16 Y212.919 E17.62107
G1 X212.421 Y213.313 E17.67898
G1 X212.267 Y213.388 E17.69082
G1 X211.597 Y213.692 E17.7417
G1 X211.505 Y213.734 E17.74869
G1 X211.504 Y213.733 E17.74879
G1 X211.335 Y213.806 E17.76152
G1 X210.551 Y214.099 E17.81939
G1 X210.391 Y214.153 E17.83107
G1 X209.591 Y214.396 E17.88888
G1 X209.421 Y214.442 E17.90106
G1 X208.609 Y214.632 E17.95872
G1 X208.435 Y214.657 E17.97088
G1 X208.436 Y214.666 E17.97151
G1 X207.61 Y214.803 E18.0294
G1 X207.433 Y214.826 E18.04174
G1 X206.6 Y214.908 E18.09962
G1 X206.425 Y214.919 E18.11175
G1 X205.5 Y214.949 E18.17574
G1 X145.5 Y214.948 E22.32461
G1 X145.475 Y214.948 E22.32634
G1 X144.723 Y214.941 E22.37834
G1 X144.502 Y214.93 E22.39364
G1 X144.331 Y214.914 E22.40552
G1 X144.031 Y214.891 E22.42632
G1 X143.223 Y214.868 E22.48222
G1 X142.74 Y214.882 E22.51563
G1 X142.535 Y214.88 E22.52981
G1 X141.735 Y214.841 E22.58519
G1 X139.876 Y214.71 E22.71406
G1 X139.181 Y214.641 E22.76235
G1 X139.061 Y214.924 E22.7836
G1 X138.825 Y215.292 E22.81383
G1 X138.774 Y215.359 E22.81966
G1 X138.462 Y215.703 E22.85177
G1 X138.096 Y215.989 E22.88389
G1 X137.686 Y216.207 E22.916
G1 X137.638 Y216.222 E22.91947
G1 X137.574 Y216.258 E22.92455
G1 X137.137 Y216.416 E22.95668
G1 X136.68 Y216.497 E22.98878
G1 X136.256 Y216.502 E23.0181
G1 X136.212 Y216.499 E23.02115
G1 X135.754 Y216.427 E23.05321
G1 X135.314 Y216.279 E23.08531
G1 X134.906 Y216.057 E23.11742
G1 X134.892 Y216.046 E23.11866
G1 X116.296 Y210.359 E24.46332
G1 X115.866 Y210.185 E24.49539
G1 X115.471 Y209.941 E24.5275
G1 X115.124 Y209.632 E24.55962
G1 X114.835 Y209.269 E24.59171
G1 X114.661 Y208.964 E24.61599
G1 X114.569 Y208.776 E24.63046
G1 X114.401 Y208.343 E24.66258
G1 X114.311 Y207.887 E24.69472
G1 X114.299 Y207.423 E24.72681
G1 X114.341 Y207.192 E24.74305
G1 X112.784 Y206.34 E24.86578
G1 X111.543 Y205.62 E24.96498
G1 X111.508 Y205.6 E24.96777
G1 X111.175 Y205.4 E24.99463
G1 X111.147 Y205.383 E24.9969
G1 X109.945 Y204.641 E25.09457
G1 X109.526 Y204.374 E25.12893
G1 X108.008 Y203.367 E25.25489
G1 X108.009 Y203.365 E25.25505
G1 X107.951 Y203.329 E25.25977
G1 X106.827 Y202.541 E25.35469
G1 X106.803 Y202.523 E25.35676
G1 X106.438 Y202.261 E25.38783
G1 X106.401 Y202.234 E25.391
G1 X105.316 Y201.427 E25.4845
G1 X104.915 Y201.121 E25.51938
G1 X104.881 Y201.095 E25.52234
G1 X103.836 Y200.27 E25.6144
G1 X103.801 Y200.242 E25.6175
G1 X103.13 Y199.694 E25.67741
G1 X103.096 Y199.666 E25.68045
G1 X101.941 Y198.69 E25.78501
G1 X100.976 Y197.834 E25.87421
G1 X100.562 Y197.459 E25.91284
G1 X100.528 Y197.428 E25.91602
G1 X99.562 Y196.521 E26.00764
G1 X98.47 Y195.454 E26.11321
G1 X97.606 Y194.57 E26.19869
G1 X97.579 Y194.542 E26.20138
G1 X96.957 Y193.887 E26.26384
G1 X96.538 Y193.438 E26.3063
G1 X96.511 Y193.409 E26.30904
G1 X95.904 Y192.738 E26.37161
G1 X94.691 Y191.338 E26.4997
G1 X93.863 Y190.336 E26.58958
G1 X93.844 Y190.313 E26.59164
G1 X93.536 Y189.932 E26.62552
G1 X93.506 Y189.894 E26.62887
G1 X92.695 Y188.853 E26.72012
G1 X92.677 Y188.83 E26.72214
G1 X92.362 Y188.415 E26.75816
G1 X91.261 Y186.907 E26.88727
G1 X90.206 Y185.373 E27.01601
G1 X89.191 Y183.806 E27.14511
G1 X88.222 Y182.213 E27.27404
G1 X87.299 Y180.594 E27.40291
G1 X86.421 Y178.95 E27.53178
G1 X85.589 Y177.279 E27.66086
G1 X84.809 Y175.597 E27.78906
G1 X84.251 Y174.313 E27.88587
G1 X83.566 Y172.626 E28.01177
G1 X83.543 Y172.552 E28.01713
G1 X83.539 Y172.554 E28.01744
G1 X82.876 Y170.774 E28.14878
G1 X82.265 Y168.976 E28.28009
G1 X81.705 Y167.162 E28.41137
G1 X81.198 Y165.334 E28.54254
G1 X80.741 Y163.49 E28.67391
G1 X80.354 Y161.71 E28.79987
G1 X80.344 Y161.633 E28.80523
G1 X80.339 Y161.634 E28.80559
G1 X79.99 Y159.77 E28.93672
G1 X79.693 Y157.892 E29.06819
G1 X79.451 Y156.011 E29.19933
G1 X79.263 Y154.12 E29.33073
G1 X79.128 Y152.227 E29.46196
G1 X79.048 Y150.332 E29.59312
G1 X79.022 Y148.432 E29.72451
G1 X79.049 Y146.569 E29.85334
G1 X79.129 Y144.705 E29.98235
G1 X79.261 Y142.847 E30.11116
G1 X79.444 Y140.989 E30.24025
G1 X79.68 Y139.139 E30.36921
G1 X79.969 Y137.298 E30.49807
G1 X80.307 Y135.465 E30.62696
G1 X80.698 Y133.638 E30.75615
G1 X81.122 Y131.9 E30.87986
G1 X81.124 Y131.9 E30.87999
G1 X81.139 Y131.829 E30.88501
G1 X81.631 Y130.032 E31.01384
G1 X82.173 Y128.247 E31.14284
G1 X82.765 Y126.479 E31.27176
G1 X83.407 Y124.727 E31.40079
G1 X84.101 Y122.987 E31.53032
G1 X85.046 Y120.82 E31.69379
G1 X85.857 Y119.112 E31.82453
G1 X86.555 Y117.734 E31.93135
G1 X87.41 Y116.148 E32.05594
G1 X87.61 Y115.791 E32.08423
G1 X87.63 Y115.755 E32.08708
G1 X88.349 Y114.515 E32.18619
G1 X88.568 Y114.149 E32.21569
G1 X89.33 Y112.915 E32.31597
G1 X89.35 Y112.882 E32.31864
G1 X89.57 Y112.537 E32.34693
G1 X89.596 Y112.497 E32.35023
G1 X90.602 Y110.979 E32.47616
G1 X90.605 Y110.981 E32.47641
G1 X90.642 Y110.92 E32.48134
G1 X91.431 Y109.796 E32.5763
G1 X91.712 Y109.406 E32.60954
G1 X91.741 Y109.366 E32.61295
G1 X92.876 Y107.85 E32.74391
G1 X93.701 Y106.806 E32.83592
G1 X93.719 Y106.783 E32.83794
G1 X94.061 Y106.361 E32.8755
G1 X95.279 Y104.914 E33.00628
G1 X96.136 Y103.947 E33.09563
G1 X96.508 Y103.535 E33.13401
G1 X97.22 Y102.772 E33.20617
G1 X98.514 Y101.443 E33.33444
G0 F900 X98.933 Y101.872
G1 F1200 X99.818 Y101.006 E33.42006
G1 X100.233 Y100.609 E33.45977
G1 X101.183 Y99.73 E33.54927
G1 X101.206 Y99.708 E33.55147
G1 X101.871 Y99.111 E33.61326
G1 X103.02 Y98.119 E33.71823
G1 X104.447 Y96.948 E33.84587
G1 X105.911 Y95.815 E33.97388
G1 X107.398 Y94.73 E34.10116
G1 X108.516 Y93.955 E34.19523
G1 X108.539 Y93.939 E34.19716
G1 X108.894 Y93.7 E34.22676
G1 X108.923 Y93.681 E34.22915
G1 X110.476 Y92.674 E34.35714
G1 X112.055 Y91.714 E34.48492
G1 X113.657 Y90.8 E34.61246
G1 X115.29 Y89.928 E34.74047
G1 X116.943 Y89.105 E34.86815
G1 X118.621 Y88.326 E34.99607
G1 X120.264 Y87.62 E35.11973
G1 X120.308 Y87.601 E35.12304
G1 X121.628 Y87.07 E35.22143
G1 X123.39 Y86.414 E35.35143
G1 X125.173 Y85.807 E35.48167
G1 X126.968 Y85.254 E35.61155
G1 X128.781 Y84.75 E35.74167
G1 X130.547 Y84.312 E35.86748
G1 X130.607 Y84.303 E35.87168
G1 X130.606 Y84.299 E35.87197
G1 X132.447 Y83.899 E36.00224
G1 X134.296 Y83.553 E36.13231
G1 X136.154 Y83.259 E36.26239
G1 X138.02 Y83.019 E36.39248
G1 X139.892 Y82.831 E36.52257
G1 X141.761 Y82.698 E36.65214
G1 X142.525 Y82.662 E36.70503
G1 X142.694 Y82.661 E36.71671
G1 X142.845 Y82.666 E36.72716
G1 X143.211 Y82.673 E36.75247
G1 X144.058 Y82.651 E36.81106
G1 X144.57 Y82.607 E36.84659
G1 X144.728 Y82.599 E36.85753
G1 X145.48 Y82.592 E36.90953
G1 X205.5 Y82.592 E41.05979
G1 X205.57 Y82.593 E41.06463
G1 X206.541 Y82.63 E41.13182
G1 X207.509 Y82.73 E41.19911
G1 X208.335 Y82.866 E41.25699
G1 X208.333 Y82.877 E41.25777
G1 X208.475 Y82.893 E41.26765
G1 X209.416 Y83.119 E41.33457
G1 X210.345 Y83.405 E41.40178
G1 X211.13 Y83.7 E41.45977
G1 X211.259 Y83.754 E41.46944
G1 X212.139 Y84.158 E41.53639
G1 X212.997 Y84.621 E41.60381
G1 X213.821 Y85.138 E41.67108
G1 X214.613 Y85.711 E41.73867
G1 X215.359 Y86.331 E41.80574
G1 X216.067 Y87 E41.8731
G1 X216.73 Y87.714 E41.94047
G1 X217.344 Y88.469 E42.00776
G1 X217.906 Y89.262 E42.07497
G1 X218.417 Y90.09 E42.14225
G1 X218.874 Y90.954 E42.20984
G1 X219.268 Y91.837 E42.2767
G1 X219.61 Y92.755 E42.34444
G1 X219.886 Y93.683 E42.41139
G1 X220.077 Y94.497 E42.4692
G1 X220.096 Y94.634 E42.47877
G1 X220.104 Y94.633 E42.47932
G1 X220.259 Y95.596 E42.54677
G1 X220.35 Y96.567 E42.61421
G1 X220.378 Y97.47 E42.67668
G1 X220.378 Y199.469 E49.72969
G1 X220.377 Y199.537 E49.73439
G1 X220.341 Y200.511 E49.80178
G1 X220.241 Y201.482 E49.86928
G1 X220.104 Y202.308 E49.92718
G1 X220.093 Y202.306 E49.92795
G1 X220.077 Y202.444 E49.93756
G1 X219.852 Y203.385 E50.00446
G1 X219.565 Y204.319 E50.07202
G1 X219.218 Y205.226 E50.13917
G1 X218.874 Y205.987 E50.19692
G1 X218.811 Y206.113 E50.20666
G1 X218.35 Y206.966 E50.27371
G1 X217.832 Y207.791 E50.34107
G1 X217.345 Y208.471 E50.3989
G1 X217.26 Y208.581 E50.40852
G1 X216.64 Y209.329 E50.4757
G1 X215.97 Y210.038 E50.54315
G1 X215.259 Y210.698 E50.61023
G1 X214.5 Y211.317 E50.67796
G1 X213.71 Y211.876 E50.74487
G1 X212.878 Y212.389 E50.81246
G1 X212.019 Y212.842 E50.87961
G1 X211.257 Y213.188 E50.93748
G1 X211.253 Y213.178 E50.93823
G1 X211.125 Y213.244 E50.94819
G1 X210.216 Y213.579 E51.01517
G1 X209.284 Y213.858 E51.08244
G1 X208.472 Y214.048 E51.14011
G1 X208.337 Y214.066 E51.14953
G1 X208.338 Y214.074 E51.15008
G1 X207.374 Y214.229 E51.2176
G1 X206.405 Y214.32 E51.2849
G1 X205.5 Y214.349 E51.34751
G1 X145.5 Y214.348 E55.49638
G1 X145.48 Y214.348 E55.49776
G1 X144.728 Y214.341 E55.54976
G1 X144.557 Y214.332 E55.5616
G1 X144.053 Y214.291 E55.59657
G1 X143.223 Y214.268 E55.65398
G1 X142.723 Y214.282 E55.68857
G1 X142.564 Y214.281 E55.69957
G1 X141.825 Y214.246 E55.75072
G1 X141.777 Y214.243 E55.75405
G1 X139.935 Y214.113 E55.88174
G1 X138.74 Y213.995 E55.96477
G1 X138.694 Y214.243 E55.98221
G1 X138.542 Y214.623 E56.01051
G1 X138.348 Y214.929 E56.03556
G1 X138.297 Y214.996 E56.04139
G1 X138.018 Y215.296 E56.06972
G1 X137.687 Y215.536 E56.09799
G1 X137.315 Y215.708 E56.12633
G1 X137.305 Y215.711 E56.12705
G1 X137.142 Y215.787 E56.13948
G1 X136.745 Y215.886 E56.16778
G1 X136.297 Y215.903 E56.19878
G1 X136.253 Y215.9 E56.20183
G1 X135.849 Y215.833 E56.23014
G1 X135.466 Y215.688 E56.25846
G1 X135.168 Y215.503 E56.28272
G1 X116.472 Y209.785 E57.63461
G1 X116.094 Y209.628 E57.66292
G1 X115.754 Y209.4 E57.69122
G1 X115.464 Y209.111 E57.71953
G1 X115.2 Y208.7 E57.75331
G1 X115.108 Y208.512 E57.76779
G1 X114.964 Y208.129 E57.79608
G1 X114.898 Y207.725 E57.82438
G1 X114.912 Y207.315 E57.85275
G1 X114.986 Y206.976 E57.87675
G1 X115.019 Y206.868 E57.88455
G1 X114.732 Y206.721 E57.90685
G1 X113.085 Y205.821 E58.03663
G1 X111.844 Y205.101 E58.13584
G1 X111.484 Y204.885 E58.16487
G1 X111.462 Y204.872 E58.16664
G1 X110.26 Y204.13 E58.26431
G1 X109.891 Y203.895 E58.29457
G1 X109.858 Y203.874 E58.29727
G1 X108.34 Y202.867 E58.42323
G1 X108.342 Y202.864 E58.42348
G1 X108.295 Y202.838 E58.4272
G1 X107.171 Y202.05 E58.52212
G1 X107.152 Y202.036 E58.52375
G1 X106.787 Y201.774 E58.55482
G1 X106.759 Y201.753 E58.55724
G1 X105.674 Y200.946 E58.65074
G1 X105.652 Y200.93 E58.65262
G1 X105.279 Y200.645 E58.68508
G1 X105.253 Y200.624 E58.68739
G1 X104.208 Y199.799 E58.77945
G1 X103.51 Y199.229 E58.84177
G1 X103.483 Y199.208 E58.84413
G1 X102.339 Y198.241 E58.94771
G1 X101.374 Y197.385 E59.03691
G1 X101.358 Y197.37 E59.03843
G1 X100.965 Y197.014 E59.07509
G1 X100.939 Y196.99 E59.07754
G1 X100.012 Y196.121 E59.1654
G1 X99.981 Y196.092 E59.16834
G1 X98.934 Y195.07 E59.26951
G1 X98.899 Y195.035 E59.27293
G1 X98.035 Y194.151 E59.3584
G1 X97.392 Y193.474 E59.42297
G1 X96.976 Y193.028 E59.46514
G1 X96.388 Y192.379 E59.52569
G1 X96.358 Y192.345 E59.52883
G1 X95.153 Y190.956 E59.65598
G1 X94.325 Y189.954 E59.74586
G1 X94.311 Y189.936 E59.74744
G1 X94.003 Y189.555 E59.78132
G1 X93.979 Y189.526 E59.78392
G1 X93.168 Y188.485 E59.87517
G1 X93.154 Y188.466 E59.8768
G1 X92.87 Y188.093 E59.90922
G1 X92.846 Y188.061 E59.91198
G1 X91.755 Y186.567 E60.0399
G1 X90.709 Y185.046 E60.16755
G1 X89.703 Y183.494 E60.29544
G1 X88.743 Y181.916 E60.42316
G1 X87.828 Y180.311 E60.55091
G1 X86.958 Y178.682 E60.67861
G1 X86.133 Y177.027 E60.80648
G1 X85.359 Y175.358 E60.93369
G1 X84.807 Y174.087 E61.02951
G1 X84.122 Y172.4 E61.15541
G1 X84.105 Y172.343 E61.15953
G1 X84.102 Y172.344 E61.15975
G1 X83.444 Y170.581 E61.28987
G1 X82.838 Y168.799 E61.42002
G1 X82.283 Y167.001 E61.55014
G1 X81.78 Y165.189 E61.68017
G1 X81.327 Y163.362 E61.81033
G1 X80.94 Y161.582 E61.93629
G1 X80.933 Y161.522 E61.94046
G1 X80.929 Y161.523 E61.94075
G1 X80.583 Y159.676 E62.07069
G1 X80.288 Y157.815 E62.20098
G1 X80.048 Y155.951 E62.33093
G1 X79.861 Y154.077 E62.46116
G1 X79.728 Y152.201 E62.59121
G1 X79.648 Y150.323 E62.72118
