;FLAVOR:Marlin
;TIME:6090
;Filament used: 6.17304m
;Layer height: 0.3
;MINX:126.653
;MINY:132.773
;MINZ:0.3
;MAXX:176.494
;MAXY:167.228
;MAXZ:101.9
;POSTPROCESSED
;ChangeAtZ instances: 1
;Generated with Cura_SteamEngine 4.6.0
M140 S80
M105
M190 S80
M104 S250
M105
M109 S250
M82 ;absolute extrusion mode
G28 ; home all axes
 M117 Purge extruder
 G92 E0 ; reset extruder
 G1 Z1.0 F3000 ; move z up little to prevent scratching of surface
 G1 X2 Y20 Z0.3 F5000.0 ; move to start-line position
 G1 X2 Y200.0 Z0.3 F1500.0 E15 ; draw 1st line
 G1 X2 Y200.0 Z0.4 F5000.0 ; move to side a little
 G1 X2 Y20 Z0.4 F1500.0 E30 ; draw 2nd line
 G92 E0 ; reset extruder
 G1 Z1.0 F3000 ; move z up little to prevent scratching of surface
G92 E0
G92 E0
G1 F1500 E-4
;LAYER_COUNT:338
;LAYER:0
M106 S127.5
G1 F600 Z0.8
G0 F3000 X128.305 Y133.982 Z0.8
;TYPE:SKIRT
G1 F600 Z0.3
G1 F1500 E0
G1 F1200 X128.68 Y133.65 E0.05247
G1 X128.933 Y133.477 E0.08458
G1 X129.18 Y133.326 E0.11492
G1 X129.627 Y133.1 E0.16739
G1 X130.125 Y132.942 E0.22213
G1 X130.323 Y132.897 E0.2434
G1 X130.782 Y132.828 E0.29203
G1 X131.019 Y132.81 E0.31694
G1 X131.289 Y132.801 E0.34524
G1 X131.494 Y132.803 E0.36672
G1 X131.748 Y132.816 E0.39336
G1 X132.034 Y132.842 E0.42345
G1 X132.254 Y132.87 E0.44669
G1 X132.701 Y132.945 E0.49417
G1 X133.007 Y133.011 E0.52697
G1 X133.495 Y133.138 E0.5798
G1 X133.839 Y133.243 E0.61748
G1 X133.974 Y133.296 E0.63268
G1 X133.976 Y133.29 E0.63334
G1 X134.324 Y133.414 E0.67205
G1 X134.32 Y133.426 E0.67337
G1 X134.487 Y133.476 E0.69163
G1 X134.954 Y133.675 E0.74482
G1 X135.279 Y133.829 E0.7825
G1 X135.43 Y133.916 E0.80076
G1 X135.434 Y133.909 E0.8016
G1 X135.857 Y134.142 E0.8522
G1 X136.143 Y134.317 E0.88733
G1 X136.409 Y134.493 E0.92074
G1 X136.558 Y134.598 E0.93984
G1 X136.816 Y134.791 E0.9736
G1 X136.815 Y134.792 E0.97374
G1 X136.982 Y134.922 E0.99592
G1 X137.319 Y135.213 E1.04257
G1 X137.552 Y135.436 E1.07636
G1 X137.745 Y135.635 E1.1054
G1 X137.744 Y135.636 E1.10555
G1 X137.893 Y135.796 E1.12845
G1 X138.179 Y136.139 E1.17524
G1 X138.334 Y136.343 E1.20209
G1 X138.344 Y136.356 E1.2038
G1 X138.474 Y136.538 E1.22724
G1 X138.613 Y136.748 E1.25362
G1 X138.609 Y136.751 E1.25415
G1 X138.721 Y136.92 E1.27539
G1 X138.845 Y137.134 E1.3013
G1 X138.839 Y137.138 E1.30206
G1 X138.926 Y137.279 E1.31941
G1 X139.187 Y137.808 E1.38122
G1 X139.279 Y138.02 E1.40543
G1 X139.278 Y138.02 E1.40553
G1 X139.326 Y138.132 E1.4183
G1 X139.404 Y138.33 E1.44059
G1 X139.403 Y138.33 E1.4407
G1 X139.449 Y138.446 E1.45377
G1 X139.907 Y139.737 E1.59729
G1 X139.991 Y139.925 E1.61886
G1 X140.142 Y140.197 E1.65146
G1 X140.28 Y140.393 E1.67657
G1 X140.444 Y140.578 E1.70247
G1 X140.459 Y140.592 E1.70462
G1 X140.612 Y140.719 E1.72546
G1 X140.641 Y140.74 E1.72921
G1 X140.738 Y140.802 E1.74127
G1 X140.924 Y140.902 E1.76339
G1 X140.951 Y140.915 E1.76653
G1 X141.153 Y141 E1.78949
G1 X141.272 Y141.044 E1.80279
G1 X141.548 Y141.133 E1.83317
G1 X141.779 Y141.196 E1.85825
G1 X141.99 Y141.248 E1.88102
G1 X142.445 Y141.343 E1.92972
G1 X143.066 Y141.447 E1.99569
G1 X143.468 Y141.502 E2.0382
G1 X143.487 Y141.505 E2.04021
G1 X143.638 Y141.523 E2.05614
G1 X144.059 Y141.571 E2.10054
G1 X144.082 Y141.574 E2.10297
G1 X144.269 Y141.591 E2.12264
G1 X144.309 Y141.596 E2.12686
G1 X144.767 Y141.638 E2.17505
G1 X145 Y141.656 E2.19953
G1 X145.534 Y141.694 E2.25562
G1 X145.567 Y141.697 E2.25909
G1 X145.796 Y141.71 E2.28313
G1 X145.84 Y141.714 E2.28775
G1 X146.985 Y141.772 E2.40787
G1 X146.985 Y141.771 E2.40797
G1 X147.318 Y141.784 E2.44289
G1 X147.701 Y141.797 E2.48304
G1 X147.704 Y141.797 E2.48335
G1 X148.046 Y141.808 E2.5192
G1 X148.049 Y141.808 E2.51952
G1 X148.405 Y141.818 E2.55683
G1 X148.411 Y141.818 E2.55746
G1 X148.678 Y141.824 E2.58544
G1 X150.192 Y141.848 E2.74408
G1 X150.241 Y141.849 E2.74921
G1 X150.647 Y141.852 E2.79175
G1 X151.492 Y141.856 E2.88028
G1 X152.714 Y141.855 E3.00831
G1 X152.756 Y141.854 E3.01271
G1 X154.71 Y141.83 E3.21745
G1 X155.383 Y141.815 E3.28797
G1 X155.737 Y141.805 E3.32508
G1 X156.122 Y141.792 E3.36544
G1 X158.496 Y141.672 E3.61448
G1 X159.469 Y141.591 E3.71677
G1 X159.516 Y141.585 E3.72173
G1 X159.716 Y141.566 E3.74278
G1 X160.121 Y141.521 E3.78548
G1 X160.145 Y141.517 E3.78802
G1 X160.312 Y141.496 E3.80566
G1 X161.059 Y141.387 E3.88475
G1 X161.487 Y141.308 E3.93035
G1 X162.034 Y141.183 E3.98914
G1 X162.465 Y141.058 E4.03615
G1 X162.805 Y140.926 E4.07436
G1 X162.949 Y140.859 E4.091
G1 X163.047 Y140.805 E4.10273
G1 X163.222 Y140.691 E4.12461
G1 X163.338 Y140.597 E4.14025
G1 X163.359 Y140.577 E4.14329
G1 X163.519 Y140.4 E4.16829
G1 X163.668 Y140.193 E4.19501
G1 X163.736 Y140.08 E4.20883
G1 X163.853 Y139.851 E4.23577
G1 X163.956 Y139.609 E4.26332
G1 X164.123 Y139.128 E4.31667
G1 X164.13 Y139.11 E4.31869
G1 X164.206 Y138.884 E4.34367
G1 X164.351 Y138.47 E4.38963
G1 X164.414 Y138.306 E4.40804
G1 X164.604 Y137.847 E4.46008
G1 X164.693 Y137.65 E4.48273
G1 X164.862 Y137.31 E4.52251
G1 X164.962 Y137.126 E4.54445
G1 X165.092 Y136.903 E4.5715
G1 X165.187 Y136.75 E4.59036
G1 X165.43 Y136.39 E4.63587
G1 X165.594 Y136.169 E4.6647
G1 X165.727 Y136.002 E4.68707
G1 X166.074 Y135.604 E4.74239
G1 X166.206 Y135.467 E4.76232
G1 X166.42 Y135.258 E4.79366
G1 X166.578 Y135.115 E4.81599
G1 X166.815 Y134.913 E4.84861
G1 X166.816 Y134.914 E4.84876
G1 X166.974 Y134.783 E4.87027
G1 X167.284 Y134.551 E4.91083
G1 X167.393 Y134.475 E4.92475
G1 X167.796 Y134.214 E4.97506
G1 X168.249 Y133.953 E5.02983
G1 X168.663 Y133.742 E5.07851
G1 X168.97 Y133.6 E5.11395
G1 X169.386 Y133.427 E5.16116
G1 X169.698 Y133.31 E5.19607
G1 X170.118 Y133.171 E5.24242
G1 X170.446 Y133.075 E5.27822
G1 X170.924 Y132.958 E5.32978
G1 X171.253 Y132.892 E5.36494
G1 X171.46 Y132.857 E5.38693
G1 X171.77 Y132.816 E5.41969
G1 X171.77 Y132.819 E5.42001
G1 X171.985 Y132.793 E5.4427
G1 X172.189 Y132.779 E5.46412
G1 X172.492 Y132.773 E5.49587
G1 X172.817 Y132.782 E5.52994
G1 X173.284 Y132.83 E5.57912
G1 X173.491 Y132.867 E5.60115
G1 X174.163 Y133.066 E5.67458
G1 X174.369 Y133.153 E5.69801
G1 X174.814 Y133.384 E5.75054
G1 X175.216 Y133.684 E5.80309
G1 X175.455 Y133.916 E5.83799
G1 X175.603 Y134.076 E5.86082
G1 X175.914 Y134.47 E5.91341
G1 X176.157 Y134.909 E5.96598
G1 X176.328 Y135.38 E6.01848
G1 X176.389 Y135.643 E6.04676
G1 X176.43 Y135.865 E6.07042
G1 X176.481 Y136.364 E6.12297
G1 X176.418 Y137.07 E6.19723
G1 X176.371 Y137.299 E6.22172
G1 X176.144 Y137.989 E6.29782
G1 X175.994 Y138.313 E6.33523
G1 X175.853 Y138.582 E6.36705
G1 X175.698 Y138.839 E6.39849
G1 X175.544 Y139.075 E6.42802
G1 X175.406 Y139.271 E6.45313
G1 X174.524 Y140.421 E6.60497
G1 X174.498 Y140.453 E6.60929
G1 X173.834 Y141.315 E6.72329
G1 X173.67 Y141.549 E6.75323
G1 X173.487 Y141.836 E6.78889
G1 X173.403 Y141.989 E6.80718
G1 X173.332 Y142.133 E6.824
G1 X173.291 Y142.234 E6.83542
G1 X173.275 Y142.305 E6.84304
G1 X173.27 Y142.348 E6.84758
G1 X173.271 Y142.402 E6.85324
G1 X173.282 Y142.522 E6.86586
G1 X173.304 Y142.691 E6.88372
G1 X173.412 Y143.339 E6.95255
G1 X173.434 Y143.468 E6.96626
G1 X173.466 Y143.687 E6.98944
G1 X173.465 Y143.687 E6.98955
G1 X173.478 Y143.768 E6.99814
G1 X173.498 Y143.925 E7.01473
G1 X173.522 Y144.113 E7.03458
G1 X173.543 Y144.332 E7.05763
G1 X173.54 Y144.332 E7.05795
G1 X173.555 Y144.472 E7.0727
G1 X173.573 Y144.781 E7.10513
G1 X173.581 Y145.042 E7.13248
G1 X173.576 Y145.042 E7.13301
G1 X173.582 Y145.247 E7.15449
G1 X173.571 Y145.606 E7.19212
G1 X173.552 Y145.831 E7.21578
G1 X173.555 Y145.831 E7.2161
G1 X173.497 Y146.332 E7.26894
G1 X173.476 Y146.46 E7.28253
G1 X173.429 Y146.714 E7.30959
G1 X173.386 Y146.914 E7.33102
G1 X173.322 Y147.167 E7.35836
G1 X173.274 Y147.334 E7.37657
G1 X173.193 Y147.593 E7.405
G1 X173.13 Y147.776 E7.42528
G1 X172.965 Y148.195 E7.47246
G1 X172.848 Y148.458 E7.50261
G1 X172.772 Y148.616 E7.52098
G1 X172.557 Y149.026 E7.56949
G1 X172.319 Y149.429 E7.61852
G1 X172.052 Y149.832 E7.66917
G1 X171.937 Y149.991 E7.68973
G1 X172.12 Y150.251 E7.72304
G1 X172.376 Y150.65 E7.77271
G1 X172.608 Y151.052 E7.82133
G1 X172.823 Y151.472 E7.87077
G1 X173.011 Y151.896 E7.91936
G1 X173.113 Y152.157 E7.94872
G1 X173.178 Y152.339 E7.96897
G1 X173.261 Y152.597 E7.99736
G1 X173.312 Y152.776 E8.01686
G1 X173.378 Y153.032 E8.04456
G1 X173.419 Y153.212 E8.0639
G1 X173.469 Y153.467 E8.09113
G1 X173.501 Y153.659 E8.11152
G1 X173.551 Y154.071 E8.155
G1 X173.58 Y154.483 E8.19827
G1 X173.587 Y154.732 E8.22437
G1 X173.584 Y154.732 E8.22469
G1 X173.588 Y154.903 E8.24261
G1 X173.578 Y155.253 E8.27929
G1 X173.555 Y155.609 E8.31667
G1 X173.521 Y155.937 E8.35121
G1 X173.474 Y156.296 E8.38915
G1 X173.3 Y157.391 E8.50531
G1 X173.279 Y157.631 E8.53055
G1 X173.28 Y157.672 E8.53485
G1 X173.296 Y157.735 E8.54166
G1 X173.321 Y157.806 E8.54954
G1 X173.36 Y157.896 E8.55982
G1 X173.435 Y158.041 E8.57692
G1 X173.589 Y158.3 E8.60849
G1 X173.833 Y158.654 E8.65354
G1 X174.029 Y158.918 E8.68799
G1 X175.051 Y160.218 E8.86124
G1 X175.054 Y160.221 E8.86168
G1 X175.147 Y160.341 E8.87759
G1 X175.471 Y160.783 E8.935
G1 X175.557 Y160.909 E8.95099
G1 X175.754 Y161.215 E8.98912
G1 X175.882 Y161.434 E9.01569
G1 X176.044 Y161.739 E9.05187
G1 X176.047 Y161.745 E9.05258
G1 X176.185 Y162.062 E9.0888
G1 X176.277 Y162.311 E9.11661
G1 X176.45 Y163.034 E9.1945
G1 X176.475 Y163.246 E9.21686
G1 X176.494 Y163.747 E9.26939
G1 X176.433 Y164.245 E9.32195
G1 X176.325 Y164.641 E9.36496
G1 X176.254 Y164.847 E9.38779
G1 X176.053 Y165.307 E9.44038
G1 X175.782 Y165.729 E9.49293
G1 X175.448 Y166.103 E9.54546
G1 X175.231 Y166.291 E9.57554
G1 X175.049 Y166.435 E9.59986
G1 X174.632 Y166.714 E9.65242
G1 X174.027 Y166.974 E9.72141
G1 X173.798 Y167.045 E9.74653
G1 X173.217 Y167.166 E9.80871
G1 X172.986 Y167.192 E9.83306
G1 X172.649 Y167.212 E9.86843
G1 X172.443 Y167.213 E9.89001
G1 X172.175 Y167.203 E9.91811
G1 X171.828 Y167.175 E9.95459
G1 X171.584 Y167.145 E9.98034
G1 X171.13 Y167.07 E10.02855
G1 X170.824 Y167.004 E10.06135
G1 X170.339 Y166.878 E10.11385
G1 X169.994 Y166.773 E10.15163
G1 X169.853 Y166.718 E10.16749
G1 X169.851 Y166.724 E10.16815
G1 X169.504 Y166.6 E10.20676
G1 X169.508 Y166.588 E10.20808
G1 X169.344 Y166.539 E10.22601
G1 X168.881 Y166.341 E10.27877
G1 X168.555 Y166.187 E10.31655
G1 X168.4 Y166.099 E10.33522
G1 X168.396 Y166.106 E10.33606
G1 X167.939 Y165.852 E10.39084
G1 X167.648 Y165.673 E10.42664
G1 X167.488 Y165.568 E10.44669
G1 X167.104 Y165.295 E10.49605
G1 X166.863 Y165.104 E10.52827
G1 X166.52 Y164.81 E10.5756
G1 X166.395 Y164.694 E10.59346
G1 X166.271 Y164.572 E10.61169
G1 X165.963 Y164.246 E10.65868
G1 X165.743 Y163.992 E10.69388
G1 X165.632 Y163.853 E10.71252
G1 X165.476 Y163.646 E10.73968
G1 X165.358 Y163.48 E10.76101
G1 X165.218 Y163.269 E10.78754
G1 X165.219 Y163.268 E10.78769
G1 X165.115 Y163.104 E10.80804
G1 X164.991 Y162.892 E10.83377
G1 X164.997 Y162.889 E10.83447
G1 X164.9 Y162.731 E10.8539
G1 X164.642 Y162.206 E10.91518
G1 X164.55 Y161.994 E10.93939
G1 X164.551 Y161.994 E10.9395
G1 X164.503 Y161.882 E10.95227
G1 X164.425 Y161.684 E10.97456
G1 X164.426 Y161.684 E10.97467
G1 X164.38 Y161.568 E10.98774
G1 X164.217 Y161.105 E11.03917
G1 X164.209 Y161.084 E11.04152
G1 X164.02 Y160.529 E11.10295
G1 X163.878 Y160.173 E11.1431
G1 X163.742 Y159.906 E11.1745
G1 X163.676 Y159.797 E11.18785
G1 X163.55 Y159.62 E11.21061
G1 X163.427 Y159.476 E11.23045
G1 X163.355 Y159.406 E11.24097
G1 X163.214 Y159.29 E11.2601
G1 X163.212 Y159.288 E11.2604
G1 X162.963 Y159.138 E11.29085
G1 X162.866 Y159.092 E11.3021
G1 X162.683 Y159.015 E11.3229
G1 X162.544 Y158.964 E11.33841
G1 X162.251 Y158.869 E11.37068
G1 X162.061 Y158.817 E11.39132
G1 X161.847 Y158.764 E11.41442
G1 X161.391 Y158.669 E11.46322
G1 X160.576 Y158.536 E11.54974
G1 X160.377 Y158.51 E11.57076
G1 X160.347 Y158.505 E11.57395
G1 X160.193 Y158.487 E11.59019
G1 X159.772 Y158.439 E11.63459
G1 X159.564 Y158.419 E11.65648
G1 X159.523 Y158.414 E11.66081
G1 X159.065 Y158.372 E11.70899
G1 X159.045 Y158.37 E11.7111
G1 X158.831 Y158.354 E11.73358
G1 X158.562 Y158.334 E11.76184
G1 X158.531 Y158.331 E11.76511
G1 X158.023 Y158.298 E11.81844
G1 X157.46 Y158.267 E11.87752
G1 X156.838 Y158.237 E11.94276
G1 X156.129 Y158.211 E12.01709
G1 X156.126 Y158.211 E12.0174
G1 X155.779 Y158.2 E12.05378
G1 X155.771 Y158.2 E12.05462
G1 X155.426 Y158.19 E12.09078
G1 X155.42 Y158.19 E12.09141
G1 X155.153 Y158.184 E12.11939
G1 X153.638 Y158.16 E12.27813
G1 X153.227 Y158.156 E12.32119
G1 X153.181 Y158.155 E12.32601
G1 X152.765 Y158.153 E12.3696
G1 X151.479 Y158.152 E12.50433
G1 X149.121 Y158.176 E12.75139
G1 X148.447 Y158.191 E12.82202
G1 X148.093 Y158.201 E12.85913
G1 X148.052 Y158.203 E12.86343
G1 X146.435 Y158.266 E13.03297
G1 X146.411 Y158.268 E13.03549
G1 X145.604 Y158.314 E13.12018
G1 X145.571 Y158.317 E13.12365
G1 X145.337 Y158.333 E13.14822
G1 X145.334 Y158.333 E13.14854
G1 X144.115 Y158.438 E13.27672
G1 X143.701 Y158.485 E13.32038
G1 X143.697 Y158.485 E13.3208
G1 X143.321 Y158.533 E13.36051
G1 X142.333 Y158.697 E13.46544
G1 X141.778 Y158.825 E13.52511
G1 X141.518 Y158.896 E13.55335
G1 X141.341 Y158.953 E13.57283
G1 X141.119 Y159.037 E13.5977
G1 X140.878 Y159.146 E13.62541
G1 X140.776 Y159.202 E13.6376
G1 X140.61 Y159.31 E13.65835
G1 X140.491 Y159.407 E13.67443
G1 X140.47 Y159.427 E13.67747
G1 X140.313 Y159.598 E13.70179
G1 X140.152 Y159.825 E13.73095
G1 X140.102 Y159.907 E13.74101
G1 X140.082 Y159.942 E13.74524
G1 X140.012 Y160.077 E13.76117
G1 X139.993 Y160.116 E13.76571
G1 X139.871 Y160.405 E13.79858
G1 X139.771 Y160.681 E13.82934
G1 X139.48 Y161.527 E13.92307
G1 X139.415 Y161.696 E13.94204
G1 X139.224 Y162.156 E13.99422
G1 X139.136 Y162.35 E14.01654
G1 X138.967 Y162.69 E14.05632
G1 X138.867 Y162.874 E14.07826
G1 X138.646 Y163.245 E14.1235
G1 X138.344 Y163.687 E14.17959
G1 X138.251 Y163.81 E14.19574
G1 X138.077 Y164.028 E14.22497
G1 X137.959 Y164.167 E14.24407
G1 X137.649 Y164.505 E14.29212
G1 X137.443 Y164.708 E14.32242
G1 X137.219 Y164.913 E14.35423
G1 X137.073 Y165.038 E14.37437
G1 X136.719 Y165.32 E14.42179
G1 X136.44 Y165.522 E14.45788
G1 X136.176 Y165.697 E14.49106
G1 X136.175 Y165.695 E14.4913
G1 X136.003 Y165.806 E14.51274
G1 X135.581 Y166.047 E14.56366
G1 X135.161 Y166.261 E14.61304
G1 X134.861 Y166.399 E14.64764
G1 X134.439 Y166.574 E14.6955
G1 X134.138 Y166.687 E14.72919
G1 X133.813 Y166.797 E14.76514
G1 X133.635 Y166.852 E14.78465
G1 X133.169 Y166.98 E14.83528
G1 X132.834 Y167.058 E14.87132
G1 X132.636 Y167.097 E14.89246
G1 X132.185 Y167.17 E14.94033
G1 X131.845 Y167.207 E14.97616
G1 X131.64 Y167.221 E14.99769
G1 X131.388 Y167.228 E15.0241
G1 X131.13 Y167.225 E15.05113
G1 X130.615 Y167.176 E15.10533
G1 X130.289 Y167.118 E15.14003
G1 X129.804 Y166.991 E15.19255
G1 X129.35 Y166.792 E15.24449
G1 X129.136 Y166.677 E15.26994
G1 X128.714 Y166.405 E15.32254
G1 X128.341 Y166.07 E15.37507
G1 X127.958 Y165.575 E15.44064
G1 X127.842 Y165.39 E15.46352
G1 X127.61 Y164.946 E15.516
G1 X127.452 Y164.47 E15.56855
G1 X127.362 Y163.795 E15.63989
G1 X127.356 Y163.554 E15.66515
G1 X127.383 Y163.054 E15.71761
G1 X127.479 Y162.6 E15.76623
G1 X127.534 Y162.41 E15.78695
G1 X127.739 Y161.884 E15.8461
G1 X127.904 Y161.552 E15.88494
G1 X128.054 Y161.293 E15.9163
G1 X128.05 Y161.291 E15.91677
G1 X128.158 Y161.116 E15.93831
G1 X128.261 Y160.96 E15.9579
G1 X128.631 Y160.44 E16.02476
G1 X129.896 Y158.819 E16.24018
G1 X130.166 Y158.439 E16.28902
G1 X130.294 Y158.243 E16.31355
G1 X130.385 Y158.086 E16.33256
G1 X130.469 Y157.927 E16.3514
G1 X130.513 Y157.827 E16.36285
G1 X130.545 Y157.738 E16.37276
G1 X130.559 Y157.648 E16.3823
G1 X130.558 Y157.589 E16.38848
G1 X130.527 Y157.322 E16.41664
G1 X130.366 Y156.334 E16.52152
G1 X130.367 Y156.334 E16.52162
G1 X130.352 Y156.237 E16.53191
G1 X130.308 Y155.892 E16.56835
G1 X130.287 Y155.673 E16.5914
G1 X130.289 Y155.673 E16.59161
G1 X130.275 Y155.531 E16.60656
G1 X130.258 Y155.222 E16.63898
G1 X130.25 Y154.963 E16.66613
G1 X130.252 Y154.963 E16.66634
G1 X130.247 Y154.798 E16.68363
G1 X130.258 Y154.415 E16.72377
G1 X130.275 Y154.176 E16.74888
G1 X130.298 Y153.939 E16.77382
G1 X130.328 Y153.744 E16.79449
G1 X130.324 Y153.743 E16.79493
G1 X130.361 Y153.506 E16.82006
G1 X130.396 Y153.316 E16.8403
G1 X130.452 Y153.061 E16.86765
