;FLAVOR:Marlin
;TIME:5619
;Filament used: 6.10698m
;Layer height: 0.3
;MINX:122.438
;MINY:127.875
;MINZ:0.3
;MAXX:181.396
;MAXY:172.127
;MAXZ:91.2
;POSTPROCESSED
;ChangeAtZ instances: 1
;Generated with Cura_SteamEngine 4.6.0
M140 S80
M105
M190 S80
M104 S230
M105
M109 S230
M82 ;absolute extrusion mode
G28 ; home all axes
 M117 Purge extruder
 G92 E0 ; reset extruder
 G1 Z1.0 F3000 ; move z up little to prevent scratching of surface
 G1 X2 Y20 Z0.3 F5000.0 ; move to start-line position
 G1 X2 Y200.0 Z0.3 F1500.0 E15 ; draw 1st line
 G1 X2 Y200.0 Z0.4 F5000.0 ; move to side a little
 G1 X2 Y20 Z0.4 F1500.0 E30 ; draw 2nd line
 G92 E0 ; reset extruder
 G1 Z1.0 F3000 ; move z up little to prevent scratching of surface
G92 E0
G92 E0
G1 F1500 E-6.5
;LAYER_COUNT:304
;LAYER:0
M107
G0 F6000 X125.236 Y130.141 Z0.3
;TYPE:SKIRT
G1 F1500 E0
G1 F1200 X125.862 Y129.64 E0.07
G1 X126.377 Y129.297 E0.12403
G1 X126.624 Y129.146 E0.1493
G1 X127.329 Y128.762 E0.21939
G1 X128.068 Y128.45 E0.28943
G1 X129.039 Y128.164 E0.3778
G1 X129.237 Y128.119 E0.39553
G1 X130.411 Y127.942 E0.49919
G1 X130.648 Y127.924 E0.51994
G1 X131.337 Y127.901 E0.58013
G1 X131.542 Y127.903 E0.59803
G1 X132.192 Y127.936 E0.65485
G1 X132.478 Y127.962 E0.67993
G1 X133.04 Y128.033 E0.72938
G1 X133.36 Y128.085 E0.75769
G1 X133.85 Y128.179 E0.80125
G1 X134.209 Y128.261 E0.8334
G1 X134.549 Y128.347 E0.86402
G1 X134.925 Y128.452 E0.8981
G1 X135.269 Y128.557 E0.9295
G1 X135.618 Y128.683 E0.9619
G1 X135.621 Y128.674 E0.96273
G1 X135.969 Y128.798 E0.99498
G1 X135.968 Y128.801 E0.99526
G1 X136.385 Y128.958 E1.03416
G1 X136.723 Y129.1 E1.06617
G1 X137.052 Y129.247 E1.09763
G1 X137.377 Y129.401 E1.12903
G1 X137.77 Y129.612 E1.16797
G1 X137.774 Y129.604 E1.16876
G1 X138.085 Y129.773 E1.19966
G1 X138.534 Y130.034 E1.245
G1 X138.847 Y130.231 E1.27729
G1 X139.113 Y130.407 E1.30514
G1 X139.493 Y130.674 E1.34569
G1 X139.751 Y130.867 E1.37382
G1 X139.748 Y130.871 E1.37425
G1 X140.153 Y131.186 E1.41905
G1 X140.378 Y131.377 E1.44482
G1 X140.789 Y131.749 E1.49322
G1 X141.07 Y132.025 E1.5276
G1 X141.263 Y132.224 E1.55181
G1 X141.261 Y132.226 E1.55205
G1 X141.621 Y132.616 E1.59839
G1 X141.795 Y132.82 E1.6218
G1 X142.082 Y133.177 E1.66179
G1 X142.249 Y133.397 E1.68591
G1 X142.248 Y133.397 E1.686
G1 X142.56 Y133.834 E1.73288
G1 X142.699 Y134.044 E1.75486
G1 X142.688 Y134.051 E1.756
G1 X142.96 Y134.463 E1.79911
G1 X143.065 Y134.644 E1.81737
G1 X143.076 Y134.661 E1.81914
G1 X143.28 Y135.03 E1.85595
G1 X143.554 Y135.579 E1.90952
G1 X143.682 Y135.857 E1.93625
G1 X143.774 Y136.069 E1.95642
G1 X143.771 Y136.07 E1.9567
G1 X143.885 Y136.336 E1.98197
G1 X143.963 Y136.534 E2.00055
G1 X143.959 Y136.536 E2.00094
G1 X143.997 Y136.629 E2.00971
G1 X144.219 Y136.658 E2.02925
G1 X144.389 Y136.678 E2.0442
G1 X144.562 Y136.697 E2.05939
G1 X144.948 Y136.734 E2.09325
G1 X145.189 Y136.756 E2.11438
G1 X145.368 Y136.77 E2.13005
G1 X145.863 Y136.805 E2.17338
G1 X146.335 Y136.833 E2.21466
G1 X146.373 Y136.836 E2.21799
G1 X147.774 Y136.897 E2.34042
G1 X148.445 Y136.917 E2.39903
G1 X148.492 Y136.919 E2.40314
G1 X149.856 Y136.944 E2.52225
G1 X151.509 Y136.956 E2.66657
G1 X152.714 Y136.954 E2.77178
G1 X154.96 Y136.924 E2.96789
G1 X155.002 Y136.922 E2.97156
G1 X155.911 Y136.896 E3.05095
G1 X155.919 Y136.896 E3.05165
G1 X157.391 Y136.832 E3.18029
G1 X158.129 Y136.785 E3.24486
G1 X159.02 Y136.711 E3.32291
G1 X159.199 Y136.694 E3.33861
G1 X159.531 Y136.656 E3.36779
G1 X159.622 Y136.645 E3.37579
G1 X159.816 Y136.616 E3.39292
G1 X159.886 Y136.432 E3.41011
G1 X160.076 Y135.973 E3.45348
G1 X160.305 Y135.469 E3.50181
G1 X160.474 Y135.129 E3.53496
G1 X160.728 Y134.658 E3.58168
G1 X160.858 Y134.435 E3.60422
G1 X161.101 Y134.045 E3.64433
G1 X161.248 Y133.823 E3.66758
G1 X161.496 Y133.47 E3.70525
G1 X161.66 Y133.249 E3.72927
G1 X161.998 Y132.823 E3.77675
G1 X162.445 Y132.311 E3.83609
G1 X162.782 Y131.962 E3.87845
G1 X162.996 Y131.753 E3.90457
G1 X163.399 Y131.385 E3.95221
G1 X163.636 Y131.183 E3.9794
G1 X163.642 Y131.19 E3.98021
G1 X164.024 Y130.871 E4.02366
G1 X164.436 Y130.563 E4.06857
G1 X164.45 Y130.553 E4.07007
G1 X164.958 Y130.212 E4.12349
G1 X165.31 Y129.992 E4.15973
G1 X165.609 Y129.816 E4.19002
G1 X166.003 Y129.599 E4.22929
G1 X166.568 Y129.312 E4.28462
G1 X166.752 Y129.225 E4.30239
G1 X167.067 Y129.085 E4.33249
G1 X167.637 Y128.849 E4.38635
G1 X167.828 Y128.776 E4.4042
G1 X168.135 Y128.666 E4.43267
G1 X168.893 Y128.422 E4.5022
G1 X169.24 Y128.326 E4.53363
G1 X169.563 Y128.244 E4.56273
G1 X169.961 Y128.153 E4.59837
G1 X170.29 Y128.087 E4.62767
G1 X170.818 Y127.999 E4.6744
G1 X171.128 Y127.958 E4.7017
G1 X171.129 Y127.966 E4.70241
G1 X171.65 Y127.905 E4.74821
G1 X171.854 Y127.891 E4.76606
G1 X172.628 Y127.875 E4.83365
G1 X172.953 Y127.884 E4.86204
G1 X174.146 Y128.007 E4.96675
G1 X174.353 Y128.044 E4.98511
G1 X175.135 Y128.224 E5.05517
G1 X176.069 Y128.552 E5.14159
G1 X176.275 Y128.639 E5.16112
G1 X176.997 Y128.988 E5.23113
G1 X177.682 Y129.407 E5.30124
G1 X178.321 Y129.891 E5.37122
G1 X179.053 Y130.589 E5.45953
G1 X179.201 Y130.749 E5.47856
G1 X179.715 Y131.364 E5.54854
G1 X180.166 Y132.028 E5.61862
G1 X180.549 Y132.733 E5.68867
G1 X180.859 Y133.472 E5.75864
G1 X181.095 Y134.239 E5.8287
G1 X181.207 Y134.753 E5.87463
G1 X181.248 Y134.975 E5.89434
G1 X181.354 Y135.77 E5.96436
G1 X181.381 Y136.572 E6.03442
G1 X181.327 Y137.372 E6.10443
G1 X181.218 Y138.055 E6.16481
G1 X181.171 Y138.284 E6.18522
G1 X180.97 Y139.061 E6.2553
G1 X180.59 Y140.048 E6.34763
G1 X180.44 Y140.372 E6.37881
G1 X180.081 Y141.06 E6.44656
G1 X180.006 Y141.188 E6.45951
G1 X179.802 Y141.517 E6.49331
G1 X179.648 Y141.753 E6.51791
G1 X179.294 Y142.253 E6.5714
G1 X178.375 Y143.449 E6.70309
G1 X178.399 Y143.646 E6.72042
G1 X178.42 Y143.865 E6.73962
G1 X178.413 Y143.866 E6.74024
G1 X178.447 Y144.182 E6.76799
G1 X178.47 Y144.631 E6.80724
G1 X178.478 Y144.892 E6.83004
G1 X178.466 Y144.892 E6.83109
G1 X178.479 Y145.398 E6.87528
G1 X178.468 Y145.757 E6.90664
G1 X178.423 Y146.305 E6.95464
G1 X178.432 Y146.306 E6.95543
G1 X178.409 Y146.542 E6.97614
G1 X178.348 Y147.025 E7.01864
G1 X178.295 Y147.352 E7.04756
G1 X178.248 Y147.606 E7.07012
G1 X178.136 Y148.115 E7.11562
G1 X178.072 Y148.368 E7.1384
G1 X177.951 Y148.797 E7.17732
G1 X177.87 Y149.056 E7.20101
G1 X177.708 Y149.524 E7.24425
G1 X177.608 Y149.786 E7.26874
G1 X177.523 Y149.991 E7.28811
G1 X177.575 Y150.113 E7.29969
G1 X177.677 Y150.374 E7.32416
G1 X177.842 Y150.839 E7.36723
G1 X177.925 Y151.097 E7.3909
G1 X178.057 Y151.552 E7.43226
G1 X178.123 Y151.808 E7.45534
G1 X178.228 Y152.269 E7.49662
G1 X178.278 Y152.524 E7.51931
G1 X178.358 Y153.015 E7.56274
G1 X178.391 Y153.264 E7.58467
G1 X178.435 Y153.68 E7.62119
G1 X178.455 Y153.93 E7.64309
G1 X178.478 Y154.346 E7.67947
G1 X178.485 Y154.595 E7.70122
G1 X178.477 Y154.595 E7.70191
G1 X178.487 Y155.009 E7.73807
G1 X178.482 Y155.24 E7.75824
G1 X178.456 Y155.78 E7.80544
G1 X178.385 Y156.529 E7.87113
G1 X178.924 Y157.215 E7.9473
G1 X178.923 Y157.216 E7.94742
G1 X179.094 Y157.438 E7.97189
G1 X179.449 Y157.921 E8.02422
G1 X179.459 Y157.935 E8.02573
G1 X179.677 Y158.256 E8.0596
G1 X179.874 Y158.562 E8.09138
G1 X180.203 Y159.122 E8.14808
G1 X180.427 Y159.548 E8.1901
G1 X180.43 Y159.554 E8.19069
G1 X180.781 Y160.364 E8.26776
G1 X180.873 Y160.613 E8.29094
G1 X181.113 Y161.378 E8.36094
G1 X181.317 Y162.46 E8.45707
G1 X181.342 Y162.672 E8.47571
G1 X181.396 Y163.473 E8.5458
G1 X181.37 Y164.274 E8.61577
G1 X181.264 Y165.07 E8.68588
G1 X181.08 Y165.851 E8.75594
G1 X180.958 Y166.238 E8.79136
G1 X180.887 Y166.444 E8.81039
G1 X180.588 Y167.189 E8.88048
G1 X180.216 Y167.9 E8.95053
G1 X179.776 Y168.57 E9.02052
G1 X179.271 Y169.194 E9.0906
G1 X178.706 Y169.764 E9.16067
G1 X178.271 Y170.134 E9.21053
G1 X178.089 Y170.278 E9.2308
G1 X177.436 Y170.744 E9.30084
G1 X176.739 Y171.142 E9.37091
G1 X176.007 Y171.469 E9.44091
G1 X175.478 Y171.654 E9.48984
G1 X175.249 Y171.725 E9.51077
G1 X174.472 Y171.924 E9.5808
G1 X173.765 Y172.035 E9.64328
G1 X173.534 Y172.061 E9.66357
G1 X172.673 Y172.112 E9.73888
G1 X172.467 Y172.113 E9.75686
G1 X171.781 Y172.087 E9.8168
G1 X171.434 Y172.059 E9.84719
G1 X170.81 Y171.984 E9.90207
G1 X170.491 Y171.933 E9.93027
G1 X169.981 Y171.836 E9.9756
G1 X169.622 Y171.754 E10.00775
G1 X169.282 Y171.668 E10.03837
G1 X168.912 Y171.565 E10.0719
G1 X168.567 Y171.46 E10.10339
G1 X168.205 Y171.33 E10.13697
G1 X168.202 Y171.339 E10.13779
G1 X167.855 Y171.215 E10.16997
G1 X167.856 Y171.211 E10.17033
G1 X167.446 Y171.057 E10.20857
G1 X167.108 Y170.915 E10.24057
G1 X166.788 Y170.772 E10.27117
G1 X166.462 Y170.618 E10.30265
G1 X166.06 Y170.403 E10.34246
G1 X166.056 Y170.411 E10.34324
G1 X165.745 Y170.242 E10.37414
G1 X165.371 Y170.026 E10.41185
G1 X165.08 Y169.847 E10.44168
G1 X164.672 Y169.578 E10.48434
G1 X164.4 Y169.387 E10.51336
G1 X163.989 Y169.081 E10.5581
G1 X163.693 Y168.841 E10.59137
G1 X163.456 Y168.64 E10.6185
G1 X163.062 Y168.286 E10.66474
G1 X162.745 Y167.975 E10.70352
G1 X162.552 Y167.775 E10.72778
G1 X162.257 Y167.452 E10.76597
G1 X162.014 Y167.17 E10.79847
G1 X162.003 Y167.157 E10.79996
G1 X161.719 Y166.802 E10.83965
G1 X161.563 Y166.595 E10.86228
G1 X161.543 Y166.568 E10.86522
G1 X161.275 Y166.189 E10.90574
G1 X161.135 Y165.978 E10.92785
G1 X161.138 Y165.976 E10.92817
G1 X160.885 Y165.578 E10.96934
G1 X160.761 Y165.366 E10.99078
G1 X160.753 Y165.354 E10.99204
G1 X160.542 Y164.971 E11.03022
G1 X160.275 Y164.435 E11.0825
G1 X160.147 Y164.157 E11.10922
G1 X160.055 Y163.945 E11.1294
G1 X160.058 Y163.944 E11.12968
G1 X159.944 Y163.678 E11.15494
G1 X159.866 Y163.48 E11.17352
G1 X159.87 Y163.478 E11.17391
G1 X159.83 Y163.38 E11.18316
G1 X159.831 Y163.38 E11.18324
G1 X159.734 Y163.367 E11.19179
G1 X159.612 Y163.352 E11.20252
G1 X159.442 Y163.332 E11.21746
G1 X159.269 Y163.313 E11.23266
G1 X159.256 Y163.311 E11.23381
G1 X159.12 Y163.299 E11.24573
G1 X159.079 Y163.294 E11.24933
G1 X158.645 Y163.254 E11.28739
G1 X158.463 Y163.24 E11.30332
G1 X158.205 Y163.221 E11.32591
G1 X157.722 Y163.189 E11.36817
G1 X157.675 Y163.185 E11.37229
G1 X156.522 Y163.128 E11.47308
G1 X156.512 Y163.127 E11.47396
G1 X156.338 Y163.121 E11.48916
G1 X156.334 Y163.121 E11.48951
G1 X155.386 Y163.091 E11.57232
G1 X155.339 Y163.089 E11.57642
G1 X153.975 Y163.064 E11.69553
G1 X152.308 Y163.051 E11.84108
G1 X151.116 Y163.053 E11.94515
G1 X149.953 Y163.063 E12.04669
G1 X148.869 Y163.082 E12.14135
G1 X148.828 Y163.084 E12.14493
G1 X148.277 Y163.097 E12.19305
G1 X148.244 Y163.099 E12.19594
G1 X146.687 Y163.16 E12.33198
G1 X146.44 Y163.173 E12.35357
G1 X145.928 Y163.204 E12.39836
G1 X145.735 Y163.217 E12.41525
G1 X145.736 Y163.217 E12.41533
G1 X144.798 Y163.294 E12.4975
G1 X144.632 Y163.31 E12.51206
G1 X144.029 Y163.383 E12.5651
G1 X144.013 Y163.385 E12.5665
G1 X143.941 Y163.575 E12.58424
G1 X143.75 Y164.035 E12.62773
G1 X143.524 Y164.531 E12.67532
G1 X143.355 Y164.871 E12.70847
G1 X143.101 Y165.342 E12.75519
G1 X142.971 Y165.565 E12.77772
G1 X142.737 Y165.942 E12.81646
G1 X142.59 Y166.165 E12.83978
G1 X142.32 Y166.552 E12.88098
G1 X142.081 Y166.867 E12.9155
G1 X141.907 Y167.085 E12.93986
G1 X141.605 Y167.44 E12.98055
G1 X141.412 Y167.655 E13.00577
G1 X141.008 Y168.076 E13.05672
G1 X140.751 Y168.322 E13.08778
G1 X140.527 Y168.527 E13.11429
G1 X140.155 Y168.848 E13.15719
G1 X139.909 Y169.047 E13.18481
G1 X139.487 Y169.368 E13.2311
G1 X139.148 Y169.606 E13.26727
G1 X138.884 Y169.781 E13.29492
G1 X138.881 Y169.776 E13.29543
G1 X138.466 Y170.042 E13.33847
G1 X138.184 Y170.206 E13.36695
G1 X137.827 Y170.401 E13.40246
G1 X137.245 Y170.696 E13.45943
G1 X137.062 Y170.782 E13.47708
G1 X136.764 Y170.914 E13.50554
G1 X136.446 Y171.048 E13.53567
G1 X135.989 Y171.227 E13.57852
G1 X135.709 Y171.328 E13.60451
G1 X135.328 Y171.457 E13.63963
G1 X134.962 Y171.569 E13.67304
G1 X134.635 Y171.661 E13.7027
G1 X134.28 Y171.752 E13.7347
G1 X133.945 Y171.83 E13.76473
G1 X133.439 Y171.931 E13.80978
G1 X133.12 Y171.984 E13.83801
G1 X132.611 Y172.054 E13.88287
G1 X132.178 Y172.095 E13.92084
G1 X131.973 Y172.109 E13.93878
G1 X131.331 Y172.127 E13.99486
G1 X131.073 Y172.124 E14.01738
G1 X130.273 Y172.075 E14.08736
G1 X129.757 Y172.001 E14.13287
G1 X129.431 Y171.943 E14.16178
G1 X128.649 Y171.763 E14.23184
G1 X127.889 Y171.506 E14.30189
G1 X127.03 Y171.108 E14.38454
G1 X126.816 Y170.993 E14.40575
G1 X126.13 Y170.578 E14.47575
G1 X125.487 Y170.098 E14.54581
G1 X124.896 Y169.555 E14.61588
G1 X124.362 Y168.957 E14.68588
G1 X123.807 Y168.178 E14.76939
G1 X123.691 Y167.993 E14.78845
G1 X123.299 Y167.293 E14.8585
G1 X122.979 Y166.558 E14.92849
G1 X122.734 Y165.794 E14.99854
G1 X122.565 Y165.01 E15.06856
G1 X122.463 Y163.917 E15.1644
G1 X122.457 Y163.676 E15.18545
G1 X122.478 Y162.874 E15.25549
G1 X122.577 Y162.078 E15.32552
G1 X122.772 Y161.238 E15.40081
G1 X122.827 Y161.048 E15.41808
G1 X123.089 Y160.289 E15.48819
G1 X123.351 Y159.703 E15.54423
G1 X123.516 Y159.371 E15.5766
G1 X123.891 Y158.723 E15.64196
G1 X123.881 Y158.717 E15.64298
G1 X123.989 Y158.542 E15.66094
G1 X124.25 Y158.146 E15.70234
G1 X124.523 Y157.757 E15.74384
G1 X124.771 Y157.422 E15.78023
G1 X125.454 Y156.549 E15.877
G1 X125.431 Y156.359 E15.89371
G1 X125.41 Y156.14 E15.91292
G1 X125.415 Y156.139 E15.91336
G1 X125.383 Y155.821 E15.94127
G1 X125.36 Y155.374 E15.98035
G1 X125.352 Y155.115 E16.00297
G1 X125.359 Y155.115 E16.00358
G1 X125.348 Y154.714 E16.03861
G1 X125.352 Y154.481 E16.05895
G1 X125.377 Y153.96 E16.10449
G1 X125.421 Y153.465 E16.14788
G1 X125.495 Y152.989 E16.18994
G1 X125.482 Y152.987 E16.19108
G1 X125.519 Y152.75 E16.21203
G1 X125.61 Y152.265 E16.25511
G1 X125.666 Y152.01 E16.2779
G1 X125.668 Y152.011 E16.2781
G1 X125.679 Y151.95 E16.28351
G1 X125.779 Y151.557 E16.31892
G1 X125.851 Y151.301 E16.34213
G1 X125.993 Y150.843 E16.384
G1 X126.118 Y150.492 E16.41653
G1 X126.218 Y150.229 E16.4411
G1 X126.306 Y150.017 E16.46114
G1 X126.278 Y149.951 E16.4674
G1 X126.114 Y149.53 E16.50684
G1 X126.022 Y149.271 E16.53084
G1 X125.88 Y148.831 E16.57121
G1 X125.805 Y148.574 E16.59458
G1 X125.678 Y148.082 E16.63894
G1 X125.621 Y147.828 E16.66167
G1 X125.535 Y147.383 E16.70124
G1 X125.493 Y147.13 E16.72363
G1 X125.43 Y146.673 E16.76391
G1 X125.403 Y146.422 E16.78595
G1 X125.366 Y145.949 E16.82737
G1 X125.344 Y145.354 E16.87936
G1 X125.347 Y144.805 E16.92729
G1 X125.37 Y144.486 E16.95521
G1 X125.36 Y144.485 E16.95609
G1 X125.372 Y144.267 E16.97515
G1 X125.423 Y143.677 E17.02686
G1 X125.445 Y143.487 E17.04356
G1 X124.904 Y142.8 E17.1199
G1 X124.905 Y142.799 E17.12003
G1 X124.731 Y142.573 E17.14493
G1 X124.442 Y142.18 E17.18752
G1 X124.424 Y142.156 E17.19014
G1 X124.134 Y141.732 E17.23499
G1 X123.939 Y141.427 E17.26659
G1 X123.63 Y140.902 E17.31978
G1 X123.399 Y140.464 E17.36301
G1 X123.395 Y140.456 E17.36379
G1 X123.03 Y139.607 E17.44448
G1 X122.938 Y139.354 E17.46798
G1 X122.701 Y138.587 E17.53807
G1 X122.543 Y137.801 E17.60807
G1 X122.474 Y137.186 E17.6621
G1 X122.456 Y136.938 E17.68381
G1 X122.438 Y136.136 E17.75385
G1 X122.5 Y135.336 E17.8239
G1 X122.641 Y134.546 E17.89397
G1 X122.86 Y133.774 E17.96403
G1 X123.225 Y132.878 E18.0485
G1 X123.316 Y132.688 E18.06689
G1 X123.698 Y131.982 E18.13697
G1 X124.148 Y131.319 E18.20693
G1 X124.663 Y130.703 E18.27703
G1 X125.236 Y130.141 E18.34711
G0 F6000 X125.803 Y130.576
G1 F1200 X126.411 Y130.109 E18.41404
G1 X126.742 Y129.894 E18.4485
G1 X126.989 Y129.743 E18.47378
G1 X127.663 Y129.378 E18.5407
G1 X128.372 Y129.085 E18.60768
G1 X129.194 Y128.847 E18.68239
G1 X129.392 Y128.802 E18.70012
G1 X130.464 Y128.64 E18.79478
G1 X130.701 Y128.622 E18.81553
G1 X131.33 Y128.601 E18.87047
G1 X131.535 Y128.603 E18.88837
G1 X132.128 Y128.633 E18.94021
G1 X132.414 Y128.659 E18.96529
G1 X132.928 Y128.724 E19.01052
G1 X133.248 Y128.776 E19.03883
G1 X133.71 Y128.864 E19.07989
G1 X134.037 Y128.939 E19.10918
G1 X134.377 Y129.025 E19.1398
G1 X134.721 Y129.121 E19.17098
G1 X135.065 Y129.226 E19.20238
G1 X135.383 Y129.342 E19.23193
G1 X135.386 Y129.333 E19.23276
G1 X135.734 Y129.457 E19.26502
G1 X135.732 Y129.463 E19.26557
G1 X136.114 Y129.604 E19.30112
G1 X136.452 Y129.746 E19.33313
G1 X136.752 Y129.88 E19.36181
G1 X137.077 Y130.034 E19.39321
