;FLAVOR:Marlin
;TIME:10312
;Filament used: 12.6392m
;Layer height: 0.28
;MINX:79.022
;MINY:78.42
;MINZ:0.28
;MAXX:220.978
;MAXY:223.241
;MAXZ:32.42
;Generated with Cura_SteamEngine 4.6.0
M140 S80
M105
M190 S80
M104 S250
M105
M109 S250
M82 ;absolute extrusion mode
G28 ; home all axes
 M117 Purge extruder
 G92 E0 ; reset extruder
 G1 Z1.0 F3000 ; move z up little to prevent scratching of surface
 G1 X2 Y20 Z0.3 F5000.0 ; move to start-line position
 G1 X2 Y200.0 Z0.3 F1500.0 E15 ; draw 1st line
 G1 X2 Y200.0 Z0.4 F5000.0 ; move to side a little
 G1 X2 Y20 Z0.4 F1500.0 E30 ; draw 2nd line
 G92 E0 ; reset extruder
 G1 Z1.0 F3000 ; move z up little to prevent scratching of surface
G92 E0
G92 E0
G1 F1500 E-5
;LAYER_COUNT:114
;LAYER:0
M107
G1 F600 Z0.78
G0 F900 X99.857 Y108.431 Z0.78
;TYPE:SKIRT
G1 F600 Z0.28
G1 F1500 E0
G1 F1200 X101.232 Y107.167 E0.12915
G1 X102.632 Y105.954 E0.25724
G1 X103.634 Y105.126 E0.34712
G1 X103.657 Y105.107 E0.34918
G1 X104.037 Y104.8 E0.38296
G1 X104.074 Y104.77 E0.38625
G1 X105.116 Y103.958 E0.4776
G1 X105.513 Y103.656 E0.51209
G1 X106.63 Y102.835 E0.60795
G1 X107.063 Y102.524 E0.64481
G1 X108.597 Y101.47 E0.77351
G1 X110.164 Y100.453 E0.90269
G1 X111.757 Y99.485 E1.03158
G1 X113.375 Y98.563 E1.16035
G1 X115.021 Y97.684 E1.28938
G1 X116.69 Y96.853 E1.4183
G1 X118.384 Y96.066 E1.54746
G1 X120.084 Y95.337 E1.67537
G1 X121.418 Y94.8 E1.7748
G1 X123.196 Y94.139 E1.90597
G1 X124.996 Y93.526 E2.03746
G1 X126.807 Y92.968 E2.16849
G1 X128.637 Y92.459 E2.29984
G1 X130.403 Y92.021 E2.42565
G1 X130.481 Y92.009 E2.43111
G1 X130.48 Y92.005 E2.43139
G1 X132.335 Y91.603 E2.56264
G1 X134.203 Y91.252 E2.69407
G1 X136.079 Y90.956 E2.82539
G1 X137.96 Y90.715 E2.95652
G1 X139.849 Y90.526 E3.0878
G1 X141.733 Y90.392 E3.2184
G1 X142.498 Y90.356 E3.27136
G1 X142.686 Y90.354 E3.28436
G1 X143.193 Y90.365 E3.31942
G1 X144.026 Y90.343 E3.37704
G1 X144.52 Y90.301 E3.41133
G1 X144.726 Y90.291 E3.42559
G1 X145.478 Y90.285 E3.47759
G1 X146.352 Y90.285 E3.53802
G1 X146.351 Y89.963 E3.56029
G1 X146.351 Y89.95 E3.56119
G1 X146.365 Y81.77 E4.12682
G1 X146.427 Y81.201 E4.1664
G1 X146.482 Y80.948 E4.1843
G1 X146.619 Y80.505 E4.21636
G1 X146.733 Y80.261 E4.23499
G1 X146.836 Y80.066 E4.25024
G1 X147.087 Y79.676 E4.28231
G1 X147.55 Y79.208 E4.32783
G1 X147.745 Y79.054 E4.34501
G1 X148.132 Y78.799 E4.37706
G1 X148.558 Y78.614 E4.40917
G1 X148.913 Y78.521 E4.43455
G1 X149.207 Y78.465 E4.45524
G1 X149.842 Y78.42 E4.49926
G1 X150.07 Y78.431 E4.51504
G1 X150.728 Y78.546 E4.56123
G1 X174.921 Y85.931 E6.31033
G1 X174.924 Y85.931 E6.31054
G1 X187.226 Y89.7 E7.20022
G1 X187.794 Y89.949 E7.24311
G1 X188.012 Y90.076 E7.26055
G1 X188.309 Y90.285 E7.28566
G1 X205.587 Y90.286 E8.4804
G1 X206.422 Y90.313 E8.53817
G1 X206.6 Y90.325 E8.55051
G1 X207.433 Y90.407 E8.60838
G1 X207.61 Y90.43 E8.62073
G1 X208.436 Y90.567 E8.67862
G1 X208.433 Y90.583 E8.67975
G1 X208.609 Y90.601 E8.69198
G1 X209.421 Y90.791 E8.74965
G1 X209.591 Y90.837 E8.76182
G1 X210.391 Y91.08 E8.81964
G1 X210.559 Y91.137 E8.83191
G1 X211.344 Y91.433 E8.88992
G1 X211.504 Y91.499 E8.90189
G1 X212.264 Y91.843 E8.95957
G1 X212.424 Y91.922 E8.97191
G1 X213.161 Y92.316 E9.0297
G1 X213.313 Y92.404 E9.04184
G1 X214.024 Y92.846 E9.09973
G1 X214.17 Y92.943 E9.11185
G1 X214.849 Y93.429 E9.16959
G1 X214.992 Y93.539 E9.18207
G1 X215.638 Y94.07 E9.23989
G1 X215.771 Y94.186 E9.25209
G1 X216.381 Y94.758 E9.30992
G1 X216.503 Y94.881 E9.3219
G1 X217.076 Y95.492 E9.37982
G1 X217.193 Y95.625 E9.39207
G1 X217.723 Y96.27 E9.44979
G1 X217.832 Y96.412 E9.46217
G1 X218.319 Y97.092 E9.52
G1 X218.417 Y97.238 E9.53216
G1 X218.858 Y97.947 E9.5899
G1 X218.946 Y98.1 E9.6021
G1 X219.341 Y98.839 E9.66005
G1 X219.42 Y98.998 E9.67232
G1 X219.765 Y99.76 E9.73016
G1 X219.763 Y99.761 E9.73032
G1 X219.834 Y99.924 E9.74261
G1 X220.128 Y100.707 E9.80044
G1 X220.184 Y100.874 E9.81262
G1 X220.426 Y101.674 E9.87042
G1 X220.47 Y101.838 E9.88216
G1 X220.661 Y102.651 E9.93991
G1 X220.687 Y102.829 E9.95235
G1 X220.696 Y102.827 E9.95298
G1 X220.833 Y103.652 E10.01081
G1 X220.856 Y103.829 E10.02315
G1 X220.938 Y104.662 E10.08103
G1 X220.95 Y104.84 E10.09337
G1 X220.978 Y105.763 E10.15722
G1 X220.978 Y207.762 E17.21023
G1 X220.977 Y207.849 E17.21625
G1 X220.95 Y208.684 E17.27401
G1 X220.938 Y208.861 E17.28628
G1 X220.856 Y209.695 E17.34423
G1 X220.833 Y209.873 E17.35664
G1 X220.696 Y210.699 E17.41454
G1 X220.68 Y210.696 E17.41566
G1 X220.661 Y210.875 E17.42811
G1 X220.47 Y211.687 E17.48579
G1 X220.426 Y211.851 E17.49753
G1 X220.184 Y212.651 E17.55532
G1 X220.126 Y212.823 E17.56788
G1 X219.83 Y213.607 E17.62582
G1 X219.764 Y213.765 E17.63766
G1 X219.42 Y214.526 E17.69541
G1 X219.341 Y214.687 E17.70781
G1 X218.947 Y215.424 E17.7656
G1 X218.86 Y215.576 E17.77771
G1 X218.419 Y216.286 E17.8355
G1 X218.32 Y216.433 E17.84776
G1 X217.833 Y217.113 E17.90559
G1 X217.722 Y217.257 E17.91817
G1 X217.191 Y217.902 E17.97594
G1 X217.078 Y218.031 E17.9878
G1 X216.506 Y218.642 E18.04567
G1 X216.382 Y218.766 E18.0578
G1 X215.771 Y219.339 E18.11572
G1 X215.638 Y219.456 E18.12797
G1 X214.993 Y219.986 E18.18569
G1 X214.851 Y220.095 E18.19807
G1 X214.171 Y220.582 E18.25591
G1 X214.025 Y220.68 E18.26806
G1 X213.316 Y221.121 E18.3258
G1 X213.16 Y221.211 E18.33825
G1 X212.421 Y221.605 E18.39616
G1 X212.267 Y221.681 E18.40804
G1 X211.507 Y222.026 E18.46575
G1 X211.341 Y222.094 E18.47816
G1 X210.556 Y222.389 E18.53614
G1 X210.391 Y222.445 E18.54819
G1 X209.591 Y222.688 E18.60601
G1 X209.424 Y222.733 E18.61796
G1 X208.612 Y222.924 E18.67565
G1 X208.432 Y222.95 E18.68822
G1 X208.433 Y222.959 E18.68885
G1 X207.607 Y223.095 E18.74673
G1 X207.436 Y223.118 E18.75866
G1 X206.603 Y223.201 E18.81655
G1 X206.422 Y223.213 E18.82909
G1 X205.5 Y223.241 E18.89288
G1 X145.475 Y223.241 E23.04347
G1 X144.723 Y223.234 E23.09547
G1 X144.487 Y223.221 E23.11182
G1 X144.335 Y223.206 E23.12238
G1 X144.047 Y223.185 E23.14235
G1 X143.225 Y223.16 E23.19921
G1 X142.745 Y223.175 E23.23242
G1 X142.535 Y223.173 E23.24694
G1 X141.734 Y223.134 E23.3024
G1 X139.877 Y223.002 E23.43113
G1 X138.018 Y222.818 E23.5603
G1 X136.169 Y222.582 E23.68919
G1 X134.328 Y222.294 E23.81804
G1 X132.494 Y221.956 E23.94699
G1 X130.668 Y221.565 E24.07612
G1 X128.929 Y221.141 E24.19989
G1 X128.929 Y221.139 E24.20003
G1 X128.858 Y221.124 E24.20505
G1 X127.059 Y220.631 E24.33403
G1 X125.276 Y220.089 E24.46289
G1 X123.508 Y219.497 E24.59182
G1 X121.754 Y218.854 E24.72099
G1 X119.936 Y218.128 E24.85636
G1 X119.891 Y218.11 E24.85971
G1 X119.627 Y217.999 E24.87951
G1 X119.586 Y217.982 E24.88258
G1 X117.848 Y217.216 E25.01392
G1 X116.134 Y216.402 E25.14512
G1 X114.444 Y215.54 E25.2763
G1 X112.778 Y214.629 E25.4076
G1 X111.145 Y213.675 E25.53838
G1 X109.943 Y212.932 E25.63609
G1 X109.569 Y212.694 E25.66674
G1 X108.329 Y211.877 E25.76943
G1 X107.635 Y211.401 E25.82762
G1 X107.602 Y211.378 E25.8304
G1 X106.401 Y210.526 E25.93222
G1 X105.316 Y209.719 E26.02572
G1 X104.915 Y209.413 E26.0606
G1 X104.882 Y209.388 E26.06347
G1 X103.837 Y208.564 E26.15549
G1 X103.389 Y208.202 E26.19531
G1 X101.936 Y206.977 E26.32673
G1 X100.527 Y205.72 E26.45729
G1 X99.562 Y204.813 E26.54887
G1 X98.478 Y203.755 E26.65361
G1 X97.84 Y203.108 E26.71644
G1 X97.206 Y202.447 E26.77977
G1 X96.537 Y201.729 E26.84763
G1 X96.511 Y201.701 E26.85028
G1 X95.943 Y201.074 E26.90878
G1 X95.91 Y201.037 E26.9122
G1 X95.069 Y200.074 E27.00061
G1 X94.469 Y199.364 E27.06489
G1 X94.441 Y199.331 E27.06788
G1 X93.507 Y198.187 E27.17
G1 X92.696 Y197.147 E27.2612
G1 X92.675 Y197.12 E27.26356
G1 X92.391 Y196.746 E27.29604
G1 X92.366 Y196.713 E27.2989
G1 X91.572 Y195.634 E27.39153
G1 X91.554 Y195.608 E27.39372
G1 X91.261 Y195.2 E27.42845
G1 X90.206 Y193.665 E27.55725
G1 X89.191 Y192.098 E27.68635
G1 X88.223 Y190.506 E27.81518
G1 X87.299 Y188.886 E27.94414
G1 X86.421 Y187.242 E28.07302
G1 X85.589 Y185.571 E28.20209
G1 X84.809 Y183.89 E28.33023
G1 X84.251 Y182.606 E28.42704
G1 X83.566 Y180.919 E28.55294
G1 X83.543 Y180.845 E28.5583
G1 X83.539 Y180.846 E28.55859
G1 X82.876 Y179.066 E28.68993
G1 X82.265 Y177.268 E28.82124
G1 X81.705 Y175.454 E28.95252
G1 X81.198 Y173.626 E29.08369
G1 X80.741 Y171.783 E29.21499
G1 X80.354 Y170.003 E29.34095
G1 X80.344 Y169.926 E29.34632
G1 X80.339 Y169.927 E29.34667
G1 X79.99 Y168.062 E29.47787
G1 X79.693 Y166.184 E29.60934
G1 X79.452 Y164.303 E29.74047
G1 X79.263 Y162.413 E29.87181
G1 X79.128 Y160.519 E30.00311
G1 X79.048 Y158.624 E30.13426
G1 X79.022 Y156.725 E30.26559
G1 X79.049 Y154.862 E30.39442
G1 X79.129 Y152.997 E30.5235
G1 X79.261 Y151.139 E30.6523
G1 X79.444 Y149.282 E30.78133
G1 X79.68 Y147.43 E30.91043
G1 X79.969 Y145.591 E31.03915
G1 X80.307 Y143.757 E31.16811
G1 X80.698 Y141.931 E31.29723
G1 X81.122 Y140.192 E31.421
G1 X81.124 Y140.192 E31.42114
G1 X81.139 Y140.121 E31.42616
G1 X81.631 Y138.324 E31.55499
G1 X82.173 Y136.539 E31.68398
G1 X82.765 Y134.771 E31.81291
G1 X83.407 Y133.019 E31.94193
G1 X84.101 Y131.279 E32.07147
G1 X85.046 Y129.112 E32.23494
G1 X85.861 Y127.397 E32.36624
G1 X86.723 Y125.708 E32.49736
G1 X87.63 Y124.047 E32.62822
G1 X88.349 Y122.807 E32.72734
G1 X88.568 Y122.441 E32.75683
G1 X89.368 Y121.148 E32.86197
G1 X90.354 Y119.641 E32.9865
G1 X90.376 Y119.607 E32.9893
G1 X90.616 Y119.252 E33.01893
G1 X90.618 Y119.253 E33.01908
G1 X90.646 Y119.207 E33.02281
G1 X91.737 Y117.664 E33.15348
G1 X92.544 Y116.579 E33.24698
G1 X92.562 Y116.554 E33.24911
G1 X92.846 Y116.181 E33.28153
G1 X93.7 Y115.099 E33.37684
G1 X94.061 Y114.653 E33.41652
G1 X95.284 Y113.201 E33.54779
G1 X96.544 Y111.788 E33.6787
G1 X97.449 Y110.826 E33.77003
G1 X98.514 Y109.735 E33.87545
G1 X99.399 Y108.869 E33.96107
G1 X99.857 Y108.431 E34.0049
G0 F900 X100.263 Y108.873
G1 F1200 X101.625 Y107.621 E34.13282
G1 X103.014 Y106.416 E34.25997
G1 X104.016 Y105.588 E34.34985
G1 X104.034 Y105.573 E34.35147
G1 X104.414 Y105.266 E34.38525
G1 X104.443 Y105.244 E34.38777
G1 X105.485 Y104.432 E34.47912
G1 X105.504 Y104.417 E34.48079
G1 X105.877 Y104.133 E34.51321
G1 X105.905 Y104.112 E34.51563
G1 X106.985 Y103.318 E34.60832
G1 X107.004 Y103.304 E34.60995
G1 X107.369 Y103.042 E34.64102
G1 X107.403 Y103.018 E34.6439
G1 X108.923 Y101.973 E34.77144
G1 X110.476 Y100.966 E34.89943
G1 X112.055 Y100.006 E35.02721
G1 X113.658 Y99.092 E35.15481
G1 X115.289 Y98.221 E35.28266
G1 X116.943 Y97.397 E35.41044
G1 X118.621 Y96.618 E35.53836
G1 X120.264 Y95.912 E35.66202
G1 X120.308 Y95.893 E35.66533
G1 X121.628 Y95.362 E35.76371
G1 X123.39 Y94.706 E35.89372
G1 X125.173 Y94.099 E36.02396
G1 X126.968 Y93.546 E36.15384
G1 X128.781 Y93.042 E36.28396
G1 X130.547 Y92.604 E36.40977
G1 X130.608 Y92.595 E36.41404
G1 X130.607 Y92.591 E36.41432
G1 X132.446 Y92.192 E36.54444
G1 X134.296 Y91.845 E36.6746
G1 X136.155 Y91.551 E36.80474
G1 X138.02 Y91.312 E36.93476
G1 X139.892 Y91.124 E37.06485
G1 X141.761 Y90.991 E37.19442
G1 X142.526 Y90.955 E37.24737
G1 X142.672 Y90.954 E37.25747
G1 X143.195 Y90.966 E37.29364
G1 X144.058 Y90.943 E37.35334
G1 X144.57 Y90.899 E37.38887
G1 X144.731 Y90.891 E37.40002
G1 X145.483 Y90.885 E37.45202
G1 X146.954 Y90.885 E37.55374
G1 X146.951 Y89.961 E37.61763
G1 X146.951 Y89.951 E37.61832
G1 X146.965 Y81.771 E38.18395
G1 X147.013 Y81.329 E38.21469
G1 X147.068 Y81.076 E38.2326
G1 X147.263 Y80.541 E38.27197
G1 X147.366 Y80.346 E38.28722
G1 X147.592 Y80.005 E38.31551
G1 X147.921 Y79.679 E38.34753
G1 X148.116 Y79.525 E38.36472
G1 X148.461 Y79.304 E38.39305
G1 X149.025 Y79.11 E38.43429
G1 X149.319 Y79.054 E38.45498
G1 X149.813 Y79.019 E38.48923
G1 X150.041 Y79.03 E38.50501
G1 X150.553 Y79.119 E38.54095
G1 X174.746 Y86.504 E40.29004
G1 X174.748 Y86.505 E40.2902
G1 X187.05 Y90.274 E41.17988
G1 X187.492 Y90.467 E41.21323
G1 X187.71 Y90.594 E41.23068
G1 X188.042 Y90.834 E41.25901
G1 X188.086 Y90.885 E41.26366
G1 X205.568 Y90.886 E42.47251
G1 X206.541 Y90.922 E42.53983
G1 X207.512 Y91.022 E42.60733
G1 X208.338 Y91.159 E42.66523
G1 X208.336 Y91.17 E42.666
G1 X208.472 Y91.185 E42.67546
G1 X209.416 Y91.411 E42.74258
G1 X210.347 Y91.698 E42.80995
G1 X211.257 Y92.046 E42.87732
G1 X212.141 Y92.451 E42.94455
G1 X212.997 Y92.914 E43.01185
G1 X213.821 Y93.431 E43.07911
G1 X214.5 Y93.917 E43.13685
G1 X214.611 Y94.003 E43.14656
G1 X215.36 Y94.624 E43.21384
G1 X216.066 Y95.291 E43.281
G1 X216.73 Y96.006 E43.34847
G1 X217.344 Y96.761 E43.41576
G1 X217.907 Y97.555 E43.48307
G1 X218.417 Y98.383 E43.55031
G1 X218.873 Y99.246 E43.6178
G1 X219.218 Y100.008 E43.67564
G1 X219.208 Y100.012 E43.67639
G1 X219.272 Y100.135 E43.68597
G1 X219.61 Y101.048 E43.75329
G1 X219.886 Y101.976 E43.82024
G1 X220.077 Y102.789 E43.87799
G1 X220.096 Y102.926 E43.88755
G1 X220.104 Y102.925 E43.88811
G1 X220.259 Y103.888 E43.95556
G1 X220.35 Y104.859 E44.02299
G1 X220.378 Y105.763 E44.08553
G1 X220.378 Y207.762 E51.13854
G1 X220.377 Y207.83 E51.14324
G1 X220.341 Y208.802 E51.2105
G1 X220.241 Y209.775 E51.27814
G1 X220.104 Y210.601 E51.33603
G1 X220.093 Y210.599 E51.33681
G1 X220.077 Y210.738 E51.34648
G1 X219.852 Y211.677 E51.41325
G1 X219.565 Y212.611 E51.48081
G1 X219.218 Y213.518 E51.54796
G1 X218.874 Y214.279 E51.60571
G1 X218.812 Y214.404 E51.61536
G1 X218.35 Y215.259 E51.68256
G1 X217.832 Y216.084 E51.74992
G1 X217.259 Y216.876 E51.81751
G1 X216.64 Y217.621 E51.88449
G1 X215.972 Y218.329 E51.9518
G1 X215.257 Y218.993 E52.01927
G1 X214.502 Y219.607 E52.08656
G1 X213.708 Y220.17 E52.15387
G1 X212.878 Y220.681 E52.22126
G1 X212.019 Y221.134 E52.28842
G1 X211.13 Y221.533 E52.3558
G1 X210.345 Y221.828 E52.41378
G1 X210.216 Y221.871 E52.42319
G1 X209.287 Y222.149 E52.49024
G1 X208.475 Y222.34 E52.54792
G1 X208.334 Y222.359 E52.55776
G1 X208.335 Y222.367 E52.55831
G1 X207.376 Y222.521 E52.62548
G1 X206.403 Y222.613 E52.69306
G1 X205.5 Y222.641 E52.75553
G1 X145.48 Y222.641 E56.90578
G1 X144.728 Y222.634 E56.95778
G1 X144.545 Y222.624 E56.97046
G1 X144.395 Y222.609 E56.98088
G1 X144.063 Y222.585 E57.0039
G1 X143.225 Y222.56 E57.06187
G1 X142.727 Y222.575 E57.09632
G1 X142.564 Y222.574 E57.10759
G1 X141.825 Y222.539 E57.15875
G1 X141.776 Y222.536 E57.16214
G1 X139.936 Y222.405 E57.2897
G1 X138.094 Y222.223 E57.41769
G1 X136.261 Y221.989 E57.54546
G1 X134.437 Y221.704 E57.67312
G1 X132.619 Y221.369 E57.80095
G1 X130.811 Y220.982 E57.9288
G1 X129.072 Y220.558 E58.05257
G1 X129.073 Y220.552 E58.05299
G1 X129.016 Y220.545 E58.05696
G1 X127.234 Y220.057 E58.18472
G1 X125.467 Y219.52 E58.31242
G1 X123.714 Y218.933 E58.44025
G1 X121.976 Y218.297 E58.56822
G1 X120.158 Y217.571 E58.70359
G1 X120.123 Y217.557 E58.7062
G1 X119.859 Y217.446 E58.726
G1 X119.828 Y217.432 E58.72835
G1 X118.105 Y216.674 E58.85851
G1 X116.406 Y215.868 E58.98854
G1 X114.732 Y215.013 E59.11852
G1 X113.08 Y214.111 E59.24867
G1 X111.461 Y213.164 E59.37837
G1 X110.259 Y212.421 E59.47608
G1 X109.891 Y212.187 E59.50623
G1 X109.864 Y212.17 E59.50844
G1 X108.701 Y211.404 E59.60474
G1 X108.668 Y211.382 E59.60748
G1 X107.974 Y210.906 E59.66567
G1 X107.949 Y210.888 E59.6678
G1 X106.799 Y210.074 E59.76523
G1 X106.759 Y210.045 E59.76864
G1 X105.674 Y209.238 E59.86214
G1 X105.652 Y209.222 E59.86402
G1 X105.279 Y208.937 E59.89648
G1 X105.254 Y208.917 E59.8987
G1 X104.209 Y208.093 E59.99072
G1 X103.808 Y207.769 E60.02637
G1 X103.776 Y207.743 E60.02922
G1 X102.335 Y206.529 E60.15951
G1 X100.938 Y205.282 E60.28899
G1 X100.011 Y204.412 E60.3769
G1 X99.981 Y204.384 E60.37974
G1 X98.934 Y203.362 E60.48091
G1 X98.906 Y203.333 E60.4837
G1 X98.268 Y202.686 E60.54653
G1 X98.247 Y202.666 E60.54853
G1 X97.639 Y202.032 E60.60928
G1 X97.619 Y202.01 E60.61133
G1 X96.976 Y201.32 E60.67655
G1 X96.388 Y200.671 E60.73711
G1 X96.362 Y200.642 E60.7398
G1 X95.521 Y199.679 E60.82821
G1 X94.927 Y198.976 E60.89185
G1 X94.906 Y198.951 E60.8941
G1 X94.011 Y197.857 E60.99184
G1 X93.98 Y197.818 E60.99529
G1 X93.169 Y196.778 E61.08648
G1 X92.869 Y196.383 E61.12078
G1 X92.85 Y196.358 E61.12295
G1 X92.056 Y195.279 E61.21558
G1 X92.041 Y195.259 E61.21731
G1 X91.779 Y194.894 E61.24838
G1 X91.755 Y194.86 E61.25126
G1 X90.709 Y193.339 E61.3789
G1 X89.703 Y191.786 E61.50685
G1 X88.744 Y190.208 E61.63454
G1 X87.828 Y188.604 E61.76226
G1 X86.958 Y186.974 E61.89002
