;FLAVOR:Marlin
;TIME:10835
;Filament used: 10.5981m
;Layer height: 0.28
;MINX:73.778
;MINY:71.587
;MINZ:0.3
;MAXX:226.202
;MAXY:228.626
;MAXZ:45.94
;Generated with Cura_SteamEngine 4.6.0
M140 S80
M105
M190 S80
M104 S230
M105
M109 S230
M82 ;absolute extrusion mode
G28 ; home all axes
 M117 Purge extruder
 G92 E0 ; reset extruder
 G1 Z1.0 F3000 ; move z up little to prevent scratching of surface
 G1 X2 Y20 Z0.3 F5000.0 ; move to start-line position
 G1 X2 Y200.0 Z0.3 F1500.0 E15 ; draw 1st line
 G1 X2 Y200.0 Z0.4 F5000.0 ; move to side a little
 G1 X2 Y20 Z0.4 F1500.0 E30 ; draw 2nd line
 G92 E0 ; reset extruder
 G1 Z1.0 F3000 ; move z up little to prevent scratching of surface
G92 E0
G92 E0
G1 F1500 E-6.5
;LAYER_COUNT:164
;LAYER:0
M107
G0 F6000 X96.617 Y104.469 Z0.3
;TYPE:SKIRT
G1 F1500 E0
G1 F1200 X98.375 Y102.853 E0.13105
G1 X98.996 Y102.337 E0.17536
G1 X99.664 Y101.885 E0.21962
G1 X99.676 Y101.878 E0.22038
G1 X99.806 Y101.741 E0.23075
G1 X100.687 Y100.934 E0.29631
G1 X101.852 Y100.016 E0.37771
G1 X102.51 Y99.549 E0.42199
G1 X102.919 Y99.304 E0.44816
G1 X103.085 Y99.211 E0.4586
G1 X103.173 Y99.118 E0.46562
G1 X103.783 Y98.589 E0.50993
G1 X104.287 Y98.223 E0.54412
G1 X105.521 Y97.399 E0.62555
G1 X105.56 Y97.373 E0.62812
G1 X107.553 Y96.059 E0.75913
G1 X108.248 Y95.649 E0.80341
G1 X108.98 Y95.31 E0.84768
G1 X108.981 Y95.31 E0.84774
G1 X109.211 Y95.137 E0.86353
G1 X110.124 Y94.543 E0.92331
G1 X111.416 Y93.821 E1.00453
G1 X112.139 Y93.463 E1.04881
G1 X112.762 Y93.221 E1.08548
G1 X113.387 Y92.811 E1.12651
G1 X114.11 Y92.434 E1.17125
G1 X115.515 Y91.788 E1.25612
G1 X117.69 Y90.809 E1.38702
G1 X118.441 Y90.515 E1.43127
G1 X119.208 Y90.3 E1.47499
G1 X119.53 Y90.134 E1.49487
G1 X120.443 Y89.733 E1.5496
G1 X121.836 Y89.22 E1.63106
G1 X122.606 Y88.979 E1.67534
G1 X123.301 Y88.832 E1.71432
G1 X123.567 Y88.696 E1.73072
G1 X124.318 Y88.4 E1.77502
G1 X124.721 Y88.276 E1.79816
G1 X126.23 Y87.854 E1.88415
G1 X128.534 Y87.234 E2.01509
G1 X128.959 Y87.142 E2.03895
G1 X128.957 Y87.133 E2.03946
G1 X131.388 Y86.617 E2.17584
G1 X132.844 Y86.326 E2.25733
G1 X133.642 Y86.207 E2.30161
G1 X134.357 Y86.182 E2.34087
G1 X134.923 Y86.018 E2.37321
G1 X135.836 Y85.856 E2.42409
G1 X137.444 Y85.666 E2.51295
G1 X139.358 Y85.471 E2.61854
G1 X139.358 Y80.062 E2.91538
G1 X139.398 Y79.256 E2.95967
G1 X139.451 Y78.837 E2.98284
G1 X139.5 Y78.515 E3.00072
G1 X139.66 Y77.725 E3.04495
G1 X139.899 Y76.954 E3.08925
G1 X140.212 Y76.211 E3.1335
G1 X140.597 Y75.502 E3.17777
G1 X141.051 Y74.835 E3.22205
G1 X141.568 Y74.216 E3.26631
G1 X142.144 Y73.651 E3.31059
G1 X142.774 Y73.146 E3.3549
G1 X143.45 Y72.706 E3.39917
G1 X144.483 Y72.199 E3.46232
G1 X144.515 Y72.186 E3.46421
G1 X145.277 Y71.919 E3.50852
G1 X146.061 Y71.73 E3.55278
G1 X146.86 Y71.619 E3.59705
G1 X147.666 Y71.587 E3.64132
G1 X148.319 Y71.621 E3.6772
G1 X148.527 Y71.64 E3.68866
G1 X149.326 Y71.753 E3.73295
G1 X150.165 Y71.961 E3.78039
G1 X154.145 Y73.177 E4.00877
G1 X154.904 Y73.451 E4.05306
G1 X154.931 Y73.463 E4.05468
G1 X158.114 Y74.435 E4.23732
G1 X158.561 Y74.533 E4.26244
G1 X159.328 Y74.782 E4.30669
G1 X159.524 Y74.868 E4.31844
G1 X162.745 Y75.853 E4.50328
G1 X162.983 Y75.897 E4.51657
G1 X163.47 Y76.029 E4.54426
G1 X167.455 Y77.247 E4.77294
G1 X168.067 Y77.478 E4.80884
G1 X171.405 Y78.498 E5.00039
G1 X171.653 Y78.545 E5.01424
G1 X172.426 Y78.773 E5.05847
G1 X172.805 Y78.927 E5.08092
G1 X176.047 Y79.919 E5.26698
G1 X176.299 Y79.966 E5.28105
G1 X176.776 Y80.096 E5.30818
G1 X180.758 Y81.313 E5.53669
G1 X181.138 Y81.45 E5.55885
G1 X181.436 Y81.522 E5.57568
G1 X185.417 Y82.738 E5.80412
G1 X185.767 Y82.864 E5.82453
G1 X188.02 Y83.416 E5.95183
G1 X188.457 Y83.536 E5.9767
G1 X189.871 Y83.967 E6.05783
G1 X190.63 Y84.24 E6.10209
G1 X191.359 Y84.587 E6.1464
G1 X192.049 Y85.004 E6.19064
G1 X192.613 Y85.427 E6.22933
G1 X194.156 Y85.426 E6.31401
G1 X194.257 Y85.399 E6.31975
G1 X195.053 Y85.267 E6.36403
G1 X195.979 Y85.214 E6.41493
G1 X197.772 Y85.213 E6.51333
G1 X198.415 Y85.238 E6.54864
G1 X200.818 Y85.427 E6.68093
G1 X205.495 Y85.426 E6.9376
G1 X206.301 Y85.466 E6.98188
G1 X206.776 Y85.527 E7.00816
G1 X207.53 Y85.647 E7.05006
G1 X207.838 Y85.702 E7.06723
G1 X211.631 Y86.456 E7.27946
G1 X212.414 Y86.653 E7.32377
G1 X213.173 Y86.925 E7.36802
G1 X213.748 Y87.192 E7.40281
G1 X214.427 Y87.539 E7.44466
G1 X215.244 Y88.018 E7.49663
G1 X218.462 Y90.167 E7.70899
G1 X219.109 Y90.647 E7.75321
G1 X219.697 Y91.18 E7.79676
G1 X220.234 Y91.717 E7.83844
G1 X220.775 Y92.315 E7.88269
G1 X221.247 Y92.952 E7.9262
G1 X223.395 Y96.168 E8.13844
G1 X223.877 Y96.989 E8.19068
G1 X224.224 Y97.669 E8.23258
G1 X224.554 Y98.405 E8.27685
G1 X224.81 Y99.17 E8.32112
G1 X224.956 Y99.776 E8.35533
G1 X225.713 Y103.57 E8.56764
G1 X225.772 Y103.904 E8.58625
G1 X225.92 Y104.865 E8.63962
G1 X226.133 Y106.499 E8.73005
G1 X226.201 Y107.546 E8.78763
G1 X226.202 Y109.288 E8.88323
G1 X226.119 Y110.456 E8.94749
G1 X225.988 Y111.363 E8.99778
G1 X225.989 Y113.833 E9.13333
G1 X226.013 Y113.944 E9.13956
G1 X226.146 Y114.739 E9.1838
G1 X226.201 Y115.68 E9.23553
G1 X226.202 Y117.42 E9.33102
G1 X226.182 Y117.993 E9.36248
G1 X226.026 Y120.226 E9.48533
G1 X226.128 Y120.985 E9.52735
G1 X226.201 Y122.065 E9.58676
G1 X226.202 Y123.807 E9.68236
G1 X226.124 Y124.935 E9.74441
G1 X226.027 Y125.634 E9.78314
G1 X226.182 Y127.901 E9.90784
G1 X226.201 Y128.455 E9.93826
G1 X226.202 Y131.942 E10.12962
G1 X226.183 Y132.502 E10.16037
G1 X226.027 Y134.775 E10.28541
G1 X226.123 Y135.466 E10.32369
G1 X226.201 Y136.583 E10.38514
G1 X226.202 Y138.325 E10.48074
G1 X226.129 Y139.416 E10.54075
G1 X226.026 Y140.182 E10.58317
G1 X226.181 Y142.41 E10.70573
G1 X226.201 Y142.971 E10.73654
G1 X226.202 Y144.715 E10.83225
G1 X226.162 Y145.521 E10.87654
G1 X226.043 Y146.319 E10.92081
G1 X225.988 Y146.536 E10.9331
G1 X225.989 Y149.051 E11.07112
G1 X226.118 Y149.949 E11.12091
G1 X226.201 Y151.102 E11.18435
G1 X226.202 Y152.843 E11.27989
G1 X226.134 Y153.9 E11.33802
G1 X226.026 Y154.73 E11.38395
G1 X226.181 Y156.918 E11.50433
G1 X226.201 Y157.489 E11.53568
G1 X226.202 Y159.233 E11.63139
G1 X226.162 Y160.039 E11.67568
G1 X226.043 Y160.837 E11.71996
G1 X225.988 Y161.054 E11.73224
G1 X225.989 Y163.599 E11.87191
G1 X226.112 Y164.424 E11.91769
G1 X226.201 Y165.62 E11.9835
G1 X226.202 Y167.362 E12.0791
G1 X226.138 Y168.387 E12.13547
G1 X226.025 Y169.281 E12.18492
G1 X226.18 Y171.427 E12.303
G1 X226.201 Y172.008 E12.3349
G1 X226.202 Y173.751 E12.43056
G1 X226.162 Y174.557 E12.47484
G1 X226.043 Y175.355 E12.51912
G1 X225.988 Y175.573 E12.53146
G1 X225.988 Y178.146 E12.67266
G1 X226.104 Y178.89 E12.71399
G1 X226.188 Y179.692 E12.75824
G1 X226.201 Y180.138 E12.78273
G1 X226.202 Y181.881 E12.87838
G1 X226.142 Y182.876 E12.93309
G1 X226.025 Y183.834 E12.98605
G1 X226.179 Y185.934 E13.10161
G1 X226.201 Y186.526 E13.13412
G1 X226.202 Y188.27 E13.22983
G1 X226.162 Y189.076 E13.27411
G1 X226.043 Y189.874 E13.31839
G1 X225.988 Y190.091 E13.33068
G1 X225.989 Y192.694 E13.47353
G1 X226.097 Y193.364 E13.51077
G1 X226.186 Y194.165 E13.555
G1 X226.201 Y194.656 E13.58196
G1 X226.202 Y196.4 E13.67767
G1 X226.145 Y197.366 E13.73077
G1 X226.024 Y198.384 E13.78703
G1 X226.178 Y200.442 E13.90029
G1 X226.201 Y201.045 E13.93341
G1 X226.202 Y202.788 E14.02906
G1 X226.162 Y203.594 E14.07335
G1 X226.043 Y204.392 E14.11763
G1 X225.988 Y204.609 E14.12991
G1 X225.989 Y207.914 E14.31129
G1 X225.949 Y208.72 E14.35557
G1 X225.888 Y209.195 E14.38186
G1 X225.768 Y209.949 E14.42376
G1 X225.713 Y210.257 E14.44093
G1 X224.959 Y214.05 E14.65316
G1 X224.762 Y214.833 E14.69747
G1 X224.49 Y215.592 E14.74171
G1 X224.223 Y216.167 E14.7765
G1 X223.876 Y216.846 E14.81835
G1 X223.397 Y217.663 E14.87033
G1 X221.248 Y220.881 E15.08269
G1 X220.768 Y221.528 E15.1269
G1 X220.235 Y222.116 E15.17045
G1 X219.698 Y222.653 E15.21213
G1 X219.1 Y223.194 E15.25638
G1 X218.463 Y223.666 E15.29989
G1 X215.245 Y225.815 E15.51225
G1 X214.424 Y226.296 E15.56447
G1 X213.746 Y226.642 E15.60624
G1 X213.01 Y226.973 E15.65053
G1 X212.245 Y227.229 E15.6948
G1 X211.639 Y227.375 E15.72901
G1 X207.845 Y228.132 E15.94133
G1 X207.509 Y228.191 E15.96005
G1 X206.754 Y228.309 E16.00198
G1 X206.092 Y228.385 E16.03855
G1 X203.187 Y228.598 E16.19841
G1 X202.597 Y228.62 E16.23081
G1 X200.803 Y228.621 E16.32926
G1 X199.997 Y228.581 E16.37355
G1 X199.199 Y228.462 E16.41782
G1 X198.982 Y228.407 E16.43011
G1 X195.854 Y228.408 E16.60177
G1 X193.784 Y228.589 E16.71581
G1 X193.08 Y228.62 E16.75448
G1 X191.285 Y228.621 E16.85299
G1 X190.479 Y228.581 E16.89727
G1 X189.681 Y228.462 E16.94155
G1 X189.448 Y228.407 E16.95469
G1 X185.941 Y228.407 E17.14715
G1 X184.447 Y228.571 E17.22963
G1 X183.564 Y228.62 E17.27817
G1 X181.772 Y228.621 E17.37651
G1 X180.966 Y228.581 E17.4208
G1 X180.414 Y228.508 E17.45135
G1 X179.815 Y228.407 E17.48469
G1 X176.087 Y228.408 E17.68928
G1 X175.213 Y228.535 E17.73775
G1 X174.047 Y228.62 E17.80191
G1 X172.256 Y228.621 E17.9002
G1 X171.265 Y228.561 E17.95468
G1 X170.003 Y228.407 E18.02445
G1 X166.376 Y228.407 E18.2235
G1 X166.262 Y228.432 E18.2299
G1 X165.467 Y228.565 E18.27414
G1 X164.53 Y228.62 E18.32565
G1 X162.74 Y228.621 E18.42388
G1 X161.96 Y228.584 E18.46674
G1 X160.11 Y228.407 E18.56873
G1 X156.84 Y228.408 E18.74818
G1 X156.739 Y228.435 E18.75392
G1 X155.943 Y228.567 E18.7982
G1 X155.017 Y228.62 E18.8491
G1 X153.224 Y228.621 E18.9475
G1 X152.581 Y228.596 E18.98281
G1 X150.178 Y228.407 E19.1151
G1 X146.395 Y228.408 E19.3227
G1 X146.273 Y228.435 E19.32956
G1 X145.478 Y228.57 E19.37382
G1 X144.673 Y228.626 E19.4181
G1 X144.19 Y228.622 E19.44461
G1 X142.626 Y228.56 E19.53051
G1 X140.242 Y228.442 E19.6615
G1 X139.815 Y228.41 E19.685
G1 X137.32 Y228.153 E19.82265
G1 X135.848 Y227.98 E19.90398
G1 X135.052 Y227.847 E19.94827
G1 X134.373 Y227.655 E19.987
G1 X133.845 Y227.643 E20.01598
G1 X132.855 Y227.509 E20.07081
G1 X131.289 Y227.198 E20.15843
G1 X128.954 Y226.701 E20.28944
G1 X128.958 Y226.682 E20.29051
G1 X128.536 Y226.601 E20.31409
G1 X126.149 Y225.959 E20.44974
G1 X124.722 Y225.559 E20.53107
G1 X123.957 Y225.303 E20.57534
G1 X123.269 Y224.995 E20.61671
G1 X122.567 Y224.846 E20.65609
G1 X121.837 Y224.615 E20.69811
G1 X120.444 Y224.102 E20.77958
G1 X119.53 Y223.701 E20.83435
G1 X119.176 Y223.519 E20.8562
G1 X118.922 Y223.464 E20.87046
G1 X118.154 Y223.216 E20.91475
G1 X117.694 Y223.026 E20.94206
G1 X115.458 Y222.02 E21.07662
G1 X114.111 Y221.401 E21.15797
G1 X113.396 Y221.029 E21.20221
G1 X112.761 Y220.613 E21.24387
G1 X112.692 Y220.589 E21.24788
G1 X111.945 Y220.284 E21.29216
G1 X111.415 Y220.012 E21.32485
G1 X110.124 Y219.29 E21.40602
G1 X109.214 Y218.699 E21.46557
G1 X108.965 Y218.512 E21.48266
G1 X108.36 Y218.243 E21.519
G1 X107.554 Y217.775 E21.57015
G1 X105.519 Y216.434 E21.70389
G1 X104.286 Y215.61 E21.78528
G1 X103.974 Y215.39 E21.80623
G1 X101.85 Y213.817 E21.95128
G1 X100.687 Y212.9 E22.03256
G1 X99.808 Y212.096 E22.09793
G1 X99.667 Y211.946 E22.10923
G1 X99.599 Y211.909 E22.11348
G1 X98.935 Y211.45 E22.15778
G1 X98.369 Y210.975 E22.19833
G1 X95.523 Y208.353 E22.41069
G1 X95.528 Y208.348 E22.41108
G1 X95.218 Y208.058 E22.43438
G1 X93.397 Y206.192 E22.57746
G1 X92.391 Y205.106 E22.6587
G1 X91.873 Y204.487 E22.703
G1 X91.511 Y203.97 E22.73764
G1 X91.008 Y203.512 E22.77497
G1 X90.393 Y202.816 E22.82594
G1 X87.999 Y199.778 E23.03821
G1 X87.74 Y199.432 E23.06193
G1 X86.25 Y197.314 E23.20404
G1 X85.424 Y196.079 E23.28558
G1 X85.009 Y195.387 E23.32986
G1 X84.73 Y194.805 E23.36528
G1 X84.573 Y194.628 E23.37826
G1 X84.1 Y193.974 E23.42256
G1 X83.819 Y193.51 E23.45233
G1 X83.095 Y192.216 E23.5337
G1 X83.085 Y192.197 E23.53488
G1 X81.925 Y190.111 E23.66587
G1 X81.723 Y189.724 E23.68983
G1 X80.601 Y187.419 E23.83051
G1 X79.981 Y186.074 E23.91179
G1 X79.68 Y185.325 E23.95609
G1 X79.505 Y184.711 E23.99113
G1 X79.235 Y184.253 E24.0203
G1 X78.803 Y183.282 E24.07863
G1 X78.29 Y181.89 E24.16004
G1 X77.461 Y179.597 E24.29385
G1 X77.325 Y179.188 E24.31751
G1 X76.592 Y176.763 E24.45653
G1 X76.188 Y175.335 E24.53798
G1 X76.008 Y174.549 E24.58223
G1 X75.921 Y173.87 E24.6198
G1 X75.68 Y173.209 E24.65841
G1 X75.473 Y172.393 E24.70461
G1 X75.168 Y170.861 E24.79033
G1 X74.724 Y168.516 E24.92131
G1 X74.613 Y167.717 E24.96558
G1 X74.583 Y166.911 E25.00984
G1 X74.583 Y166.903 E25.01028
G1 X74.545 Y166.761 E25.01835
G1 X74.321 Y165.603 E25.08308
G1 X74.145 Y164.128 E25.1646
G1 X74.114 Y163.809 E25.18219
G1 X73.925 Y161.43 E25.31316
G1 X73.906 Y161.115 E25.33048
G1 X73.846 Y159.634 E25.41182
G1 X73.873 Y158.559 E25.47083
G1 X73.898 Y158.289 E25.48571
G1 X73.805 Y157.589 E25.52447
G1 X73.778 Y156.782 E25.56878
G1 X73.831 Y155.977 E25.61305
G1 X73.9 Y155.563 E25.63609
G1 X73.874 Y155.276 E25.6519
G1 X73.846 Y154.216 E25.71009
G1 X73.904 Y152.732 E25.7916
G1 X73.924 Y152.399 E25.8099
G1 X74.115 Y150.02 E25.94088
G1 X74.145 Y149.716 E25.95765
G1 X74.336 Y148.113 E26.04624
G1 X74.654 Y145.748 E26.1772
G1 X74.723 Y145.319 E26.20104
G1 X75.182 Y142.898 E26.33627
G1 X75.472 Y141.442 E26.41774
G1 X75.668 Y140.66 E26.46199
G1 X75.927 Y139.945 E26.50372
G1 X75.945 Y139.705 E26.51693
G1 X76.084 Y138.911 E26.56117
G1 X76.187 Y138.505 E26.58415
G1 X76.633 Y136.93 E26.67399
G1 X77.324 Y134.647 E26.80489
G1 X77.469 Y134.241 E26.82855
G1 X77.461 Y134.238 E26.82902
G1 X78.289 Y131.946 E26.96276
G1 X78.802 Y130.554 E27.04417
G1 X79.118 Y129.812 E27.08843
G1 X79.496 Y129.148 E27.13036
G1 X79.642 Y128.619 E27.16048
G1 X79.98 Y127.761 E27.21109
G1 X80.676 Y126.255 E27.30213
G1 X81.722 Y124.111 E27.43305
G1 X81.928 Y123.717 E27.45745
G1 X83.812 Y120.337 E27.66981
G1 X84.239 Y119.653 E27.71406
G1 X84.732 Y119.014 E27.75835
G1 X84.745 Y119 E27.7594
G1 X85.054 Y118.364 E27.79821
G1 X85.423 Y117.756 E27.83724
G1 X86.363 Y116.354 E27.92987
G1 X87.739 Y114.403 E28.06089
G1 X87.998 Y114.057 E28.08461
G1 X90.393 Y111.018 E28.29696
G1 X90.923 Y110.409 E28.34126
G1 X91.511 Y109.857 E28.38552
G1 X91.521 Y109.85 E28.38619
G1 X91.564 Y109.784 E28.39051
G1 X92.041 Y109.134 E28.43476
G1 X92.384 Y108.738 E28.46351
G1 X93.549 Y107.483 E28.55748
G1 X95.218 Y105.777 E28.68846
G1 X95.511 Y105.493 E28.71085
G1 X96.6 Y104.486 E28.79225
G1 X96.617 Y104.469 E28.79357
G0 F6000 X96.915 Y104.793
G1 F1200 X98.673 Y103.177 E28.92462
G1 X99.277 Y102.676 E28.96768
G1 X99.929 Y102.239 E29.01076
G1 X99.953 Y102.226 E29.01226
G1 X100.126 Y102.043 E29.02608
G1 X100.959 Y101.28 E29.08807
G1 X102.124 Y100.362 E29.16947
G1 X102.765 Y99.908 E29.21258
G1 X103.134 Y99.688 E29.23615
G1 X103.36 Y99.562 E29.25035
G1 X103.509 Y99.405 E29.26223
G1 X104.105 Y98.895 E29.30528
G1 X104.531 Y98.589 E29.33406
G1 X105.765 Y97.765 E29.41549
G1 X107.796 Y96.426 E29.549
G1 X108.472 Y96.029 E29.59202
G1 X109.185 Y95.701 E29.63509
G1 X109.198 Y95.696 E29.63586
G1 X109.475 Y95.489 E29.65483
G1 X110.339 Y94.927 E29.7114
G1 X111.631 Y94.205 E29.79262
G1 X112.334 Y93.858 E29.83564
G1 X112.963 Y93.618 E29.87259
G1 X112.99 Y93.596 E29.8745
G1 X113.647 Y93.168 E29.91753
G1 X114.294 Y92.833 E29.95752
G1 X115.696 Y92.19 E30.04216
G1 X117.871 Y91.211 E30.17306
G1 X118.601 Y90.925 E30.21609
G1 X119.358 Y90.716 E30.25919
G1 X119.362 Y90.715 E30.25941
G1 X119.732 Y90.525 E30.28224
G1 X120.595 Y90.145 E30.33399
G1 X121.988 Y89.632 E30.41545
G1 X122.737 Y89.399 E30.4585
G1 X123.42 Y89.257 E30.49678
G1 X123.445 Y89.253 E30.49817
G1 X123.768 Y89.088 E30.51808
G1 X124.84 Y88.7 E30.58064
G1 X126.344 Y88.279 E30.66636
G1 X128.648 Y87.659 E30.7973
G1 X129.05 Y87.572 E30.81987
G1 X129.048 Y87.563 E30.82037
G1 X131.474 Y87.048 E30.95648
G1 X132.93 Y86.757 E31.03796
G1 X133.706 Y86.643 E31.081
G1 X134.429 Y86.618 E31.12071
G1 X135.045 Y86.441 E31.15588
G1 X135.888 Y86.293 E31.20285
G1 X137.488 Y86.104 E31.29127
G1 X139.798 Y85.869 E31.41869
G1 X139.798 Y80.062 E31.73738
G1 X139.886 Y78.904 E31.80111
G1 X139.935 Y78.582 E31.81898
G1 X140.092 Y77.813 E31.86206
G1 X140.327 Y77.064 E31.90514
G1 X140.637 Y76.343 E31.94821
G1 X141.018 Y75.658 E31.99122
G1 X141.467 Y75.015 E32.03426
G1 X141.98 Y74.42 E32.07738
G1 X142.55 Y73.882 E32.12039
G1 X143.172 Y73.403 E32.16347
G1 X143.84 Y72.991 E32.20655
G1 X144.649 Y72.606 E32.25571
G1 X144.681 Y72.593 E32.25761
