;FLAVOR:Marlin
;TIME:8565
;Filament used: 11.6978m
;Layer height: 0.3
;MINX:78.829
;MINY:79.59
;MINZ:0.3
;MAXX:221.172
;MAXY:223.435
;MAXZ:31.4
;Generated with Cura_SteamEngine 4.6.0
M140 S80
M105
M190 S80
M104 S250
M105
M109 S250
M82 ;absolute extrusion mode
G28 ; home all axes
 M117 Purge extruder
 G92 E0 ; reset extruder
 G1 Z1.0 F3000 ; move z up little to prevent scratching of surface
 G1 X2 Y20 Z0.3 F5000.0 ; move to start-line position
 G1 X2 Y200.0 Z0.3 F1500.0 E15 ; draw 1st line
 G1 X2 Y200.0 Z0.4 F5000.0 ; move to side a little
 G1 X2 Y20 Z0.4 F1500.0 E30 ; draw 2nd line
 G92 E0 ; reset extruder
 G1 Z1.0 F3000 ; move z up little to prevent scratching of surface
G92 E0
G92 E0
G1 F1500 E-6
;LAYER_COUNT:103
;LAYER:0
M107
G1 F600 Z0.8
G0 F900 X100.402 Y107.66 Z0.8
;TYPE:SKIRT
G1 F600 Z0.3
G1 F1500 E0
G1 F1200 X101.057 Y107.066 E0.09264
G1 X101.091 Y107.035 E0.09746
G1 X101.82 Y106.393 E0.19923
G1 X102.473 Y105.835 E0.28922
G1 X103.279 Y105.166 E0.39897
G1 X103.309 Y105.141 E0.40306
G1 X103.913 Y104.652 E0.48448
G1 X104.805 Y103.951 E0.60334
G1 X105.399 Y103.5 E0.68148
G1 X105.431 Y103.476 E0.68567
G1 X106.291 Y102.84 E0.79773
G1 X106.905 Y102.399 E0.87693
G1 X107.845 Y101.744 E0.99697
G1 X108.443 Y101.339 E1.07263
G1 X108.482 Y101.312 E1.0776
G1 X109.431 Y100.69 E1.19648
G1 X110.018 Y100.318 E1.26929
G1 X110.054 Y100.295 E1.27377
G1 X111.047 Y99.684 E1.39592
G1 X111.653 Y99.322 E1.46988
G1 X112.692 Y98.723 E1.59553
G1 X112.73 Y98.701 E1.60013
G1 X113.239 Y98.417 E1.66119
G1 X114.36 Y97.812 E1.79465
G1 X114.928 Y97.514 E1.86186
G1 X116.056 Y96.946 E1.99417
G1 X116.094 Y96.927 E1.99862
G1 X116.56 Y96.7 E2.05293
G1 X116.602 Y96.68 E2.0578
G1 X117.775 Y96.13 E2.19354
G1 X117.82 Y96.109 E2.19874
G1 X118.218 Y95.93 E2.24446
G1 X118.305 Y95.891 E2.25445
G1 X120.018 Y95.154 E2.44983
G1 X121.353 Y94.619 E2.60051
G1 X123.139 Y93.954 E2.80018
G1 X124.941 Y93.342 E2.99956
G1 X126.674 Y92.806 E3.18961
G1 X126.676 Y92.812 E3.19027
G1 X126.762 Y92.779 E3.19993
G1 X128.594 Y92.272 E3.39908
G1 X130.353 Y91.836 E3.58894
G1 X130.442 Y91.821 E3.5984
G1 X130.441 Y91.816 E3.59893
G1 X132.302 Y91.412 E3.79845
G1 X134.175 Y91.061 E3.9981
G1 X136.057 Y90.764 E4.19772
G1 X137.946 Y90.522 E4.39724
G1 X139.838 Y90.333 E4.59645
G1 X141.649 Y90.203 E4.78668
G1 X141.839 Y90.195 E4.8066
G1 X142.211 Y90.191 E4.84558
G1 X142.625 Y90.174 E4.88899
G1 X142.825 Y90.172 E4.90995
G1 X144.375 Y90.129 E5.0724
G1 X144.708 Y90.114 E5.10732
G1 X144.99 Y90.112 E5.13687
G1 X145.5 Y90.091 E5.19035
G1 X199.461 Y90.091 E10.84381
G1 X205.604 Y90.094 E11.48741
G1 X206.422 Y90.121 E11.57316
G1 X206.625 Y90.134 E11.59447
G1 X207.442 Y90.214 E11.68048
G1 X207.65 Y90.241 E11.70245
G1 X208.459 Y90.375 E11.78836
G1 X208.457 Y90.389 E11.78985
G1 X208.665 Y90.416 E11.81182
G1 X209.46 Y90.603 E11.89739
G1 X209.649 Y90.653 E11.91787
G1 X210.434 Y90.89 E12.00378
G1 X210.635 Y90.959 E12.02604
G1 X211.404 Y91.249 E12.11215
G1 X211.591 Y91.326 E12.13334
G1 X212.336 Y91.663 E12.219
G1 X212.525 Y91.756 E12.24107
G1 X213.246 Y92.142 E12.32676
G1 X213.42 Y92.242 E12.34778
G1 X214.118 Y92.675 E12.43384
G1 X214.292 Y92.792 E12.45581
G1 X214.956 Y93.268 E12.5414
G1 X215.121 Y93.394 E12.56315
G1 X215.755 Y93.915 E12.64913
G1 X215.908 Y94.05 E12.67051
G1 X216.506 Y94.61 E12.75634
G1 X216.652 Y94.756 E12.77797
G1 X217.213 Y95.355 E12.86396
G1 X217.346 Y95.507 E12.88512
G1 X217.866 Y96.139 E12.97086
G1 X217.997 Y96.308 E12.99327
G1 X218.473 Y96.974 E13.07903
G1 X218.586 Y97.145 E13.1005
G1 X219.018 Y97.841 E13.18633
G1 X219.118 Y98.012 E13.20708
G1 X219.506 Y98.735 E13.29305
G1 X219.601 Y98.93 E13.31578
G1 X219.937 Y99.675 E13.4014
G1 X220.012 Y99.854 E13.42173
G1 X220.303 Y100.622 E13.50778
G1 X220.373 Y100.828 E13.53057
G1 X220.61 Y101.613 E13.61648
G1 X220.661 Y101.803 E13.63709
G1 X220.848 Y102.599 E13.72276
G1 X220.879 Y102.805 E13.74459
G1 X220.888 Y102.804 E13.74554
G1 X221.022 Y103.612 E13.83135
G1 X221.049 Y103.82 E13.85332
G1 X221.129 Y104.637 E13.93933
G1 X221.142 Y104.836 E13.96022
G1 X221.172 Y105.763 E14.05739
G1 X221.172 Y197.498 E23.66841
G1 X221.169 Y207.866 E24.75466
G1 X221.142 Y208.684 E24.84041
G1 X221.129 Y208.887 E24.86172
G1 X221.049 Y209.704 E24.94773
G1 X221.022 Y209.912 E24.96971
G1 X220.888 Y210.721 E25.05562
G1 X220.874 Y210.719 E25.0571
G1 X220.848 Y210.926 E25.07896
G1 X220.661 Y211.722 E25.16462
G1 X220.61 Y211.912 E25.18524
G1 X220.373 Y212.697 E25.27115
G1 X220.303 Y212.903 E25.29394
G1 X220.012 Y213.671 E25.37999
G1 X219.937 Y213.85 E25.40032
G1 X219.601 Y214.595 E25.48594
G1 X219.506 Y214.788 E25.50848
G1 X219.119 Y215.51 E25.59431
G1 X219.019 Y215.683 E25.61524
G1 X218.587 Y216.379 E25.70106
G1 X218.474 Y216.55 E25.72254
G1 X217.998 Y217.216 E25.8083
G1 X217.869 Y217.384 E25.8305
G1 X217.348 Y218.018 E25.91647
G1 X217.213 Y218.171 E25.93785
G1 X216.653 Y218.769 E26.02368
G1 X216.507 Y218.915 E26.04532
G1 X215.908 Y219.476 E26.1313
G1 X215.755 Y219.611 E26.15268
G1 X215.122 Y220.131 E26.2385
G1 X214.955 Y220.258 E26.26048
G1 X214.29 Y220.734 E26.34616
G1 X214.118 Y220.849 E26.36784
G1 X213.422 Y221.281 E26.45367
G1 X213.251 Y221.381 E26.47442
G1 X212.528 Y221.769 E26.56039
G1 X212.333 Y221.864 E26.58311
G1 X211.588 Y222.2 E26.66874
G1 X211.404 Y222.276 E26.68959
G1 X210.635 Y222.566 E26.7757
G1 X210.438 Y222.633 E26.7975
G1 X209.653 Y222.871 E26.88344
G1 X209.46 Y222.923 E26.90438
G1 X208.665 Y223.11 E26.98995
G1 X208.457 Y223.142 E27.012
G1 X208.459 Y223.151 E27.01296
G1 X207.65 Y223.285 E27.09888
G1 X207.442 Y223.312 E27.12085
G1 X206.625 Y223.392 E27.20686
G1 X206.426 Y223.405 E27.22775
G1 X205.5 Y223.435 E27.32482
G1 X151.539 Y223.435 E32.97828
G1 X145.356 Y223.431 E33.62607
G1 X144.972 Y223.413 E33.66635
G1 X144.581 Y223.407 E33.70731
G1 X144.365 Y223.397 E33.72997
G1 X142.529 Y223.35 E33.92239
G1 X142.267 Y223.337 E33.94987
G1 X141.922 Y223.335 E33.98602
G1 X141.714 Y223.327 E34.00783
G1 X139.853 Y223.194 E34.2033
G1 X137.992 Y223.009 E34.39924
G1 X136.137 Y222.773 E34.59515
G1 X134.287 Y222.484 E34.79132
G1 X132.451 Y222.144 E34.98695
G1 X130.619 Y221.751 E35.18326
G1 X128.887 Y221.329 E35.37003
G1 X128.887 Y221.328 E35.37013
G1 X128.803 Y221.309 E35.37915
G1 X127 Y220.815 E35.57501
G1 X125.213 Y220.272 E35.77069
G1 X123.437 Y219.677 E35.96692
G1 X121.683 Y219.034 E36.16265
G1 X120.027 Y218.375 E36.34938
G1 X119.543 Y218.173 E36.40433
G1 X119.5 Y218.154 E36.40925
G1 X118.298 Y217.631 E36.54659
G1 X118.256 Y217.613 E36.55138
G1 X117.812 Y217.412 E36.60244
G1 X117.775 Y217.395 E36.60671
G1 X116.603 Y216.846 E36.7423
G1 X116.098 Y216.601 E36.80111
G1 X114.926 Y216.01 E36.93862
G1 X114.394 Y215.731 E37.00156
G1 X114.361 Y215.714 E37.00545
G1 X113.277 Y215.129 E37.1345
G1 X113.238 Y215.108 E37.13914
G1 X112.729 Y214.824 E37.20021
G1 X111.607 Y214.177 E37.33591
G1 X111.079 Y213.861 E37.40038
G1 X111.047 Y213.841 E37.40433
G1 X110.055 Y213.231 E37.52634
G1 X110.014 Y213.206 E37.53137
G1 X109.467 Y212.858 E37.59929
G1 X109.431 Y212.835 E37.60377
G1 X108.482 Y212.213 E37.72265
G1 X108.446 Y212.188 E37.72724
G1 X107.882 Y211.807 E37.79855
G1 X107.845 Y211.782 E37.80323
G1 X106.942 Y211.153 E37.91852
G1 X106.902 Y211.125 E37.92364
G1 X106.324 Y210.709 E37.99825
G1 X105.433 Y210.051 E38.11429
G1 X104.804 Y209.573 E38.19706
G1 X104.765 Y209.543 E38.20222
G1 X103.949 Y208.902 E38.31093
G1 X103.915 Y208.875 E38.31548
G1 X103.311 Y208.387 E38.39684
G1 X102.505 Y207.717 E38.50665
G1 X102.475 Y207.692 E38.51074
G1 X101.818 Y207.131 E38.60125
G1 X101.09 Y206.489 E38.70295
G1 X100.435 Y205.896 E38.79552
G1 X100.402 Y205.866 E38.80019
G1 X99.715 Y205.226 E38.89856
G1 X99.016 Y204.557 E38.99993
G1 X98.371 Y203.92 E39.0949
G1 X98.341 Y203.891 E39.09928
G1 X97.704 Y203.245 E39.19433
G1 X97.672 Y203.211 E39.19922
G1 X97.067 Y202.579 E39.29088
G1 X97.037 Y202.548 E39.2954
G1 X96.397 Y201.861 E39.39377
G1 X95.803 Y201.206 E39.48641
G1 X95.771 Y201.17 E39.49146
G1 X95.129 Y200.44 E39.59331
G1 X95.099 Y200.406 E39.59806
G1 X94.573 Y199.79 E39.68292
G1 X94.546 Y199.758 E39.68731
G1 X93.904 Y198.986 E39.79251
G1 X93.877 Y198.952 E39.79705
G1 X93.388 Y198.347 E39.87856
G1 X92.69 Y197.459 E39.99689
G1 X92.239 Y196.866 E40.07495
G1 X92.212 Y196.831 E40.07958
G1 X91.576 Y195.97 E40.19173
G1 X91.136 Y195.357 E40.27078
G1 X90.481 Y194.417 E40.39082
G1 X90.075 Y193.816 E40.4668
G1 X90.052 Y193.782 E40.4711
G1 X89.428 Y192.832 E40.59019
G1 X89.056 Y192.246 E40.66291
G1 X89.032 Y192.209 E40.66753
G1 X88.421 Y191.216 E40.78968
G1 X88.084 Y190.651 E40.85861
G1 X88.059 Y190.609 E40.86373
G1 X87.46 Y189.569 E40.98947
G1 X87.443 Y189.538 E40.99317
G1 X87.133 Y188.986 E41.0595
G1 X86.548 Y187.903 E41.18846
G1 X86.273 Y187.377 E41.25065
G1 X86.252 Y187.336 E41.25547
G1 X85.683 Y186.207 E41.38793
G1 X85.436 Y185.698 E41.4472
G1 X85.419 Y185.663 E41.45128
G1 X84.846 Y184.443 E41.5925
G1 X84.667 Y184.045 E41.63822
G1 X84.628 Y183.96 E41.64802
G1 X84.073 Y182.675 E41.79466
G1 X83.357 Y180.911 E41.99412
G1 X82.722 Y179.21 E42.18435
G1 X82.726 Y179.209 E42.18478
G1 X82.69 Y179.122 E42.19464
G1 X82.079 Y177.322 E42.3938
G1 X81.517 Y175.503 E42.59326
G1 X81.008 Y173.668 E42.79277
G1 X80.572 Y171.908 E42.98274
G1 X80.558 Y171.82 E42.99208
G1 X80.553 Y171.821 E42.99261
G1 X80.15 Y169.961 E43.192
G1 X79.798 Y168.088 E43.39167
G1 X79.501 Y166.206 E43.59129
G1 X79.259 Y164.317 E43.79081
G1 X79.07 Y162.423 E43.99023
G1 X78.936 Y160.524 E44.18969
G1 X78.855 Y158.622 E44.38914
G1 X78.829 Y156.719 E44.58853
G1 X78.857 Y154.848 E44.78458
G1 X78.937 Y152.98 E44.98047
G1 X79.069 Y151.116 E45.17625
G1 X79.253 Y149.255 E45.37217
G1 X79.49 Y147.4 E45.5681
G1 X79.779 Y145.55 E45.76427
G1 X80.119 Y143.714 E45.9599
G1 X80.491 Y141.971 E46.14663
G1 X80.499 Y141.973 E46.14749
G1 X80.511 Y141.882 E46.15711
G1 X80.954 Y140.067 E46.35285
G1 X81.447 Y138.265 E46.54858
G1 X81.991 Y136.475 E46.74459
G1 X82.585 Y134.701 E46.94059
G1 X83.229 Y132.945 E47.13655
G1 X83.922 Y131.209 E47.33238
G1 X84.648 Y129.522 E47.5248
G1 X84.848 Y129.079 E47.57572
G1 X85.419 Y127.863 E47.71647
G1 X85.437 Y127.825 E47.72087
G1 X85.663 Y127.36 E47.77504
G1 X86.252 Y126.19 E47.91228
G1 X86.273 Y126.148 E47.9172
G1 X86.528 Y125.66 E47.97489
G1 X87.134 Y124.539 E48.10839
G1 X87.154 Y124.502 E48.1128
G1 X87.438 Y123.993 E48.17387
G1 X88.061 Y122.914 E48.3044
G1 X88.399 Y122.347 E48.37356
G1 X88.421 Y122.31 E48.37807
G1 X89.032 Y121.317 E48.50023
G1 X89.056 Y121.278 E48.50502
G1 X89.403 Y120.732 E48.5728
G1 X89.428 Y120.695 E48.57748
G1 X90.051 Y119.745 E48.6965
G1 X90.076 Y119.707 E48.70127
G1 X90.457 Y119.144 E48.77249
G1 X90.48 Y119.11 E48.77679
G1 X91.109 Y118.206 E48.89218
G1 X91.551 Y117.59 E48.97161
G1 X91.577 Y117.554 E48.97626
G1 X92.213 Y116.694 E49.08833
G1 X92.69 Y116.067 E49.17086
G1 X92.72 Y116.028 E49.17602
G1 X93.361 Y115.212 E49.28473
G1 X93.873 Y114.577 E49.3702
G1 X93.903 Y114.54 E49.37519
G1 X94.546 Y113.767 E49.48053
G1 X95.099 Y113.119 E49.56978
G1 X95.13 Y113.083 E49.57476
G1 X95.772 Y112.354 E49.67653
G1 X96.371 Y111.695 E49.76983
G1 X96.394 Y111.669 E49.77347
G1 X97.034 Y110.98 E49.87199
G1 X97.068 Y110.944 E49.87718
G1 X97.673 Y110.313 E49.96877
G1 X97.702 Y110.283 E49.97314
G1 X98.376 Y109.6 E50.07367
G1 X99.023 Y108.964 E50.16872
G1 X99.052 Y108.935 E50.17302
G1 X99.684 Y108.33 E50.26468
G1 X99.715 Y108.3 E50.2692
G1 X100.402 Y107.66 E50.36757
G0 F900 X100.879 Y108.172
G1 F1200 X101.527 Y107.584 E50.45925
G1 X102.283 Y106.918 E50.56481
G1 X102.928 Y106.367 E50.65368
G1 X102.954 Y106.345 E50.65725
G1 X103.726 Y105.704 E50.76238
G1 X103.749 Y105.685 E50.7655
G1 X104.353 Y105.196 E50.84692
G1 X105.197 Y104.533 E50.95937
G1 X105.228 Y104.509 E50.96348
G1 X105.822 Y104.058 E51.04162
G1 X105.847 Y104.039 E51.04491
G1 X106.707 Y103.403 E51.15697
G1 X107.313 Y102.968 E51.23512
G1 X107.342 Y102.948 E51.23881
G1 X108.245 Y102.319 E51.35411
G1 X108.271 Y102.3 E51.35748
G1 X108.835 Y101.918 E51.42885
G1 X108.866 Y101.898 E51.43272
G1 X109.815 Y101.276 E51.5516
G1 X110.393 Y100.909 E51.62333
G1 X110.421 Y100.891 E51.62682
G1 X111.414 Y100.28 E51.74897
G1 X111.44 Y100.265 E51.75211
G1 X111.968 Y99.949 E51.81658
G1 X112.002 Y99.928 E51.82077
G1 X113.041 Y99.329 E51.94642
G1 X113.58 Y99.028 E52.0111
G1 X113.61 Y99.012 E52.01466
G1 X114.692 Y98.428 E52.14348
G1 X114.716 Y98.415 E52.14634
G1 X115.205 Y98.158 E52.20422
G1 X116.371 Y97.571 E52.34099
G1 X116.4 Y97.556 E52.34441
G1 X116.866 Y97.329 E52.39871
G1 X116.899 Y97.314 E52.40251
G1 X118.072 Y96.764 E52.53824
G1 X118.477 Y96.581 E52.58481
G1 X118.582 Y96.533 E52.5969
G1 X120.175 Y95.844 E52.77874
G1 X120.311 Y95.791 E52.79403
G1 X120.315 Y95.79 E52.79447
G1 X121.598 Y95.274 E52.93935
G1 X123.364 Y94.617 E53.13676
G1 X125.148 Y94.01 E53.33419
G1 X126.881 Y93.474 E53.52424
G1 X126.883 Y93.48 E53.52491
G1 X126.95 Y93.453 E53.53247
G1 X128.763 Y92.951 E53.72957
G1 X130.522 Y92.515 E53.91943
G1 X130.591 Y92.504 E53.92676
G1 X130.59 Y92.5 E53.92719
G1 X132.431 Y92.1 E54.12457
G1 X134.285 Y91.752 E54.3222
G1 X136.147 Y91.458 E54.5197
G1 X138.015 Y91.218 E54.71702
G1 X139.889 Y91.031 E54.91433
G1 X141.847 Y90.895 E55.11996
G1 X142.251 Y90.89 E55.16229
G1 X142.631 Y90.874 E55.20214
G1 X142.849 Y90.872 E55.22498
G1 X144.398 Y90.829 E55.38733
G1 X144.713 Y90.814 E55.42037
G1 X145.004 Y90.812 E55.45086
G1 X145.5 Y90.791 E55.50287
G1 X199.461 Y90.791 E61.15634
G1 X205.5 Y90.792 E61.78904
G1 X206.399 Y90.82 E61.88327
G1 X206.557 Y90.831 E61.89987
G1 X207.374 Y90.911 E61.98587
G1 X207.535 Y90.932 E62.00288
G1 X208.344 Y91.066 E62.0888
G1 X208.343 Y91.074 E62.08964
G1 X208.505 Y91.097 E62.10678
G1 X209.3 Y91.284 E62.19235
G1 X209.447 Y91.324 E62.20831
G1 X210.232 Y91.561 E62.29422
G1 X210.388 Y91.614 E62.31148
G1 X211.303 Y91.964 E62.41412
G1 X212.048 Y92.301 E62.49979
G1 X212.194 Y92.373 E62.51684
G1 X213.051 Y92.837 E62.61894
G1 X213.749 Y93.27 E62.705
G1 X213.884 Y93.361 E62.72206
G1 X214.548 Y93.837 E62.80765
G1 X214.676 Y93.935 E62.82454
G1 X215.43 Y94.561 E62.92722
G1 X216.028 Y95.121 E63.01305
G1 X216.141 Y95.234 E63.0298
G1 X216.806 Y95.951 E63.13225
G1 X217.326 Y96.583 E63.218
G1 X217.427 Y96.715 E63.23541
G1 X217.992 Y97.514 E63.33794
G1 X218.501 Y98.343 E63.43985
G1 X218.889 Y99.066 E63.52582
G1 X218.963 Y99.218 E63.54353
G1 X219.357 Y100.102 E63.64493
G1 X219.648 Y100.87 E63.73098
G1 X219.702 Y101.03 E63.74867
G1 X219.979 Y101.963 E63.85064
G1 X220.166 Y102.759 E63.9363
G1 X220.189 Y102.919 E63.95324
G1 X220.197 Y102.918 E63.95408
G1 X220.331 Y103.726 E64.03989
G1 X220.352 Y103.888 E64.05701
G1 X220.443 Y104.86 E64.15929
G1 X220.472 Y105.763 E64.25395
G1 X220.472 Y197.498 E73.86497
G1 X220.47 Y207.843 E74.94881
G1 X220.443 Y208.661 E75.03456
G1 X220.432 Y208.819 E75.05115
G1 X220.352 Y209.636 E75.13716
G1 X220.331 Y209.797 E75.15417
G1 X220.197 Y210.606 E75.24008
G1 X220.189 Y210.605 E75.24092
G1 X220.166 Y210.766 E75.25796
G1 X219.979 Y211.562 E75.34363
G1 X219.939 Y211.71 E75.35969
G1 X219.702 Y212.495 E75.4456
G1 X219.648 Y212.655 E75.4633
G1 X219.299 Y213.562 E75.56511
G1 X218.963 Y214.307 E75.65074
G1 X218.889 Y214.457 E75.66826
G1 X218.425 Y215.314 E75.77036
G1 X217.993 Y216.01 E75.85619
G1 X217.904 Y216.143 E75.87295
G1 X217.428 Y216.809 E75.95872
G1 X217.328 Y216.939 E75.9759
G1 X216.702 Y217.693 E76.07858
G1 X216.142 Y218.291 E76.16441
G1 X216.029 Y218.404 E76.18115
G1 X215.43 Y218.965 E76.26714
G1 X215.31 Y219.07 E76.28384
G1 X214.677 Y219.59 E76.36967
G1 X214.548 Y219.689 E76.38671
G1 X213.749 Y220.255 E76.48929
G1 X212.92 Y220.764 E76.59121
G1 X212.197 Y221.152 E76.67718
G1 X212.045 Y221.226 E76.69489
G1 X211.3 Y221.562 E76.78051
G1 X211.157 Y221.621 E76.79672
G1 X210.235 Y221.964 E76.89979
G1 X209.45 Y222.202 E76.98573
G1 X209.3 Y222.242 E77.00199
G1 X208.505 Y222.429 E77.08756
G1 X208.343 Y222.452 E77.1047
G1 X208.344 Y222.46 E77.10554
G1 X207.535 Y222.594 E77.19146
G1 X207.374 Y222.615 E77.20847
G1 X206.402 Y222.706 E77.31075
G1 X205.5 Y222.735 E77.4053
G1 X151.539 Y222.735 E83.05876
G1 X145.388 Y222.731 E83.7032
G1 X145.013 Y222.714 E83.74253
G1 X144.613 Y222.707 E83.78444
G1 X144.414 Y222.698 E83.80531
G1 X142.565 Y222.651 E83.9991
