;FLAVOR:Marlin
;TIME:8169
;Filament used: 8.49714m
;Layer height: 0.28
;MINX:74.098
;MINY:97.613
;MINZ:0.28
;MAXX:228.791
;MAXY:199.386
;MAXZ:33.26
;Generated with Cura_SteamEngine 4.6.0
M140 S80
M105
M190 S80
M104 S250
M105
M109 S250
M82 ;absolute extrusion mode
G28 ; home all axes
 M117 Purge extruder
 G92 E0 ; reset extruder
 G1 Z1.0 F3000 ; move z up little to prevent scratching of surface
 G1 X2 Y20 Z0.3 F5000.0 ; move to start-line position
 G1 X2 Y200.0 Z0.3 F1500.0 E15 ; draw 1st line
 G1 X2 Y200.0 Z0.4 F5000.0 ; move to side a little
 G1 X2 Y20 Z0.4 F1500.0 E30 ; draw 2nd line
 G92 E0 ; reset extruder
 G1 Z1.0 F3000 ; move z up little to prevent scratching of surface
G92 E0
G92 E0
G1 F1500 E-2
;LAYER_COUNT:117
;LAYER:0
M107
G1 F600 Z0.78
G0 F900 X78.457 Y98.905 Z0.78
;TYPE:SKIRT
G1 F600 Z0.28
G1 F1500 E0
G1 F1200 X78.739 Y98.689 E0.02632
G1 X79.067 Y98.47 E0.05555
G1 X79.364 Y98.297 E0.08102
G1 X79.716 Y98.122 E0.11014
G1 X80.06 Y97.98 E0.13772
G1 X80.43 Y97.856 E0.16664
G1 X80.761 Y97.768 E0.19202
G1 X81.148 Y97.691 E0.22125
G1 X81.495 Y97.645 E0.24719
G1 X81.885 Y97.619 E0.27615
G1 X82.066 Y97.613 E0.28957
G1 X90.19 Y97.617 E0.89156
G1 X91.208 Y97.653 E0.96704
G1 X92.092 Y97.738 E1.03285
G1 X92.261 Y97.76 E1.04548
G1 X93.136 Y97.9 E1.11114
G1 X93.309 Y97.933 E1.12419
G1 X94.174 Y98.13 E1.18993
G1 X94.334 Y98.172 E1.20219
G1 X95.183 Y98.421 E1.26775
G1 X95.345 Y98.474 E1.28038
G1 X96.179 Y98.777 E1.34613
G1 X96.342 Y98.843 E1.35916
G1 X97.153 Y99.199 E1.42479
G1 X97.308 Y99.273 E1.43752
G1 X98.244 Y99.762 E1.51577
G1 X99.004 Y100.217 E1.58141
G1 X99.154 Y100.314 E1.59464
G1 X99.882 Y100.818 E1.66025
G1 X100.016 Y100.917 E1.6726
G1 X100.713 Y101.466 E1.73834
G1 X100.845 Y101.577 E1.75112
G1 X101.504 Y102.168 E1.81672
G1 X101.627 Y102.286 E1.82935
G1 X102.365 Y103.044 E1.90774
G1 X102.945 Y103.715 E1.97346
G1 X103.055 Y103.852 E1.98648
G1 X103.686 Y104.694 E2.06445
G1 X104.177 Y105.434 E2.13025
G1 X104.268 Y105.582 E2.14313
G1 X104.71 Y106.351 E2.20885
G1 X104.791 Y106.502 E2.22155
G1 X105.183 Y107.297 E2.28723
G1 X105.254 Y107.454 E2.3
G1 X105.594 Y108.271 E2.36557
G1 X105.654 Y108.43 E2.37816
G1 X105.942 Y109.268 E2.44383
G1 X105.992 Y109.43 E2.45639
G1 X106.227 Y110.285 E2.52209
G1 X106.259 Y110.455 E2.53491
G1 X106.267 Y110.453 E2.53552
G1 X106.447 Y111.322 E2.60128
G1 X106.456 Y111.366 E2.60461
G1 X106.746 Y112.895 E2.71993
G1 X107.073 Y114.356 E2.83087
G1 X107.44 Y115.787 E2.94034
G1 X107.866 Y117.254 E3.05353
G1 X108.319 Y118.644 E3.16186
G1 X108.844 Y120.098 E3.27641
G1 X109.393 Y121.478 E3.38646
G1 X109.99 Y122.854 E3.49761
G1 X110.625 Y124.198 E3.60775
G1 X111.319 Y125.549 E3.7203
G1 X112.036 Y126.85 E3.83037
G1 X112.82 Y128.164 E3.94376
G1 X113.608 Y129.398 E4.05225
G1 X114.452 Y130.631 E4.16297
G1 X115.349 Y131.857 E4.27553
G1 X116.283 Y133.05 E4.3878
G1 X117.237 Y134.194 E4.49818
G1 X118.237 Y135.316 E4.60955
G1 X119.273 Y136.409 E4.72114
G1 X120.325 Y137.45 E4.83081
G1 X121.443 Y138.488 E4.94386
G1 X122.566 Y139.466 E5.0542
G1 X123.723 Y140.412 E5.16495
G1 X124.915 Y141.324 E5.27616
G1 X126.156 Y142.212 E5.38924
G1 X127.379 Y143.031 E5.4983
G1 X128.651 Y143.825 E5.60941
G1 X129.957 Y144.584 E5.72135
G1 X131.288 Y145.301 E5.83337
G1 X132.619 Y145.966 E5.94362
G1 X133.981 Y146.592 E6.0547
G1 X135.36 Y147.173 E6.16558
G1 X136.746 Y147.709 E6.2757
G1 X136.756 Y147.711 E6.27645
G1 X138.19 Y148.212 E6.38901
G1 X139.621 Y148.661 E6.50014
G1 X141.087 Y149.071 E6.61294
G1 X142.498 Y149.419 E6.72063
G1 X142.502 Y149.419 E6.72093
G1 X143.976 Y149.731 E6.83257
G1 X145.484 Y150.001 E6.94609
G1 X146.921 Y150.212 E7.05371
G1 X148.448 Y150.386 E7.1676
G1 X149.934 Y150.509 E7.27808
G1 X151.431 Y150.584 E7.38915
G1 X152.943 Y150.612 E7.50121
G1 X154.452 Y150.592 E7.61304
G1 X155.925 Y150.526 E7.72229
G1 X157.441 Y150.409 E7.83496
G1 X158.906 Y150.251 E7.94415
G1 X160.419 Y150.038 E8.05737
G1 X161.876 Y149.784 E8.16696
G1 X163.379 Y149.475 E8.28066
G1 X163.38 Y149.475 E8.28074
G1 X164.792 Y149.136 E8.38834
G1 X166.299 Y148.724 E8.50411
G1 X167.671 Y148.302 E8.61047
G1 X169.131 Y147.8 E8.72487
G1 X170.518 Y147.275 E8.83477
G1 X171.897 Y146.701 E8.94545
G1 X173.28 Y146.075 E9.05794
G1 X174.624 Y145.414 E9.16892
G1 X175.955 Y144.705 E9.28067
G1 X177.258 Y143.957 E9.392
G1 X178.522 Y143.179 E9.50198
G1 X179.77 Y142.354 E9.61284
G1 X180.99 Y141.49 E9.72361
G1 X182.205 Y140.569 E9.83659
G1 X183.368 Y139.631 E9.9473
G1 X184.518 Y138.639 E10.05984
G1 X185.757 Y137.504 E10.18435
G1 X185.773 Y137.489 E10.18597
G1 X186.579 Y136.766 E10.26621
G1 X187.542 Y135.98 E10.35832
G1 X188.538 Y135.248 E10.44991
G1 X189.575 Y134.558 E10.54221
G1 X190.638 Y133.925 E10.63388
G1 X191.734 Y133.34 E10.72594
G1 X192.858 Y132.81 E10.81802
G1 X194.001 Y132.338 E10.90966
G1 X195.172 Y131.918 E11.00184
G1 X196.359 Y131.558 E11.09375
G1 X197.559 Y131.256 E11.18545
G1 X198.779 Y131.011 E11.27765
G1 X200.005 Y130.827 E11.36952
G1 X201.239 Y130.701 E11.46143
G1 X202.479 Y130.636 E11.55344
G1 X203.717 Y130.631 E11.64518
G1 X204.959 Y130.686 E11.7373
G1 X206.194 Y130.802 E11.82922
G1 X207.42 Y130.977 E11.92098
G1 X208.64 Y131.212 E12.01305
G1 X209.845 Y131.505 E12.10494
G1 X211.036 Y131.857 E12.19697
G1 X212.205 Y132.265 E12.28871
G1 X213.357 Y132.73 E12.38077
G1 X214.481 Y133.25 E12.47254
G1 X215.584 Y133.826 E12.56474
G1 X216.649 Y134.451 E12.65625
G1 X217.692 Y135.131 E12.74851
G1 X218.695 Y135.858 E12.8403
G1 X219.664 Y136.634 E12.93229
G1 X220.593 Y137.455 E13.02416
G1 X221.481 Y138.321 E13.11607
G1 X222.329 Y139.23 E13.20818
G1 X223.128 Y140.178 E13.30005
G1 X223.882 Y141.165 E13.39209
G1 X224.586 Y142.185 E13.48393
G1 X225.24 Y143.238 E13.57578
G1 X225.843 Y144.323 E13.66776
G1 X226.392 Y145.436 E13.75972
G1 X226.886 Y146.573 E13.85158
G1 X227.325 Y147.733 E13.94348
G1 X227.708 Y148.918 E14.03576
G1 X228.029 Y150.107 E14.12702
G1 X228.297 Y151.324 E14.21936
G1 X228.503 Y152.545 E14.31112
G1 X228.651 Y153.78 E14.40329
G1 X228.737 Y155.016 E14.4951
G1 X228.765 Y156.189 E14.58204
G1 X228.787 Y175.461 E16.01009
G1 X228.791 Y175.503 E16.01322
G1 X228.791 Y178.122 E16.20729
G1 X228.751 Y178.585 E16.24172
G1 X228.632 Y179.034 E16.27614
G1 X228.439 Y179.456 E16.31053
G1 X228.176 Y179.838 E16.3449
G1 X227.851 Y180.17 E16.37932
G1 X227.474 Y180.441 E16.41373
G1 X227.056 Y180.644 E16.44816
G1 X226.61 Y180.772 E16.48254
G1 X226.1 Y180.822 E16.52051
G1 X225.501 Y180.824 E16.5649
G1 X225.48 Y180.823 E16.56646
G1 X182.14 Y180.65 E19.77797
G1 X181.678 Y180.608 E19.81235
G1 X181.229 Y180.488 E19.84679
G1 X180.808 Y180.292 E19.8812
G1 X180.427 Y180.028 E19.91555
G1 X180.412 Y180.013 E19.91712
G1 X152.846 Y180.01 E21.95976
G1 X149.294 Y179.92 E22.22304
G1 X149.131 Y179.909 E22.23515
G1 X149.115 Y179.908 E22.23634
G1 X145.482 Y179.637 E22.50629
G1 X142.035 Y179.215 E22.76362
G1 X141.801 Y179.18 E22.78115
G1 X141.758 Y179.174 E22.78437
G1 X139.1 Y178.731 E22.98404
G1 X138.844 Y178.68 E23.00339
G1 X138.83 Y178.677 E23.00445
G1 X136.321 Y178.163 E23.19423
G1 X136.055 Y178.102 E23.21445
G1 X136.025 Y178.094 E23.21675
G1 X134.092 Y177.627 E23.3641
G1 X134.092 Y177.625 E23.36425
G1 X134.021 Y177.61 E23.36963
G1 X132.033 Y177.072 E23.52224
G1 X130.057 Y176.48 E23.67509
G1 X128.102 Y175.836 E23.82761
G1 X126.161 Y175.139 E23.98043
G1 X124.242 Y174.391 E24.13305
G1 X122.34 Y173.589 E24.28601
G1 X120.465 Y172.739 E24.43855
G1 X118.611 Y171.838 E24.5913
G1 X116.784 Y170.889 E24.74385
G1 X114.978 Y169.888 E24.89686
G1 X113.205 Y168.841 E25.04944
G1 X111.46 Y167.747 E25.20205
G1 X109.741 Y166.605 E25.35498
G1 X108.057 Y165.418 E25.50764
G1 X106.405 Y164.187 E25.6603
G1 X104.781 Y162.907 E25.81353
G1 X104.579 Y162.738 E25.83304
G1 X104.579 Y162.739 E25.83312
G1 X103.203 Y161.593 E25.96581
G1 X101.664 Y160.24 E26.11765
G1 X101.463 Y160.055 E26.1379
G1 X101.456 Y160.049 E26.13858
G1 X100.143 Y158.831 E26.27129
G1 X98.678 Y157.395 E26.4233
G1 X98.488 Y157.2 E26.44347
G1 X98.482 Y157.194 E26.4441
G1 X97.288 Y155.961 E26.57129
G1 X97.243 Y155.906 E26.57655
G1 X97.24 Y155.909 E26.57687
G1 X95.847 Y154.39 E26.72959
G1 X94.503 Y152.845 E26.88133
G1 X94.329 Y152.636 E26.90148
G1 X94.318 Y152.623 E26.90274
G1 X93.191 Y151.251 E27.03431
G1 X93.022 Y151.036 E27.05457
G1 X93.014 Y151.026 E27.05552
G1 X91.924 Y149.623 E27.18717
G1 X91.762 Y149.405 E27.2073
G1 X91.75 Y149.39 E27.20872
G1 X90.533 Y147.725 E27.36154
G1 X89.364 Y146.03 E27.51411
G1 X88.353 Y144.481 E27.65118
G1 X88.1 Y144.547 E27.67055
G1 X87.92 Y144.584 E27.68417
G1 X87.595 Y144.639 E27.70859
G1 X87.132 Y144.677 E27.74302
G1 X86.887 Y144.665 E27.76119
G1 X86.406 Y144.619 E27.797
G1 X85.907 Y144.523 E27.83465
G1 X85.883 Y144.516 E27.83651
G1 X85.45 Y144.348 E27.87092
G1 X85.052 Y144.109 E27.90532
G1 X84.666 Y143.767 E27.94354
G1 X84.468 Y143.555 E27.96503
G1 X84.181 Y143.19 E27.99944
G1 X83.961 Y142.781 E28.03385
G1 X83.859 Y142.501 E28.05593
G1 X74.213 Y110.944 E30.50111
G1 X74.116 Y110.49 E30.53551
G1 X74.098 Y110.026 E30.56991
G1 X74.124 Y109.76 E30.58972
G1 X74.166 Y109.476 E30.61099
G1 X74.273 Y109.024 E30.64541
G1 X74.456 Y108.597 E30.67984
G1 X74.738 Y108.172 E30.71763
G1 X74.755 Y108.151 E30.71963
G1 X75.144 Y107.76 E30.7605
G1 X75.518 Y107.454 E30.79631
G1 X75.902 Y107.192 E30.83076
G1 X76.117 Y107.083 E30.84862
G1 X76.416 Y106.948 E30.87293
G1 X76.455 Y106.932 E30.87605
G1 X76.392 Y105.333 E30.99463
G1 X76.369 Y103.288 E31.14617
G1 X76.375 Y103.082 E31.16144
G1 X76.397 Y102.746 E31.18639
G1 X76.444 Y102.387 E31.21322
G1 X76.522 Y102.001 E31.2424
G1 X76.609 Y101.678 E31.26719
G1 X76.733 Y101.308 E31.29611
G1 X76.873 Y100.97 E31.32322
G1 X77.047 Y100.618 E31.35231
G1 X77.222 Y100.315 E31.37824
G1 X77.441 Y99.987 E31.40746
G1 X77.656 Y99.706 E31.43368
G1 X77.913 Y99.413 E31.46256
G1 X78.162 Y99.164 E31.48866
G1 X78.457 Y98.905 E31.51774
G0 F900 X78.852 Y99.356
G1 F1200 X79.072 Y99.188 E31.53826
G1 X79.4 Y98.969 E31.56748
G1 X79.631 Y98.835 E31.58727
G1 X79.983 Y98.66 E31.6164
G1 X80.251 Y98.549 E31.63789
G1 X80.621 Y98.425 E31.66681
G1 X80.878 Y98.356 E31.68653
G1 X81.265 Y98.279 E31.71576
G1 X81.535 Y98.244 E31.73594
G1 X82.066 Y98.213 E31.77535
G1 X90.19 Y98.217 E32.37734
G1 X91.151 Y98.251 E32.4486
G1 X92.166 Y98.352 E32.52418
G1 X93.175 Y98.518 E32.59995
G1 X94.165 Y98.748 E32.67526
G1 X95.14 Y99.038 E32.75064
G1 X96.101 Y99.392 E32.82653
G1 X97.033 Y99.806 E32.90209
G1 X97.936 Y100.277 E32.97756
G1 X98.812 Y100.807 E33.05343
G1 X99.644 Y101.388 E33.12862
G1 X100.444 Y102.024 E33.20436
G1 X101.199 Y102.706 E33.27975
G1 X101.911 Y103.437 E33.35536
G1 X102.577 Y104.214 E33.43119
G1 X103.186 Y105.026 E33.5064
G1 X103.748 Y105.881 E33.58222
G1 X104.252 Y106.767 E33.65775
G1 X104.7 Y107.684 E33.73338
G1 X105.087 Y108.625 E33.80877
G1 X105.414 Y109.589 E33.8842
G1 X105.649 Y110.444 E33.94991
G1 X105.672 Y110.577 E33.95991
G1 X105.679 Y110.575 E33.96045
G1 X105.859 Y111.444 E34.02621
G1 X105.866 Y111.478 E34.02878
G1 X106.158 Y113.015 E34.14471
G1 X106.484 Y114.476 E34.25563
G1 X106.861 Y115.943 E34.36787
G1 X107.289 Y117.418 E34.48167
G1 X107.766 Y118.882 E34.59577
G1 X108.277 Y120.295 E34.70711
G1 X108.833 Y121.694 E34.81866
G1 X109.441 Y123.094 E34.93176
G1 X110.098 Y124.484 E35.04569
G1 X110.782 Y125.818 E35.15677
G1 X111.513 Y127.143 E35.26891
G1 X112.308 Y128.476 E35.38391
G1 X113.116 Y129.742 E35.4952
G1 X113.972 Y130.992 E35.60746
G1 X114.878 Y132.229 E35.72108
G1 X115.799 Y133.406 E35.83182
G1 X116.799 Y134.605 E35.94752
G1 X117.771 Y135.697 E36.05584
G1 X118.839 Y136.824 E36.1709
G1 X119.919 Y137.893 E36.2835
G1 X121.032 Y138.925 E36.39597
G1 X122.183 Y139.927 E36.50905
G1 X123.353 Y140.884 E36.62105
G1 X124.561 Y141.809 E36.73379
G1 X125.791 Y142.688 E36.84582
G1 X127.082 Y143.553 E36.96097
G1 X128.336 Y144.336 E37.07052
G1 X129.665 Y145.108 E37.18441
G1 X131.004 Y145.83 E37.29713
G1 X132.369 Y146.511 E37.41017
G1 X133.74 Y147.142 E37.522
G1 X135.14 Y147.732 E37.63458
G1 X136.547 Y148.275 E37.74633
G1 X136.558 Y148.278 E37.74717
G1 X137.975 Y148.773 E37.8584
G1 X139.465 Y149.241 E37.97412
G1 X140.912 Y149.645 E38.08545
G1 X142.375 Y150.006 E38.19711
G1 X142.378 Y150.006 E38.19733
G1 X143.875 Y150.323 E38.31072
G1 X145.354 Y150.588 E38.42205
G1 X146.891 Y150.813 E38.53716
G1 X148.362 Y150.981 E38.64687
G1 X149.915 Y151.11 E38.76234
G1 X151.391 Y151.183 E38.87185
G1 X152.94 Y151.212 E38.98665
G1 X154.456 Y151.192 E39.09899
G1 X155.969 Y151.125 E39.21122
G1 X157.487 Y151.008 E39.32404
G1 X158.988 Y150.845 E39.43591
G1 X160.516 Y150.63 E39.55025
G1 X162.002 Y150.371 E39.66203
G1 X163.49 Y150.065 E39.77459
G1 X164.969 Y149.71 E39.8873
G1 X166.436 Y149.309 E39.99999
G1 X167.889 Y148.862 E40.11264
G1 X169.321 Y148.37 E40.22484
G1 X170.733 Y147.835 E40.33673
G1 X172.158 Y147.242 E40.4511
G1 X173.537 Y146.618 E40.56326
G1 X174.877 Y145.959 E40.67391
G1 X176.244 Y145.231 E40.78867
G1 X177.562 Y144.474 E40.9013
G1 X178.841 Y143.687 E41.01258
G1 X180.108 Y142.849 E41.12514
G1 X181.365 Y141.959 E41.23926
G1 X182.57 Y141.047 E41.35125
G1 X183.744 Y140.099 E41.46306
G1 X184.909 Y139.095 E41.57702
G1 X186.162 Y137.946 E41.70299
G1 X186.175 Y137.934 E41.70431
G1 X186.959 Y137.23 E41.78238
G1 X187.899 Y136.463 E41.87228
G1 X188.872 Y135.746 E41.96184
G1 X189.883 Y135.073 E42.05184
G1 X190.922 Y134.453 E42.14149
G1 X191.992 Y133.882 E42.23137
G1 X193.088 Y133.364 E42.32119
G1 X194.205 Y132.902 E42.41076
G1 X195.347 Y132.492 E42.50067
G1 X196.507 Y132.14 E42.5905
G1 X197.679 Y131.844 E42.68007
G1 X198.869 Y131.604 E42.77003
G1 X200.067 Y131.423 E42.8598
G1 X201.272 Y131.3 E42.94956
G1 X202.483 Y131.236 E43.03942
G1 X203.692 Y131.231 E43.12901
G1 X204.904 Y131.284 E43.2189
G1 X206.111 Y131.396 E43.30872
G1 X207.308 Y131.567 E43.39832
G1 X208.5 Y131.795 E43.48825
G1 X209.677 Y132.081 E43.578
G1 X210.839 Y132.424 E43.66778
G1 X211.982 Y132.822 E43.75747
G1 X213.107 Y133.276 E43.84736
G1 X214.205 Y133.783 E43.93698
G1 X215.281 Y134.344 E44.02689
G1 X216.323 Y134.955 E44.1164
G1 X217.341 Y135.618 E44.20642
G1 X218.321 Y136.327 E44.29605
G1 X219.268 Y137.084 E44.38589
G1 X220.175 Y137.886 E44.4756
G1 X221.043 Y138.731 E44.56537
G1 X221.871 Y139.618 E44.65528
G1 X222.652 Y140.543 E44.74499
G1 X223.389 Y141.507 E44.8349
G1 X224.077 Y142.503 E44.9246
G1 X224.716 Y143.531 E45.0143
G1 X225.306 Y144.59 E45.10412
G1 X225.842 Y145.676 E45.19386
G1 X226.325 Y146.787 E45.28363
G1 X226.754 Y147.919 E45.37333
G1 X227.129 Y149.075 E45.46339
G1 X227.443 Y150.238 E45.55265
G1 X227.706 Y151.425 E45.64274
G1 X227.907 Y152.618 E45.73239
G1 X228.053 Y153.824 E45.82241
G1 X228.137 Y155.031 E45.91206
G1 X228.164 Y156.141 E45.99434
G1 X228.165 Y156.19 E45.99797
G1 X228.187 Y175.464 E47.42617
G1 X228.191 Y175.503 E47.42908
G1 X228.191 Y178.122 E47.62314
G1 X228.151 Y178.529 E47.65345
G1 X228.033 Y178.921 E47.68378
G1 X227.841 Y179.283 E47.71415
G1 X227.582 Y179.6 E47.74448
G1 X227.267 Y179.862 E47.77484
G1 X226.907 Y180.057 E47.80518
G1 X226.516 Y180.178 E47.83551
G1 X226.098 Y180.222 E47.86665
G1 X225.499 Y180.224 E47.91104
G1 X225.483 Y180.223 E47.91222
G1 X182.143 Y180.05 E51.12374
G1 X181.735 Y180.008 E51.15413
G1 X181.344 Y179.889 E51.18442
G1 X180.983 Y179.695 E51.21479
G1 X180.667 Y179.435 E51.24511
G1 X180.649 Y179.413 E51.24722
G1 X152.861 Y179.41 E53.3063
G1 X149.335 Y179.321 E53.56766
G1 X149.172 Y179.31 E53.57977
G1 X149.159 Y179.309 E53.58074
G1 X145.555 Y179.042 E53.84852
G1 X142.123 Y178.622 E54.10473
G1 X141.889 Y178.587 E54.12226
G1 X141.856 Y178.582 E54.12474
G1 X139.218 Y178.143 E54.3229
G1 X138.962 Y178.092 E54.34224
G1 X138.951 Y178.089 E54.34309
G1 X136.504 Y177.588 E54.52817
G1 X136.456 Y177.578 E54.53181
G1 X136.19 Y177.517 E54.55203
G1 X136.166 Y177.511 E54.55386
G1 X134.233 Y177.044 E54.70122
G1 X134.234 Y177.038 E54.70167
G1 X134.178 Y177.031 E54.70585
G1 X132.205 Y176.497 E54.85731
G1 X130.245 Y175.91 E55.00892
G1 X128.304 Y175.271 E55.16034
G1 X126.379 Y174.58 E55.31189
G1 X124.475 Y173.838 E55.46332
G1 X122.587 Y173.043 E55.61511
G1 X120.727 Y172.199 E55.76646
G1 X118.887 Y171.306 E55.91802
G1 X117.075 Y170.364 E56.06935
G1 X115.283 Y169.372 E56.22112
G1 X113.524 Y168.333 E56.3725
