;FLAVOR:Marlin
;TIME:11774
;Filament used: 12.1039m
;Layer height: 0.28
;MINX:65.658
;MINY:56.48
;MINZ:0.3
;MAXX:234.343
;MAXY:243.521
;MAXZ:31.94
;Generated with Cura_SteamEngine 4.6.0
M140 S80
M105
M190 S80
M104 S230
M105
M109 S230
M82 ;absolute extrusion mode
G28 ; home all axes
 M117 Purge extruder
 G92 E0 ; reset extruder
 G1 Z1.0 F3000 ; move z up little to prevent scratching of surface
 G1 X2 Y20 Z0.3 F5000.0 ; move to start-line position
 G1 X2 Y200.0 Z0.3 F1500.0 E15 ; draw 1st line
 G1 X2 Y200.0 Z0.4 F5000.0 ; move to side a little
 G1 X2 Y20 Z0.4 F1500.0 E30 ; draw 2nd line
 G92 E0 ; reset extruder
 G1 Z1.0 F3000 ; move z up little to prevent scratching of surface
G92 E0
G92 E0
G1 F1500 E-6.5
;LAYER_COUNT:114
;LAYER:0
M107
G0 F6000 X92.886 Y82.864 Z0.3
;TYPE:SKIRT
G1 F1500 E0
G1 F1200 X93.094 Y82.639 E0.01682
G1 X95.015 Y80.645 E0.16877
G1 X95.23 Y80.431 E0.18541
G1 X97.444 Y78.305 E0.35386
G1 X99.508 Y76.46 E0.50579
G1 X99.739 Y76.261 E0.52252
G1 X101.869 Y74.496 E0.67433
G1 X102.109 Y74.305 E0.69117
G1 X104.306 Y72.62 E0.84311
G1 X104.549 Y72.441 E0.85968
G1 X106.805 Y70.84 E1.01149
G1 X107.056 Y70.669 E1.02816
G1 X109.372 Y69.152 E1.1801
G1 X109.633 Y68.988 E1.19702
G1 X112.003 Y67.561 E1.34884
G1 X112.263 Y67.411 E1.36531
G1 X114.686 Y66.071 E1.51726
G1 X114.958 Y65.927 E1.53415
G1 X117.429 Y64.68 E1.68605
G1 X117.7 Y64.549 E1.70257
G1 X120.214 Y63.395 E1.85437
G1 X120.494 Y63.273 E1.87113
G1 X123.05 Y62.214 E2.02297
G1 X123.335 Y62.112 E2.03958
G1 X123.332 Y62.104 E2.04005
G1 X125.928 Y61.14 E2.19202
G1 X126.219 Y61.038 E2.20894
G1 X128.849 Y60.173 E2.36088
G1 X129.138 Y60.084 E2.37748
G1 X131.796 Y59.318 E2.52928
G1 X132.093 Y59.239 E2.54615
G1 X134.778 Y58.574 E2.69795
G1 X135.071 Y58.507 E2.71445
G1 X137.781 Y57.941 E2.86638
G1 X138.081 Y57.884 E2.88314
G1 X140.81 Y57.42 E3.03505
G1 X141.112 Y57.375 E3.05181
G1 X144.158 Y56.979 E3.22038
G1 X146.914 Y56.721 E3.37229
G1 X147.217 Y56.699 E3.38896
G1 X150.283 Y56.532 E3.55747
G1 X153.049 Y56.48 E3.70929
G1 X153.855 Y56.505 E3.75354
G1 X154.655 Y56.61 E3.79782
G1 X155.441 Y56.793 E3.84211
G1 X156.205 Y57.053 E3.8864
G1 X156.939 Y57.387 E3.93066
G1 X157.636 Y57.793 E3.97492
G1 X158.29 Y58.265 E4.01919
G1 X158.997 Y58.902 E4.07141
G1 X217.39 Y118.094 E8.63446
G1 X227.696 Y128.541 E9.43981
G1 X227.965 Y128.828 E9.46139
G1 X228.933 Y129.909 E9.54103
G1 X229.434 Y130.527 E9.58469
G1 X230.293 Y131.699 E9.66443
G1 X230.729 Y132.358 E9.7078
G1 X231.47 Y133.607 E9.78749
G1 X231.841 Y134.309 E9.83107
G1 X232.457 Y135.625 E9.91081
G1 X232.757 Y136.356 E9.95417
G1 X233.243 Y137.727 E10.034
G1 X233.471 Y138.483 E10.07734
G1 X233.821 Y139.891 E10.15696
G1 X233.975 Y140.672 E10.20064
G1 X234.186 Y142.109 E10.28035
G1 X234.263 Y142.9 E10.32396
G1 X234.333 Y144.351 E10.40369
G1 X234.342 Y144.743 E10.42521
G1 X234.343 Y212.619 E14.15019
G1 X234.303 Y213.425 E14.19447
G1 X234.184 Y214.222 E14.2387
G1 X233.986 Y215.004 E14.28297
G1 X233.711 Y215.763 E14.32727
G1 X233.363 Y216.491 E14.37155
G1 X232.945 Y217.181 E14.41583
G1 X232.46 Y217.826 E14.46011
G1 X231.914 Y218.419 E14.50435
G1 X231.312 Y218.956 E14.54862
G1 X230.659 Y219.431 E14.59294
G1 X229.963 Y219.838 E14.63718
G1 X229.23 Y220.175 E14.68146
G1 X228.467 Y220.438 E14.72575
G1 X227.682 Y220.623 E14.77001
G1 X227.568 Y220.638 E14.77632
G1 X227.277 Y221.026 E14.80294
G1 X226.73 Y221.618 E14.84717
G1 X226.127 Y222.154 E14.89145
G1 X225.588 Y222.552 E14.92822
G1 X225.483 Y222.623 E14.93517
G1 X225.475 Y222.628 E14.93569
G1 X196.564 Y242.129 E16.8495
G1 X195.874 Y242.547 E16.89377
G1 X195.145 Y242.894 E16.93808
G1 X194.386 Y243.167 E16.98235
G1 X193.604 Y243.364 E17.0266
G1 X192.806 Y243.482 E17.07087
G1 X192 Y243.521 E17.11516
G1 X191.194 Y243.48 E17.15945
G1 X190.397 Y243.359 E17.20369
G1 X189.615 Y243.16 E17.24797
G1 X188.857 Y242.885 E17.29222
G1 X188.13 Y242.535 E17.3365
G1 X187.44 Y242.116 E17.3808
G1 X186.796 Y241.63 E17.42508
G1 X186.203 Y241.083 E17.46935
G1 X185.667 Y240.48 E17.51363
G1 X185.264 Y239.933 E17.55092
G1 X172.33 Y220.759 E18.82019
G1 X153.049 Y220.758 E19.87832
G1 X150.283 Y220.706 E20.03014
G1 X149.98 Y220.694 E20.04678
G1 X147.216 Y220.539 E20.19871
G1 X146.913 Y220.517 E20.21538
G1 X144.159 Y220.259 E20.36718
G1 X143.854 Y220.224 E20.38403
G1 X141.109 Y219.862 E20.53598
G1 X140.81 Y219.817 E20.55257
G1 X138.083 Y219.354 E20.70437
G1 X137.785 Y219.298 E20.72101
G1 X135.075 Y218.733 E20.87293
G1 X134.772 Y218.664 E20.88998
G1 X132.085 Y217.996 E21.04193
G1 X131.798 Y217.918 E21.05825
G1 X129.14 Y217.153 E21.21004
G1 X128.846 Y217.063 E21.22692
G1 X126.218 Y216.198 E21.37875
G1 X125.935 Y216.099 E21.3952
G1 X123.339 Y215.137 E21.54714
G1 X123.048 Y215.023 E21.56429
G1 X120.49 Y213.962 E21.71627
G1 X120.218 Y213.843 E21.73256
G1 X117.704 Y212.691 E21.88432
G1 X117.425 Y212.557 E21.90131
G1 X114.956 Y211.31 E22.05311
G1 X114.696 Y211.162 E22.06952
G1 X114.692 Y211.169 E22.06997
G1 X112.268 Y209.831 E22.22191
G1 X111.997 Y209.675 E22.23907
G1 X109.627 Y208.245 E22.39098
G1 X109.377 Y208.087 E22.40721
G1 X107.062 Y206.573 E22.55901
G1 X106.805 Y206.398 E22.57608
G1 X104.547 Y204.795 E22.72804
G1 X104.304 Y204.616 E22.74461
G1 X102.109 Y202.932 E22.89643
G1 X101.871 Y202.743 E22.91311
G1 X99.739 Y200.977 E23.06504
G1 X99.507 Y200.777 E23.08185
G1 X97.445 Y198.934 E23.23363
G1 X97.222 Y198.727 E23.25032
G1 X95.228 Y196.806 E23.40227
G1 X95.014 Y196.591 E23.41892
G1 X93.095 Y194.599 E23.57072
G1 X92.887 Y194.375 E23.58749
G1 X90.844 Y192.081 E23.75607
G1 X89.079 Y189.951 E23.90788
G1 X88.89 Y189.714 E23.92452
G1 X87.204 Y187.518 E24.07645
G1 X87.021 Y187.27 E24.09337
G1 X86.538 Y186.589 E24.13919
G1 X86.44 Y186.619 E24.14481
G1 X86.439 Y186.616 E24.14498
G1 X85.743 Y186.802 E24.18452
G1 X84.946 Y186.932 E24.22884
G1 X84.141 Y186.983 E24.2731
G1 X83.335 Y186.954 E24.31737
G1 X82.536 Y186.845 E24.36162
G1 X81.751 Y186.658 E24.40591
G1 X80.989 Y186.394 E24.45016
G1 X80.256 Y186.056 E24.49446
G1 X79.561 Y185.647 E24.53872
G1 X78.91 Y185.171 E24.58297
G1 X78.309 Y184.633 E24.62724
G1 X77.764 Y184.038 E24.67152
G1 X77.28 Y183.392 E24.71582
G1 X76.863 Y182.702 E24.76006
G1 X76.517 Y181.973 E24.80435
G1 X76.233 Y181.179 E24.85063
G1 X66.014 Y147.753 E26.76883
G1 X65.816 Y146.971 E26.8131
G1 X65.697 Y146.173 E26.85738
G1 X65.658 Y145.367 E26.90166
G1 X65.699 Y144.561 E26.94595
G1 X65.819 Y143.764 E26.99018
G1 X66.017 Y142.982 E27.03445
G1 X66.292 Y142.223 E27.07876
G1 X66.641 Y141.496 E27.12301
G1 X67.06 Y140.806 E27.16731
G1 X67.545 Y140.162 E27.21156
G1 X68.091 Y139.568 E27.25584
G1 X68.694 Y139.032 E27.30011
G1 X69.347 Y138.558 E27.34439
G1 X70.043 Y138.151 E27.38864
G1 X70.776 Y137.815 E27.43289
G1 X71.077 Y137.709 E27.4504
G1 X71.115 Y135.699 E27.56073
G1 X71.127 Y135.396 E27.57737
G1 X71.282 Y132.634 E27.72919
G1 X71.305 Y132.328 E27.74603
G1 X71.564 Y129.572 E27.89794
G1 X71.598 Y129.272 E27.91451
G1 X71.959 Y126.528 E28.0664
G1 X72.004 Y126.228 E28.08305
G1 X72.467 Y123.499 E28.23495
G1 X72.529 Y123.174 E28.25311
G1 X72.615 Y122.768 E28.27588
G1 X73.089 Y120.491 E28.40352
G1 X73.157 Y120.191 E28.4204
G1 X73.823 Y117.506 E28.57222
G1 X73.902 Y117.213 E28.58887
G1 X74.668 Y114.554 E28.74073
G1 X74.758 Y114.263 E28.75745
G1 X75.623 Y111.634 E28.90933
G1 X75.723 Y111.347 E28.92601
G1 X76.685 Y108.754 E29.07779
G1 X76.797 Y108.469 E29.0946
G1 X77.857 Y105.911 E29.24655
G1 X77.979 Y105.632 E29.26327
G1 X79.133 Y103.117 E29.41512
G1 X79.264 Y102.845 E29.43169
G1 X80.511 Y100.374 E29.58359
G1 X80.653 Y100.105 E29.60028
G1 X81.991 Y97.683 E29.75213
G1 X82.144 Y97.417 E29.76897
G1 X83.573 Y95.046 E29.9209
G1 X83.735 Y94.789 E29.93757
G1 X85.25 Y92.475 E30.08935
G1 X85.421 Y92.224 E30.10602
G1 X87.023 Y89.966 E30.25796
G1 X87.205 Y89.72 E30.27475
G1 X88.889 Y87.526 E30.42654
G1 X89.079 Y87.288 E30.44325
G1 X90.846 Y85.156 E30.59521
G1 X91.043 Y84.927 E30.61179
G1 X92.886 Y82.864 E30.7636
G0 F6000 X93.214 Y83.157
G1 F1200 X93.411 Y82.945 E30.77949
G1 X95.332 Y80.951 E30.93144
G1 X95.535 Y80.748 E30.94719
G1 X97.737 Y78.633 E31.11475
G1 X99.801 Y76.788 E31.26668
G1 X100.02 Y76.6 E31.28252
G1 X102.15 Y74.835 E31.43433
G1 X102.377 Y74.654 E31.45026
G1 X104.574 Y72.969 E31.60221
G1 X104.804 Y72.8 E31.61787
G1 X107.06 Y71.199 E31.76969
G1 X107.297 Y71.037 E31.78544
G1 X109.86 Y69.364 E31.95341
G1 X112.23 Y67.937 E32.10523
G1 X112.476 Y67.796 E32.12079
G1 X114.899 Y66.456 E32.27274
G1 X115.156 Y66.32 E32.2887
G1 X117.627 Y65.073 E32.4406
G1 X117.884 Y64.949 E32.45626
G1 X120.398 Y63.795 E32.60806
G1 X120.663 Y63.679 E32.62394
G1 X123.219 Y62.62 E32.77577
G1 X123.489 Y62.524 E32.7915
G1 X123.486 Y62.517 E32.79192
G1 X126.356 Y61.456 E32.95984
G1 X128.986 Y60.591 E33.11178
G1 X129.26 Y60.507 E33.1275
G1 X131.918 Y59.741 E33.27931
G1 X132.199 Y59.666 E33.29527
G1 X134.884 Y59.001 E33.44707
G1 X135.161 Y58.938 E33.46266
G1 X138.154 Y58.318 E33.6304
G1 X140.883 Y57.854 E33.78232
G1 X141.169 Y57.811 E33.79819
G1 X143.912 Y57.45 E33.95002
G1 X144.199 Y57.418 E33.96587
G1 X147.242 Y57.138 E34.13357
G1 X150.005 Y56.983 E34.28544
G1 X150.291 Y56.972 E34.30115
G1 X153.057 Y56.92 E34.45297
G1 X153.841 Y56.946 E34.49602
G1 X154.619 Y57.051 E34.5391
G1 X155.382 Y57.234 E34.58217
G1 X156.122 Y57.494 E34.62521
G1 X156.832 Y57.828 E34.66827
G1 X157.504 Y58.233 E34.71133
G1 X158.132 Y58.704 E34.75441
G1 X158.684 Y59.211 E34.79554
G1 X217.077 Y118.403 E39.35859
G1 X227.383 Y128.85 E40.16394
G1 X227.637 Y129.121 E40.18432
G1 X228.605 Y130.202 E40.26395
G1 X229.079 Y130.787 E40.30527
G1 X229.938 Y131.959 E40.38502
G1 X230.35 Y132.582 E40.42601
G1 X231.091 Y133.831 E40.50571
G1 X231.443 Y134.496 E40.547
G1 X232.059 Y135.812 E40.62674
G1 X232.343 Y136.503 E40.66774
G1 X232.829 Y137.874 E40.74757
G1 X233.044 Y138.589 E40.78854
G1 X233.394 Y139.997 E40.86816
G1 X233.539 Y140.736 E40.90949
G1 X233.75 Y142.173 E40.9892
G1 X233.823 Y142.921 E41.03044
G1 X233.893 Y144.372 E41.11016
G1 X233.902 Y144.743 E41.13053
G1 X233.903 Y212.619 E44.85551
G1 X233.863 Y213.402 E44.89854
G1 X233.744 Y214.178 E44.94162
G1 X233.546 Y214.937 E44.98467
G1 X233.272 Y215.672 E45.02772
G1 X232.924 Y216.376 E45.07082
G1 X232.507 Y217.04 E45.11385
G1 X232.024 Y217.659 E45.15693
G1 X231.481 Y218.225 E45.19998
G1 X230.883 Y218.733 E45.24304
G1 X230.237 Y219.178 E45.28609
G1 X229.549 Y219.554 E45.32912
G1 X228.825 Y219.859 E45.37223
G1 X228.075 Y220.088 E45.41527
G1 X227.321 Y220.237 E45.45745
G1 X227.25 Y220.345 E45.46454
G1 X226.756 Y220.955 E45.50762
G1 X226.203 Y221.511 E45.55065
G1 X225.341 Y222.188 E45.6108
G1 X225.236 Y222.259 E45.61776
G1 X225.229 Y222.264 E45.61823
G1 X196.318 Y241.765 E47.53204
G1 X195.646 Y242.17 E47.5751
G1 X194.936 Y242.504 E47.61816
G1 X194.196 Y242.765 E47.66122
G1 X193.433 Y242.949 E47.7043
G1 X192.656 Y243.054 E47.74732
G1 X191.872 Y243.08 E47.79037
G1 X191.089 Y243.025 E47.83345
G1 X190.316 Y242.892 E47.87649
G1 X189.56 Y242.68 E47.91958
G1 X188.83 Y242.393 E47.96263
G1 X188.133 Y242.033 E48.00568
G1 X187.476 Y241.603 E48.04877
G1 X186.867 Y241.11 E48.09177
G1 X186.31 Y240.556 E48.13489
G1 X185.629 Y239.687 E48.19548
G1 X172.564 Y220.319 E49.4776
G1 X153.057 Y220.318 E50.54813
G1 X150.291 Y220.266 E50.69995
G1 X150.005 Y220.255 E50.71566
G1 X147.241 Y220.1 E50.86758
G1 X146.954 Y220.078 E50.88338
G1 X143.911 Y219.788 E51.05113
G1 X141.166 Y219.426 E51.20308
G1 X140.884 Y219.383 E51.21874
G1 X137.874 Y218.867 E51.38633
G1 X135.164 Y218.302 E51.53825
G1 X134.878 Y218.237 E51.55435
G1 X132.191 Y217.569 E51.7063
G1 X131.919 Y217.496 E51.72175
G1 X129.261 Y216.731 E51.87354
G1 X128.984 Y216.645 E51.88946
G1 X126.356 Y215.78 E52.04129
G1 X126.087 Y215.686 E52.05693
G1 X123.491 Y214.724 E52.20887
G1 X123.217 Y214.616 E52.22503
G1 X120.401 Y213.443 E52.39244
G1 X117.887 Y212.291 E52.5442
G1 X117.624 Y212.164 E52.56023
G1 X115.155 Y210.917 E52.71203
G1 X114.909 Y210.777 E52.72756
G1 X114.905 Y210.784 E52.728
G1 X112.481 Y209.446 E52.87995
G1 X112.224 Y209.298 E52.89623
G1 X109.854 Y207.868 E53.04813
G1 X109.618 Y207.719 E53.06345
G1 X107.303 Y206.205 E53.21525
G1 X107.06 Y206.04 E53.23137
G1 X104.802 Y204.437 E53.38334
G1 X104.572 Y204.267 E53.39904
G1 X102.377 Y202.583 E53.55086
G1 X102.152 Y202.404 E53.56664
G1 X100.02 Y200.638 E53.71857
G1 X99.801 Y200.449 E53.73445
G1 X97.739 Y198.606 E53.88622
G1 X97.528 Y198.41 E53.90202
G1 X95.534 Y196.489 E54.05397
G1 X95.331 Y196.286 E54.06973
G1 X93.412 Y194.294 E54.22152
G1 X93.215 Y194.082 E54.23741
G1 X91.37 Y192.017 E54.38937
G1 X91.183 Y191.8 E54.4051
G1 X89.418 Y189.67 E54.5569
G1 X89.239 Y189.446 E54.57264
G1 X87.553 Y187.25 E54.72458
G1 X87.38 Y187.015 E54.74059
G1 X86.713 Y186.075 E54.80385
G1 X86.403 Y186.17 E54.82164
G1 X86.311 Y186.198 E54.82692
G1 X86.31 Y186.195 E54.82709
G1 X85.629 Y186.376 E54.86576
G1 X84.854 Y186.5 E54.90883
G1 X84.071 Y186.544 E54.95187
G1 X83.287 Y186.508 E54.99494
G1 X82.511 Y186.392 E55.038
G1 X81.751 Y186.199 E55.08103
G1 X81.014 Y185.928 E55.12413
G1 X80.309 Y185.585 E55.16715
G1 X79.642 Y185.171 E55.21024
G1 X79.021 Y184.691 E55.25331
G1 X78.452 Y184.151 E55.29636
G1 X77.941 Y183.556 E55.3394
G1 X77.493 Y182.912 E55.38245
G1 X77.113 Y182.225 E55.42554
G1 X76.805 Y181.504 E55.46857
G1 X76.653 Y181.05 E55.49484
G1 X66.434 Y147.624 E57.41304
G1 X66.244 Y146.863 E57.45609
G1 X66.131 Y146.087 E57.49913
G1 X66.098 Y145.303 E57.54219
G1 X66.145 Y144.52 E57.58524
G1 X66.272 Y143.745 E57.62834
G1 X66.477 Y142.988 E57.67138
G1 X66.757 Y142.255 E57.71444
G1 X67.111 Y141.555 E57.75749
G1 X67.535 Y140.894 E57.80058
G1 X68.023 Y140.28 E57.84362
G1 X68.571 Y139.719 E57.88666
G1 X69.174 Y139.216 E57.92976
G1 X69.824 Y138.778 E57.97277
G1 X70.516 Y138.407 E58.01586
G1 X71.511 Y138.023 E58.07439
G1 X71.555 Y135.707 E58.20151
G1 X71.566 Y135.421 E58.21722
G1 X71.721 Y132.659 E58.36904
G1 X71.743 Y132.37 E58.38494
G1 X72.002 Y129.614 E58.53686
G1 X72.034 Y129.33 E58.55254
G1 X72.437 Y126.302 E58.72018
G1 X72.9 Y123.573 E58.87208
G1 X72.959 Y123.265 E58.8893
G1 X73.045 Y122.859 E58.91207
G1 X73.584 Y120.297 E59.05575
G1 X74.25 Y117.612 E59.20756
G1 X74.325 Y117.334 E59.22337
G1 X75.091 Y114.675 E59.37522
G1 X75.176 Y114.4 E59.39102
G1 X76.041 Y111.771 E59.54291
G1 X76.136 Y111.5 E59.55867
G1 X77.098 Y108.907 E59.71045
G1 X77.204 Y108.637 E59.72636
G1 X78.264 Y106.079 E59.87832
G1 X78.379 Y105.816 E59.89407
G1 X79.533 Y103.301 E60.04593
G1 X79.657 Y103.043 E60.06164
G1 X80.904 Y100.572 E60.21354
G1 X81.038 Y100.318 E60.2293
G1 X82.376 Y97.896 E60.38115
G1 X82.521 Y97.644 E60.3971
G1 X83.95 Y95.273 E60.54903
G1 X84.103 Y95.03 E60.56479
G1 X85.618 Y92.716 E60.71657
G1 X85.78 Y92.478 E60.73237
G1 X87.382 Y90.22 E60.88431
G1 X87.554 Y89.988 E60.90016
G1 X89.417 Y87.568 E61.06776
G1 X91.184 Y85.436 E61.21973
G1 X91.371 Y85.22 E61.23541
G1 X93.214 Y83.157 E61.38722
G0 F6000 X93.542 Y83.45
G1 F1200 X93.728 Y83.25 E61.40221
G1 X95.84 Y81.064 E61.56902
G1 X97.832 Y79.145 E61.72081
G1 X98.031 Y78.961 E61.73569
G1 X100.095 Y77.116 E61.88762
G1 X100.301 Y76.939 E61.90252
G1 X102.645 Y75.003 E62.06936
G1 X105.058 Y73.158 E62.23606
G1 X107.314 Y71.557 E62.38787
G1 X107.538 Y71.405 E62.40273
G1 X110.087 Y69.741 E62.56979
G1 X112.457 Y68.314 E62.72161
G1 X112.688 Y68.181 E62.73624
G1 X115.111 Y66.841 E62.88819
G1 X115.354 Y66.713 E62.90326
G1 X118.067 Y65.349 E63.06991
G1 X120.581 Y64.195 E63.22171
G1 X120.831 Y64.086 E63.23668
G1 X123.387 Y63.027 E63.38851
G1 X123.642 Y62.937 E63.40335
G1 X123.639 Y62.929 E63.40382
G1 X126.494 Y61.874 E63.57086
G1 X129.124 Y61.009 E63.7228
G1 X129.382 Y60.93 E63.73761
G1 X132.04 Y60.164 E63.88941
G1 X132.305 Y60.093 E63.90447
G1 X135.251 Y59.368 E64.07096
G1 X137.961 Y58.802 E64.2229
G1 X138.228 Y58.752 E64.2378
G1 X141.227 Y58.247 E64.4047
G1 X143.97 Y57.886 E64.55654
G1 X144.24 Y57.856 E64.57144
G1 X147.266 Y57.577 E64.73821
G1 X150.029 Y57.422 E64.89008
G1 X150.3 Y57.412 E64.90496
G1 X153.066 Y57.36 E65.05679
G1 X153.827 Y57.386 E65.09858
G1 X154.581 Y57.491 E65.14035
G1 X155.321 Y57.675 E65.1822
G1 X156.037 Y57.935 E65.224
G1 X156.722 Y58.269 E65.26583
G1 X157.368 Y58.673 E65.30764
G1 X157.968 Y59.142 E65.34943
G1 X158.37 Y59.52 E65.37972
