;FLAVOR:Marlin
;TIME:14526
;Filament used: 14.3769m
;Layer height: 0.28
;MINX:67.36
;MINY:63.92
;MINZ:0.3
;MAXX:232.64
;MAXY:236.08
;MAXZ:31.94
;Generated with Cura_SteamEngine 4.6.0
M140 S80
M105
M190 S80
M104 S230
M105
M109 S230
M82 ;absolute extrusion mode
G28 ; home all axes
 M117 Purge extruder
 G92 E0 ; reset extruder
 G1 Z1.0 F3000 ; move z up little to prevent scratching of surface
 G1 X2 Y20 Z0.3 F5000.0 ; move to start-line position
 G1 X2 Y200.0 Z0.3 F1500.0 E15 ; draw 1st line
 G1 X2 Y200.0 Z0.4 F5000.0 ; move to side a little
 G1 X2 Y20 Z0.4 F1500.0 E30 ; draw 2nd line
 G92 E0 ; reset extruder
 G1 Z1.0 F3000 ; move z up little to prevent scratching of surface
G92 E0
G92 E0
G1 F1500 E-6.5
;LAYER_COUNT:114
;LAYER:0
M107
G0 F6000 X93.312 Y88.087 Z0.3
;TYPE:SKIRT
G1 F1500 E0
G1 F1200 X93.527 Y87.873 E0.01665
G1 X95.519 Y85.954 E0.16844
G1 X95.743 Y85.746 E0.18522
G1 X98.037 Y83.703 E0.3538
G1 X100.167 Y81.938 E0.50561
G1 X100.404 Y81.749 E0.52224
G1 X102.6 Y80.063 E0.67418
G1 X102.848 Y79.88 E0.6911
G1 X105.104 Y78.28 E0.84288
G1 X105.354 Y78.11 E0.85947
G1 X107.671 Y76.593 E1.01146
G1 X107.931 Y76.43 E1.0283
G1 X110.559 Y74.853 E1.19649
G1 X112.981 Y73.513 E1.3484
G1 X113.256 Y73.368 E1.36546
G1 X115.728 Y72.121 E1.5174
G1 X115.729 Y72.123 E1.51753
G1 X116.001 Y71.989 E1.53417
G1 X118.515 Y70.836 E1.68595
G1 X118.792 Y70.715 E1.70254
G1 X121.348 Y69.656 E1.85437
G1 X121.632 Y69.554 E1.87093
G1 X121.629 Y69.546 E1.8714
G1 X124.224 Y68.582 E2.02332
G1 X124.516 Y68.48 E2.0403
G1 X127.146 Y67.615 E2.19224
G1 X127.435 Y67.526 E2.20883
G1 X130.093 Y66.76 E2.36064
G1 X130.39 Y66.681 E2.3775
G1 X133.075 Y66.016 E2.52931
G1 X133.368 Y65.949 E2.5458
G1 X136.079 Y65.383 E2.69779
G1 X136.379 Y65.326 E2.71454
G1 X139.108 Y64.862 E2.86646
G1 X139.41 Y64.817 E2.88321
G1 X142.153 Y64.456 E3.03505
G1 X142.453 Y64.422 E3.05162
G1 X145.209 Y64.163 E3.20353
G1 X145.515 Y64.14 E3.22037
G1 X148.58 Y63.973 E3.38882
G1 X151.5 Y63.92 E3.5491
G1 X201.793 Y63.925 E6.30914
G1 X203.433 Y63.984 E6.3992
G1 X204.013 Y64.026 E6.43111
G1 X205.645 Y64.202 E6.52119
G1 X206.214 Y64.284 E6.55274
G1 X207.831 Y64.575 E6.64291
G1 X207.828 Y64.592 E6.64386
G1 X208.406 Y64.699 E6.67611
G1 X209.997 Y65.106 E6.76624
G1 X210.551 Y65.269 E6.79793
G1 X212.11 Y65.788 E6.8881
G1 X212.656 Y65.991 E6.92007
G1 X214.171 Y66.619 E7.01007
G1 X214.694 Y66.858 E7.04163
G1 X216.164 Y67.593 E7.13183
G1 X216.678 Y67.874 E7.16397
G1 X218.09 Y68.712 E7.25408
G1 X218.578 Y69.025 E7.2859
G1 X219.925 Y69.96 E7.37588
G1 X220.384 Y70.313 E7.40766
G1 X220.388 Y70.308 E7.40801
G1 X221.667 Y71.338 E7.49813
G1 X222.11 Y71.722 E7.53031
G1 X223.311 Y72.841 E7.62039
G1 X223.72 Y73.251 E7.65217
G1 X224.839 Y74.453 E7.7423
G1 X225.218 Y74.89 E7.77405
G1 X226.249 Y76.169 E7.8642
G1 X226.248 Y76.17 E7.86428
G1 X226.29 Y76.218 E7.86778
G1 X226.599 Y76.634 E7.89622
G1 X227.535 Y77.982 E7.98628
G1 X227.849 Y78.471 E8.01817
G1 X228.687 Y79.883 E8.10828
G1 X228.968 Y80.397 E8.14043
G1 X229.703 Y81.867 E8.23062
G1 X229.942 Y82.39 E8.26218
G1 X230.57 Y83.905 E8.35218
G1 X230.774 Y84.454 E8.38432
G1 X231.292 Y86.012 E8.47443
G1 X231.454 Y86.563 E8.50595
G1 X231.861 Y88.154 E8.59607
G1 X231.977 Y88.724 E8.62799
G1 X231.984 Y88.723 E8.62838
G1 X232.276 Y90.338 E8.71845
G1 X232.36 Y90.919 E8.75066
G1 X232.535 Y92.553 E8.84085
G1 X232.576 Y93.127 E8.87243
G1 X232.635 Y94.767 E8.96249
G1 X232.64 Y95.06 E8.97857
G1 X232.64 Y197.059 E14.5762
G1 X232.635 Y197.351 E14.59223
G1 X232.576 Y198.992 E14.68234
G1 X232.535 Y199.567 E14.71398
G1 X232.36 Y201.2 E14.80411
G1 X232.276 Y201.78 E14.83627
G1 X231.984 Y203.396 E14.92639
G1 X231.967 Y203.393 E14.92734
G1 X231.861 Y203.966 E14.95932
G1 X231.454 Y205.557 E15.04944
G1 X231.293 Y206.105 E15.08079
G1 X230.776 Y207.662 E15.17082
G1 X230.57 Y208.215 E15.20321
G1 X229.941 Y209.732 E15.29333
G1 X229.704 Y210.252 E15.32469
G1 X228.97 Y211.721 E15.41481
G1 X228.688 Y212.237 E15.44708
G1 X227.85 Y213.649 E15.53719
G1 X227.536 Y214.139 E15.56913
G1 X226.599 Y215.488 E15.65927
G1 X226.245 Y215.947 E15.69108
G1 X226.25 Y215.951 E15.69143
G1 X225.22 Y217.229 E15.78151
G1 X224.84 Y217.667 E15.81333
G1 X223.721 Y218.869 E15.90346
G1 X223.312 Y219.279 E15.93524
G1 X222.111 Y220.398 E16.02532
G1 X221.668 Y220.781 E16.05746
G1 X220.388 Y221.812 E16.14766
G1 X220.387 Y221.811 E16.14774
G1 X220.342 Y221.851 E16.15104
G1 X219.925 Y222.161 E16.17956
G1 X218.578 Y223.096 E16.26954
G1 X218.09 Y223.409 E16.30136
G1 X216.678 Y224.247 E16.39147
G1 X216.164 Y224.528 E16.42362
G1 X214.694 Y225.263 E16.51381
G1 X214.168 Y225.503 E16.54554
G1 X213.941 Y225.597 E16.55902
G1 X213.941 Y225.596 E16.55908
G1 X212.656 Y226.129 E16.63542
G1 X212.11 Y226.333 E16.66741
G1 X210.551 Y226.852 E16.75758
G1 X209.997 Y227.015 E16.78928
G1 X208.406 Y227.422 E16.8794
G1 X207.83 Y227.539 E16.91166
G1 X207.831 Y227.546 E16.91204
G1 X206.214 Y227.837 E17.00221
G1 X205.645 Y227.919 E17.03376
G1 X204.013 Y228.095 E17.12384
G1 X203.428 Y228.137 E17.15603
G1 X201.788 Y228.195 E17.24609
G1 X201.5 Y228.2 E17.26189
G1 X180.613 Y228.2 E18.40816
G1 X156.002 Y235.724 E19.8205
G1 X155.22 Y235.922 E19.86477
G1 X154.422 Y236.041 E19.90904
G1 X153.616 Y236.08 E19.95333
G1 X152.81 Y236.039 E19.99762
G1 X152.013 Y235.919 E20.04185
G1 X151.231 Y235.721 E20.08612
G1 X150.472 Y235.446 E20.13042
G1 X149.745 Y235.097 E20.17468
G1 X149.055 Y234.678 E20.21898
G1 X148.411 Y234.193 E20.26322
G1 X147.817 Y233.647 E20.3075
G1 X147.281 Y233.044 E20.35178
G1 X146.807 Y232.391 E20.39606
G1 X146.4 Y231.695 E20.44031
G1 X146.064 Y230.962 E20.48456
G1 X145.837 Y230.319 E20.52198
G1 X145.113 Y227.949 E20.65798
G1 X142.155 Y227.666 E20.82105
G1 X139.41 Y227.305 E20.97299
G1 X139.106 Y227.259 E20.98986
G1 X136.379 Y226.795 E21.14167
G1 X136.083 Y226.739 E21.1582
G1 X133.372 Y226.174 E21.31018
G1 X133.072 Y226.105 E21.32707
G1 X130.385 Y225.438 E21.47901
G1 X130.095 Y225.36 E21.49549
G1 X127.437 Y224.595 E21.64728
G1 X127.143 Y224.505 E21.66415
G1 X124.515 Y223.64 E21.81599
G1 X124.228 Y223.539 E21.83268
G1 X121.633 Y222.576 E21.98458
G1 X121.349 Y222.465 E22.00132
G1 X118.791 Y221.405 E22.15327
G1 X118.514 Y221.284 E22.16986
G1 X116 Y220.131 E22.32165
G1 X115.727 Y220 E22.33827
G1 X113.257 Y218.754 E22.49009
G1 X112.99 Y218.602 E22.50695
G1 X112.986 Y218.609 E22.50739
G1 X110.563 Y217.27 E22.65932
G1 X110.297 Y217.117 E22.67616
G1 X107.927 Y215.688 E22.82803
G1 X107.674 Y215.529 E22.84443
G1 X105.358 Y214.014 E22.99631
G1 X105.104 Y213.841 E23.01318
G1 X102.846 Y212.239 E23.16511
G1 X102.6 Y212.057 E23.18191
G1 X100.406 Y210.373 E23.33369
G1 X100.168 Y210.183 E23.3504
G1 X98.036 Y208.416 E23.50237
G1 X97.807 Y208.219 E23.51895
G1 X95.744 Y206.376 E23.67076
G1 X95.519 Y206.168 E23.68758
G1 X93.525 Y204.247 E23.83953
G1 X93.311 Y204.032 E23.85617
G1 X91.185 Y201.818 E24.02462
G1 X89.34 Y199.754 E24.17655
G1 X89.14 Y199.521 E24.1934
G1 X87.187 Y197.155 E24.36177
G1 X85.501 Y194.958 E24.51375
G1 X85.321 Y194.713 E24.53043
G1 X83.72 Y192.457 E24.68225
G1 X83.547 Y192.204 E24.69907
G1 X82.031 Y189.888 E24.85098
G1 X81.87 Y189.631 E24.86762
G1 X80.442 Y187.261 E25.01947
G1 X80.29 Y186.998 E25.03614
G1 X78.951 Y184.576 E25.18802
G1 X78.809 Y184.307 E25.20471
G1 X77.562 Y181.837 E25.35656
G1 X77.429 Y181.56 E25.37342
G1 X76.154 Y178.768 E25.54186
G1 X75.095 Y176.213 E25.69365
G1 X74.983 Y175.927 E25.7105
G1 X74.02 Y173.331 E25.86246
G1 X73.919 Y173.042 E25.87926
G1 X73.055 Y170.414 E26.03107
G1 X72.966 Y170.125 E26.04767
G1 X72.2 Y167.466 E26.19953
G1 X72.122 Y167.175 E26.21606
G1 X71.638 Y165.225 E26.32632
G1 X71.628 Y165.22 E26.32694
G1 X70.938 Y164.802 E26.37121
G1 X70.293 Y164.317 E26.4155
G1 X69.7 Y163.771 E26.45973
G1 X69.163 Y163.169 E26.50401
G1 X68.688 Y162.516 E26.54832
G1 X68.281 Y161.82 E26.59257
G1 X67.944 Y161.087 E26.63684
G1 X67.681 Y160.324 E26.68113
G1 X67.496 Y159.539 E26.72539
G1 X67.388 Y158.74 E26.76964
G1 X67.36 Y158.06 E26.80699
G1 X67.36 Y123.06 E28.72776
G1 X67.4 Y122.254 E28.77205
G1 X67.52 Y121.456 E28.81633
G1 X67.717 Y120.674 E28.86059
G1 X67.992 Y119.916 E28.90484
G1 X68.34 Y119.188 E28.94912
G1 X68.758 Y118.498 E28.9934
G1 X69.243 Y117.853 E29.03769
G1 X69.789 Y117.26 E29.08192
G1 X70.391 Y116.723 E29.12619
G1 X71.044 Y116.248 E29.17051
G1 X71.74 Y115.841 E29.21476
G1 X72.473 Y115.504 E29.25903
G1 X73.236 Y115.241 E29.30332
G1 X74.021 Y115.056 E29.34758
G1 X74.82 Y114.948 E29.39183
G1 X75.5 Y114.92 E29.42918
G1 X75.504 Y114.92 E29.4294
G1 X76.154 Y113.352 E29.52255
G1 X76.276 Y113.072 E29.53931
G1 X77.43 Y110.558 E29.69112
G1 X77.562 Y110.284 E29.70781
G1 X78.81 Y107.813 E29.85973
G1 X78.949 Y107.55 E29.87605
G1 X80.286 Y105.127 E30.02793
G1 X80.443 Y104.855 E30.04516
G1 X81.873 Y102.485 E30.19707
G1 X82.022 Y102.248 E30.21243
G1 X82.248 Y101.901 E30.23516
G1 X82.259 Y101.884 E30.23627
G1 X83.547 Y99.917 E30.3653
G1 X83.72 Y99.664 E30.38212
G1 X85.323 Y97.406 E30.53409
G1 X85.502 Y97.163 E30.55065
G1 X87.186 Y94.968 E30.70248
G1 X87.375 Y94.73 E30.71916
G1 X89.141 Y92.598 E30.87108
G1 X89.341 Y92.366 E30.88789
G1 X91.184 Y90.304 E31.03967
G1 X91.391 Y90.081 E31.05637
G1 X93.312 Y88.087 E31.20832
G0 F6000 X93.629 Y88.393
G1 F1200 X93.832 Y88.19 E31.22407
G1 X95.824 Y86.271 E31.37587
G1 X96.036 Y86.074 E31.39175
G1 X98.101 Y84.229 E31.54372
G1 X98.318 Y84.042 E31.55944
G1 X100.448 Y82.277 E31.71125
G1 X100.672 Y82.098 E31.72698
G1 X102.868 Y80.412 E31.87892
G1 X103.103 Y80.239 E31.89493
G1 X105.359 Y78.639 E32.04672
G1 X105.595 Y78.478 E32.0624
G1 X107.912 Y76.961 E32.21438
G1 X108.158 Y76.806 E32.23034
G1 X110.528 Y75.379 E32.38216
G1 X110.772 Y75.238 E32.39762
G1 X113.194 Y73.898 E32.54953
G1 X113.454 Y73.761 E32.56566
G1 X115.926 Y72.514 E32.7176
G1 X115.931 Y72.524 E32.71821
G1 X116.184 Y72.389 E32.73395
G1 X118.698 Y71.236 E32.88574
G1 X118.961 Y71.121 E32.90149
G1 X121.517 Y70.062 E33.05332
G1 X121.786 Y69.966 E33.069
G1 X121.783 Y69.959 E33.06942
G1 X124.653 Y68.898 E33.23734
G1 X127.283 Y68.033 E33.38928
G1 X127.557 Y67.949 E33.405
G1 X130.215 Y67.183 E33.55681
G1 X130.496 Y67.108 E33.57277
G1 X133.181 Y66.443 E33.72457
G1 X133.458 Y66.38 E33.74016
G1 X136.452 Y65.76 E33.90796
G1 X139.181 Y65.296 E34.05987
G1 X139.467 Y65.253 E34.07574
G1 X142.21 Y64.892 E34.22758
G1 X142.495 Y64.86 E34.24331
G1 X145.251 Y64.601 E34.39523
G1 X145.54 Y64.579 E34.41113
G1 X148.302 Y64.424 E34.56295
G1 X148.588 Y64.413 E34.57866
G1 X151.5 Y64.36 E34.73849
G1 X201.777 Y64.365 E37.49765
G1 X203.417 Y64.424 E37.58771
G1 X203.966 Y64.463 E37.61792
G1 X205.598 Y64.639 E37.708
G1 X206.136 Y64.717 E37.73783
G1 X207.629 Y64.986 E37.82109
G1 X207.753 Y65.008 E37.828
G1 X207.752 Y65.011 E37.82817
G1 X208.297 Y65.125 E37.85873
G1 X209.888 Y65.532 E37.94885
G1 X210.412 Y65.686 E37.97883
G1 X211.971 Y66.205 E38.069
G1 X212.488 Y66.398 E38.09928
G1 X214.003 Y67.026 E38.18929
G1 X214.498 Y67.252 E38.21915
G1 X215.968 Y67.987 E38.30934
G1 X216.454 Y68.252 E38.33972
G1 X217.866 Y69.09 E38.42983
G1 X218.327 Y69.387 E38.45993
G1 X219.674 Y70.322 E38.54991
G1 X220.108 Y70.656 E38.57997
G1 X220.112 Y70.651 E38.58032
G1 X221.391 Y71.681 E38.67044
G1 X221.81 Y72.044 E38.70086
G1 X223.011 Y73.163 E38.79095
G1 X223.398 Y73.55 E38.82098
G1 X224.517 Y74.752 E38.91111
G1 X224.876 Y75.167 E38.94122
G1 X225.907 Y76.446 E39.03138
G1 X225.898 Y76.453 E39.032
G1 X226.238 Y76.885 E39.06217
G1 X227.174 Y78.233 E39.15224
G1 X227.471 Y78.695 E39.18238
G1 X228.309 Y80.107 E39.27249
G1 X228.574 Y80.593 E39.30286
G1 X229.309 Y82.063 E39.39306
G1 X229.535 Y82.558 E39.42292
G1 X230.163 Y84.073 E39.51292
G1 X230.357 Y84.593 E39.54338
G1 X230.875 Y86.151 E39.63349
G1 X231.028 Y86.672 E39.66329
G1 X231.435 Y88.263 E39.75341
G1 X231.544 Y88.802 E39.78359
G1 X231.551 Y88.801 E39.78398
G1 X231.843 Y90.416 E39.87404
G1 X231.922 Y90.966 E39.90454
G1 X232.097 Y92.6 E39.99472
G1 X232.136 Y93.143 E40.0246
G1 X232.2 Y95.06 E40.12986
G1 X232.2 Y197.059 E45.72749
G1 X232.195 Y197.336 E45.74269
G1 X232.136 Y198.977 E45.83281
G1 X232.097 Y199.52 E45.86268
G1 X231.922 Y201.153 E45.95281
G1 X231.843 Y201.702 E45.98325
G1 X231.551 Y203.318 E46.07337
G1 X231.548 Y203.317 E46.07355
G1 X231.435 Y203.857 E46.10382
G1 X231.028 Y205.448 E46.19395
G1 X230.876 Y205.967 E46.22363
G1 X230.359 Y207.524 E46.31366
G1 X230.164 Y208.046 E46.34424
G1 X229.535 Y209.563 E46.43437
G1 X229.31 Y210.056 E46.46411
G1 X228.576 Y211.525 E46.55423
G1 X228.31 Y212.013 E46.58473
G1 X227.472 Y213.425 E46.67484
G1 X227.174 Y213.888 E46.70505
G1 X226.237 Y215.237 E46.79519
G1 X225.901 Y215.67 E46.82527
G1 X225.907 Y215.675 E46.8257
G1 X224.877 Y216.953 E46.91578
G1 X224.518 Y217.368 E46.94589
G1 X223.399 Y218.57 E47.03602
G1 X223.012 Y218.957 E47.06605
G1 X221.811 Y220.076 E47.15614
G1 X221.392 Y220.439 E47.18656
G1 X220.112 Y221.47 E47.27676
G1 X220.105 Y221.461 E47.27738
G1 X219.674 Y221.799 E47.30744
G1 X218.327 Y222.734 E47.39743
G1 X217.866 Y223.031 E47.42752
G1 X216.454 Y223.869 E47.51763
G1 X215.968 Y224.134 E47.54801
G1 X214.498 Y224.869 E47.63821
G1 X214 Y225.096 E47.66824
G1 X212.488 Y225.723 E47.75807
G1 X211.971 Y225.916 E47.78835
G1 X210.412 Y226.435 E47.87853
G1 X209.888 Y226.589 E47.9085
G1 X208.297 Y226.996 E47.99863
G1 X207.752 Y227.106 E48.02914
G1 X207.753 Y227.113 E48.02953
G1 X206.136 Y227.404 E48.11969
G1 X205.598 Y227.482 E48.14952
G1 X203.966 Y227.658 E48.23961
G1 X203.412 Y227.697 E48.27008
G1 X201.5 Y227.76 E48.37507
G1 X180.549 Y227.76 E49.52485
G1 X155.873 Y235.304 E50.94092
G1 X155.112 Y235.494 E50.98396
G1 X154.336 Y235.607 E51.027
G1 X153.552 Y235.64 E51.07006
G1 X152.769 Y235.593 E51.11311
G1 X151.994 Y235.466 E51.15621
G1 X151.237 Y235.261 E51.19925
G1 X150.504 Y234.981 E51.24231
G1 X149.804 Y234.627 E51.28536
G1 X149.143 Y234.203 E51.32845
G1 X148.529 Y233.715 E51.3715
G1 X147.968 Y233.167 E51.41453
G1 X147.465 Y232.564 E51.45763
G1 X147.027 Y231.914 E51.50064
G1 X146.656 Y231.222 E51.54373
G1 X146.258 Y230.19 E51.60443
G1 X145.447 Y227.535 E51.75678
G1 X145.249 Y227.52 E51.76768
G1 X142.495 Y227.261 E51.91949
G1 X142.212 Y227.229 E51.93512
G1 X139.467 Y226.868 E52.08706
G1 X139.179 Y226.825 E52.10304
G1 X136.452 Y226.361 E52.25484
G1 X136.173 Y226.308 E52.27043
G1 X133.462 Y225.743 E52.4224
G1 X133.178 Y225.678 E52.43839
G1 X130.216 Y224.938 E52.60594
G1 X127.558 Y224.173 E52.75773
G1 X127.281 Y224.087 E52.77365
G1 X124.653 Y223.222 E52.92548
G1 X124.381 Y223.127 E52.94129
G1 X121.786 Y222.164 E53.09319
G1 X121.517 Y222.058 E53.10906
G1 X118.959 Y220.998 E53.26102
G1 X118.697 Y220.884 E53.2767
G1 X116.183 Y219.731 E53.42848
G1 X115.925 Y219.607 E53.44419
G1 X113.455 Y218.361 E53.59602
G1 X113.203 Y218.217 E53.61194
G1 X113.199 Y218.224 E53.61239
G1 X110.776 Y216.885 E53.76431
G1 X110.524 Y216.74 E53.78027
G1 X108.154 Y215.311 E53.93214
G1 X107.915 Y215.161 E53.94763
G1 X105.599 Y213.646 E54.09951
G1 X105.358 Y213.482 E54.11551
G1 X103.1 Y211.88 E54.26744
G1 X102.868 Y211.708 E54.28329
G1 X100.448 Y209.845 E54.4509
G1 X98.316 Y208.078 E54.60286
G1 X98.1 Y207.891 E54.61854
G1 X96.037 Y206.048 E54.77035
G1 X95.825 Y205.851 E54.78624
G1 X93.831 Y203.93 E54.93819
G1 X93.628 Y203.727 E54.95394
G1 X91.513 Y201.525 E55.1215
G1 X89.668 Y199.461 E55.27343
G1 X89.479 Y199.24 E55.28938
G1 X87.536 Y196.887 E55.45685
G1 X85.85 Y194.69 E55.60883
G1 X85.68 Y194.458 E55.62462
G1 X83.915 Y191.963 E55.79234
G1 X82.399 Y189.647 E55.94424
G1 X82.247 Y189.404 E55.95997
G1 X80.675 Y186.786 E56.12756
G1 X79.336 Y184.364 E56.27944
G1 X79.201 Y184.108 E56.29532
G1 X77.954 Y181.638 E56.44717
G1 X77.829 Y181.377 E56.46305
G1 X76.675 Y178.86 E56.61501
G1 X76.561 Y178.599 E56.63064
G1 X75.502 Y176.044 E56.78242
G1 X75.396 Y175.774 E56.79834
G1 X74.337 Y172.905 E56.96617
G1 X73.473 Y170.277 E57.11799
G1 X73.389 Y170.004 E57.13366
G1 X72.623 Y167.345 E57.28552
G1 X72.549 Y167.069 E57.3012
G1 X72.014 Y164.915 E57.423
G1 X71.743 Y164.781 E57.43959
G1 X71.079 Y164.364 E57.48262
G1 X70.46 Y163.881 E57.52571
G1 X69.894 Y163.338 E57.56876
G1 X69.386 Y162.74 E57.61182
G1 X68.941 Y162.094 E57.65487
G1 X68.565 Y161.405 E57.69794
G1 X68.26 Y160.682 E57.74101
G1 X68.031 Y159.932 E57.78404
