;FLAVOR:Marlin
;TIME:3116
;Filament used: 3.37045m
;Layer height: 0.28
;MINX:85.725
;MINY:125.379
;MINZ:0.28
;MAXX:214.274
;MAXY:174.616
;MAXZ:12.26
;Generated with Cura_SteamEngine 4.6.0
M140 S80
M105
M190 S80
M104 S250
M105
M109 S250
M82 ;absolute extrusion mode
G28 ; home all axes
 M117 Purge extruder
 G92 E0 ; reset extruder
 G1 Z1.0 F3000 ; move z up little to prevent scratching of surface
 G1 X2 Y20 Z0.3 F5000.0 ; move to start-line position
 G1 X2 Y200.0 Z0.3 F1500.0 E15 ; draw 1st line
 G1 X2 Y200.0 Z0.4 F5000.0 ; move to side a little
 G1 X2 Y20 Z0.4 F1500.0 E30 ; draw 2nd line
 G92 E0 ; reset extruder
 G1 Z1.0 F3000 ; move z up little to prevent scratching of surface
G92 E0
G92 E0
G1 F1500 E-2
;LAYER_COUNT:42
;LAYER:0
M107
G1 F600 Z0.78
G0 F900 X90.518 Y129.255 Z0.78
;TYPE:SKIRT
G1 F600 Z0.28
G1 F1500 E0
G1 F1200 X91.345 Y128.714 E0.07323
G1 X91.607 Y128.562 E0.09567
G1 X92.489 Y128.117 E0.16888
G1 X92.764 Y127.997 E0.19111
G1 X93.692 Y127.652 E0.26447
G1 X93.981 Y127.563 E0.28688
G1 X94.938 Y127.325 E0.35995
G1 X95.239 Y127.268 E0.38265
G1 X96.222 Y127.139 E0.45612
G1 X96.524 Y127.116 E0.47856
G1 X97.511 Y127.098 E0.55171
G1 X97.811 Y127.11 E0.57396
G1 X98.795 Y127.202 E0.64719
G1 X99.098 Y127.247 E0.66989
G1 X100.067 Y127.45 E0.74325
G1 X100.355 Y127.527 E0.76534
G1 X101.294 Y127.835 E0.83857
G1 X101.575 Y127.946 E0.86096
G1 X102.471 Y128.356 E0.93397
G1 X102.744 Y128.5 E0.95684
G1 X103.59 Y129.011 E1.03008
G1 X103.837 Y129.18 E1.05225
G1 X104.623 Y129.783 E1.12566
G1 X104.852 Y129.979 E1.148
G1 X105.563 Y130.663 E1.22111
G1 X105.771 Y130.888 E1.24381
G1 X106.4 Y131.648 E1.31691
G1 X106.579 Y131.89 E1.33922
G1 X107.16 Y132.78 E1.41797
G1 X108.255 Y134.556 E1.57258
G1 X109.369 Y136.171 E1.71796
G1 X110.566 Y137.727 E1.86343
G1 X111.826 Y139.201 E2.00712
G1 X111.836 Y139.212 E2.00822
G1 X112.863 Y140.307 E2.11946
G1 X113.169 Y140.616 E2.15169
G1 X114.189 Y141.597 E2.25655
G1 X114.6 Y141.973 E2.29783
G1 X114.604 Y141.977 E2.29825
G1 X115.597 Y142.839 E2.39569
G1 X116.092 Y143.246 E2.44317
G1 X117.035 Y143.983 E2.53186
G1 X117.656 Y144.444 E2.58917
G1 X117.676 Y144.459 E2.59102
G1 X118.566 Y145.082 E2.67152
G1 X118.582 Y145.094 E2.673
G1 X119.273 Y145.552 E2.73443
G1 X120.135 Y146.094 E2.80988
G1 X120.166 Y146.115 E2.81266
G1 X120.952 Y146.581 E2.88037
G1 X121.748 Y147.026 E2.94794
G1 X121.755 Y147.03 E2.94854
G1 X122.679 Y147.515 E3.02587
G1 X122.692 Y147.522 E3.02696
G1 X123.408 Y147.876 E3.08615
G1 X123.436 Y147.891 E3.0885
G1 X124.446 Y148.357 E3.17092
G1 X125.109 Y148.644 E3.22446
G1 X125.127 Y148.652 E3.22592
G1 X126.271 Y149.111 E3.31725
G1 X126.286 Y149.117 E3.31845
G1 X126.841 Y149.324 E3.36234
G1 X128.13 Y149.768 E3.46337
G1 X128.135 Y149.77 E3.46377
G1 X128.602 Y149.916 E3.50002
G1 X128.615 Y149.92 E3.50103
G1 X130.012 Y150.322 E3.60875
G1 X130.419 Y150.428 E3.63991
G1 X132.218 Y150.839 E3.77665
G1 X134.106 Y151.172 E3.91871
G1 X135.932 Y151.399 E4.05506
G1 X137.827 Y151.54 E4.19587
G1 X139.711 Y151.585 E4.33551
G1 X141.684 Y151.531 E4.48177
G1 X143.635 Y151.374 E4.6268
G1 X145.579 Y151.116 E4.77212
G1 X147.491 Y150.761 E4.91622
G1 X147.511 Y150.756 E4.91774
G1 X148.91 Y150.429 E5.0242
G1 X148.924 Y150.427 E5.02525
G1 X149.427 Y150.293 E5.06382
G1 X149.426 Y150.293 E5.0639
G1 X150.713 Y149.922 E5.16315
G1 X150.715 Y149.921 E5.16331
G1 X151.263 Y149.747 E5.20592
G1 X151.304 Y149.735 E5.20908
G1 X152.478 Y149.329 E5.30113
G1 X152.481 Y149.328 E5.30137
G1 X153.113 Y149.09 E5.35141
G1 X153.148 Y149.077 E5.35418
G1 X154.216 Y148.647 E5.43949
G1 X154.225 Y148.643 E5.44022
G1 X154.932 Y148.336 E5.49733
G1 X154.946 Y148.33 E5.49846
G1 X155.915 Y147.881 E5.5776
G1 X155.918 Y147.88 E5.57783
G1 X156.706 Y147.488 E5.64305
G1 X156.736 Y147.474 E5.6455
G1 X157.571 Y147.033 E5.71547
G1 X157.585 Y147.026 E5.71663
G1 X158.434 Y146.549 E5.78879
G1 X158.433 Y146.549 E5.78887
G1 X159.186 Y146.101 E5.85379
G1 X159.201 Y146.092 E5.85509
G1 X160.11 Y145.519 E5.93471
G1 X160.124 Y145.511 E5.93591
G1 X160.756 Y145.09 E5.99218
G1 X160.779 Y145.075 E5.99421
G1 X161.716 Y144.416 E6.0791
G1 X162.269 Y144.005 E6.13015
G1 X162.277 Y143.999 E6.13089
G1 X163.287 Y143.207 E6.226
G1 X163.298 Y143.199 E6.22701
G1 X163.726 Y142.845 E6.26817
G1 X163.741 Y142.833 E6.26959
G1 X164.782 Y141.928 E6.3718
G1 X165.136 Y141.603 E6.40741
G1 X166.484 Y140.291 E6.5468
G1 X167.759 Y138.915 E6.6858
G1 X168.959 Y137.486 E6.82407
G1 X170.093 Y135.992 E6.96306
G1 X171.112 Y134.501 E7.09688
G1 X172.149 Y132.809 E7.24393
G1 X172.425 Y132.435 E7.27837
G1 X172.604 Y132.25 E7.29745
G1 X172.681 Y132.179 E7.30521
G1 X173.828 Y131.151 E7.41934
G1 X173.975 Y131.029 E7.4335
G1 X175.181 Y130.093 E7.54662
G1 X175.366 Y129.961 E7.56346
G1 X176.603 Y129.131 E7.67384
G1 X176.798 Y129.016 E7.69062
G1 X176.797 Y129.014 E7.69078
G1 X178.088 Y128.272 E7.80112
G1 X178.291 Y128.17 E7.81796
G1 X178.29 Y128.168 E7.81812
G1 X179.628 Y127.518 E7.92835
G1 X179.78 Y127.46 E7.9404
G1 X179.778 Y127.454 E7.94087
G1 X180.834 Y127.017 E8.02556
G1 X180.935 Y126.988 E8.03334
G1 X180.932 Y126.981 E8.03391
G1 X181.282 Y126.85 E8.0616
G1 X181.398 Y126.812 E8.07064
G1 X181.398 Y126.811 E8.07072
G1 X182.404 Y126.474 E8.14933
G1 X182.504 Y126.45 E8.15695
G1 X182.502 Y126.445 E8.15735
G1 X183.029 Y126.291 E8.19804
G1 X183.036 Y126.289 E8.19858
G1 X184.014 Y126.036 E8.27343
G1 X184.119 Y126.015 E8.28137
G1 X184.118 Y126.012 E8.2816
G1 X184.581 Y125.909 E8.31675
G1 X184.677 Y125.896 E8.32393
G1 X184.676 Y125.891 E8.3243
G1 X185.749 Y125.694 E8.40514
G1 X186.386 Y125.601 E8.45284
G1 X186.386 Y125.6 E8.45292
G1 X187.293 Y125.494 E8.52058
G1 X187.396 Y125.488 E8.52823
G1 X187.396 Y125.485 E8.52845
G1 X188.087 Y125.432 E8.57981
G1 X188.087 Y125.431 E8.57988
G1 X188.948 Y125.389 E8.64376
G1 X189.064 Y125.389 E8.65235
G1 X189.064 Y125.387 E8.6525
G1 X189.688 Y125.379 E8.69874
G1 X189.805 Y125.383 E8.70742
G1 X190.724 Y125.403 E8.77553
G1 X191.513 Y125.451 E8.8341
G1 X191.513 Y125.45 E8.83418
G1 X192.272 Y125.518 E8.89064
G1 X192.382 Y125.534 E8.89888
G1 X192.382 Y125.531 E8.8991
G1 X193.21 Y125.638 E8.96097
G1 X193.21 Y125.637 E8.96104
G1 X193.915 Y125.748 E9.01393
G1 X194.107 Y125.785 E9.02842
G1 X194.124 Y125.789 E9.02971
G1 X194.881 Y125.938 E9.08688
G1 X195.653 Y126.12 E9.14565
G1 X195.653 Y126.119 E9.14573
G1 X196.452 Y126.331 E9.20698
G1 X196.552 Y126.371 E9.21496
G1 X196.554 Y126.363 E9.21557
G1 X197.143 Y126.541 E9.26117
G1 X197.251 Y126.583 E9.26975
G1 X197.252 Y126.579 E9.27006
G1 X198.082 Y126.862 E9.33504
G1 X198.182 Y126.902 E9.34302
G1 X198.183 Y126.9 E9.34319
G1 X198.82 Y127.147 E9.39381
G1 X198.82 Y127.146 E9.39389
G1 X199.674 Y127.505 E9.46253
G1 X199.761 Y127.55 E9.46979
G1 X199.763 Y127.546 E9.47012
G1 X200.227 Y127.758 E9.50792
G1 X200.339 Y127.819 E9.51737
G1 X200.34 Y127.816 E9.51761
G1 X201.32 Y128.313 E9.59903
G1 X201.32 Y128.312 E9.5991
G1 X201.819 Y128.589 E9.64139
G1 X202.703 Y129.114 E9.71758
G1 X202.782 Y129.17 E9.72475
G1 X202.785 Y129.166 E9.72513
G1 X203.135 Y129.39 E9.75592
G1 X203.235 Y129.46 E9.76496
G1 X203.236 Y129.459 E9.76507
G1 X204.121 Y130.07 E9.84476
G1 X204.197 Y130.129 E9.85189
G1 X204.199 Y130.127 E9.8521
G1 X204.49 Y130.342 E9.87891
G1 X204.613 Y130.441 E9.8906
G1 X204.613 Y130.44 E9.89068
G1 X205.732 Y131.344 E9.99727
G1 X205.896 Y131.494 E10.01374
G1 X205.898 Y131.492 E10.01395
G1 X206.954 Y132.471 E10.12066
G1 X207.108 Y132.629 E10.137
G1 X207.109 Y132.628 E10.13711
G1 X208.094 Y133.674 E10.24358
G1 X208.256 Y133.863 E10.26202
G1 X208.27 Y133.881 E10.26371
G1 X209.151 Y134.952 E10.36647
G1 X209.313 Y135.169 E10.38654
G1 X209.322 Y135.182 E10.38771
G1 X210.12 Y136.297 E10.48931
G1 X210.24 Y136.484 E10.50578
G1 X210.241 Y136.484 E10.50585
G1 X210.998 Y137.708 E10.61249
G1 X211.131 Y137.948 E10.63282
G1 X211.139 Y137.964 E10.63415
G1 X211.778 Y139.174 E10.73555
G1 X211.869 Y139.363 E10.75109
G1 X211.875 Y139.376 E10.75215
G1 X212.473 Y140.723 E10.86136
G1 X212.553 Y140.94 E10.87849
G1 X212.555 Y140.939 E10.87866
G1 X213.063 Y142.34 E10.98909
G1 X213.131 Y142.556 E11.00587
G1 X213.54 Y143.986 E11.11608
G1 X213.59 Y144.208 E11.13294
G1 X213.592 Y144.208 E11.13309
G1 X213.901 Y145.662 E11.24324
G1 X213.936 Y145.891 E11.2604
G1 X213.938 Y145.891 E11.26055
G1 X214.144 Y147.366 E11.37091
G1 X214.166 Y147.593 E11.38781
G1 X214.269 Y149.077 E11.49804
G1 X214.274 Y149.307 E11.51509
G1 X214.273 Y150.795 E11.62535
G1 X214.263 Y150.986 E11.63952
G1 X214.265 Y150.986 E11.63967
G1 X214.198 Y152.085 E11.72125
G1 X214.185 Y152.19 E11.72909
G1 X214.189 Y152.19 E11.72939
G1 X214.136 Y152.693 E11.76687
G1 X214.137 Y152.693 E11.76694
G1 X214.002 Y153.736 E11.84487
G1 X213.98 Y153.832 E11.85217
G1 X213.986 Y153.833 E11.85262
G1 X213.915 Y154.268 E11.88528
G1 X213.889 Y154.392 E11.89467
G1 X213.89 Y154.392 E11.89474
G1 X213.664 Y155.496 E11.97825
G1 X213.661 Y155.508 E11.97916
G1 X213.527 Y156.059 E12.02118
G1 X213.528 Y156.059 E12.02126
G1 X213.279 Y156.976 E12.09167
G1 X213.242 Y157.077 E12.09964
G1 X213.246 Y157.078 E12.09994
G1 X213.088 Y157.591 E12.13972
G1 X213.045 Y157.704 E12.14868
G1 X213.048 Y157.705 E12.14891
G1 X212.752 Y158.556 E12.21568
G1 X212.711 Y158.657 E12.22375
G1 X212.713 Y158.658 E12.22392
G1 X212.456 Y159.312 E12.27599
G1 X212.457 Y159.312 E12.27606
G1 X212.124 Y160.093 E12.33898
G1 X212.073 Y160.188 E12.34697
G1 X212.077 Y160.19 E12.3473
G1 X211.809 Y160.766 E12.39437
G1 X211.751 Y160.875 E12.40352
G1 X211.753 Y160.876 E12.40369
G1 X211.336 Y161.684 E12.47106
G1 X211.337 Y161.685 E12.47117
G1 X211.004 Y162.286 E12.52208
G1 X210.942 Y162.379 E12.53036
G1 X210.945 Y162.381 E12.53063
G1 X210.561 Y163.023 E12.58606
G1 X210.494 Y163.122 E12.59492
G1 X210.496 Y163.123 E12.59509
G1 X210.094 Y163.743 E12.64984
G1 X210.031 Y163.827 E12.65762
G1 X210.034 Y163.829 E12.65789
G1 X209.635 Y164.403 E12.70969
G1 X209.558 Y164.497 E12.71869
G1 X209.562 Y164.5 E12.71906
G1 X209.021 Y165.215 E12.7855
G1 X208.535 Y165.815 E12.84272
G1 X208.52 Y165.832 E12.8444
G1 X207.915 Y166.524 E12.91251
G1 X207.916 Y166.525 E12.91261
G1 X207.441 Y167.037 E12.96436
G1 X206.725 Y167.752 E13.03934
G1 X206.725 Y167.753 E13.03942
G1 X206.324 Y168.131 E13.08025
G1 X206.231 Y168.21 E13.08929
G1 X206.232 Y168.211 E13.0894
G1 X205.433 Y168.909 E13.16802
G1 X205.423 Y168.917 E13.16896
G1 X204.966 Y169.287 E13.21254
G1 X204.182 Y169.886 E13.28565
G1 X204.103 Y169.937 E13.29261
G1 X204.106 Y169.941 E13.29298
G1 X203.74 Y170.204 E13.32638
G1 X203.626 Y170.277 E13.33641
G1 X203.627 Y170.278 E13.33652
G1 X202.759 Y170.85 E13.41354
G1 X202.686 Y170.89 E13.41971
G1 X202.688 Y170.894 E13.42004
G1 X202.348 Y171.105 E13.44969
G1 X202.199 Y171.186 E13.46226
G1 X202.2 Y171.188 E13.46243
G1 X200.944 Y171.886 E13.5689
G1 X200.743 Y171.982 E13.58541
G1 X200.744 Y171.985 E13.58564
G1 X199.442 Y172.597 E13.69225
G1 X199.235 Y172.681 E13.7088
G1 X199.235 Y172.682 E13.70888
G1 X197.894 Y173.204 E13.81551
G1 X197.685 Y173.272 E13.83179
G1 X197.686 Y173.274 E13.83196
G1 X196.315 Y173.704 E13.93843
G1 X196.1 Y173.762 E13.95493
G1 X196.06 Y173.771 E13.95797
G1 X194.702 Y174.099 E14.06149
G1 X194.514 Y174.138 E14.07572
G1 X193.02 Y174.388 E14.18796
G1 X192.85 Y174.411 E14.20067
G1 X191.418 Y174.558 E14.30734
G1 X191.096 Y174.574 E14.33123
G1 X189.666 Y174.616 E14.43724
G1 X139.606 Y174.615 E18.14668
G1 X136.97 Y174.554 E18.34206
G1 X134.333 Y174.38 E18.53789
G1 X131.709 Y174.091 E18.7335
G1 X129.1 Y173.686 E18.92914
G1 X126.509 Y173.168 E19.12494
G1 X123.947 Y172.538 E19.32044
G1 X121.412 Y171.798 E19.51612
G1 X118.914 Y170.947 E19.71167
G1 X116.452 Y169.987 E19.90748
G1 X114.04 Y168.922 E20.10286
G1 X111.779 Y167.808 E20.28963
G1 X111.676 Y167.746 E20.29854
G1 X111.673 Y167.752 E20.29903
G1 X109.358 Y166.479 E20.4948
G1 X107.103 Y165.107 E20.69039
G1 X104.909 Y163.638 E20.88604
G1 X102.783 Y162.076 E21.08153
G1 X100.725 Y160.421 E21.27722
G1 X98.828 Y158.757 E21.4642
G1 X98.83 Y158.755 E21.46441
G1 X98.741 Y158.678 E21.47313
G1 X96.836 Y156.851 E21.66872
G1 X95.011 Y154.941 E21.86447
G1 X93.274 Y152.956 E22.05992
G1 X91.621 Y150.894 E22.25575
G1 X90.063 Y148.764 E22.4513
G1 X88.598 Y146.566 E22.64704
G1 X87.29 Y144.41 E22.8339
G1 X87.186 Y144.223 E22.84975
G1 X86.742 Y143.34 E22.92299
G1 X86.624 Y143.07 E22.94482
G1 X86.279 Y142.144 E23.01805
G1 X86.188 Y141.85 E23.04085
G1 X85.951 Y140.893 E23.11391
G1 X85.895 Y140.596 E23.1363
G1 X85.766 Y139.616 E23.20955
G1 X85.743 Y139.313 E23.23206
G1 X85.725 Y138.323 E23.30544
G1 X85.736 Y138.025 E23.32753
G1 X85.827 Y137.042 E23.40068
G1 X85.874 Y136.735 E23.4237
G1 X86.078 Y135.765 E23.49715
G1 X86.154 Y135.48 E23.519
G1 X86.461 Y134.544 E23.592
G1 X86.572 Y134.261 E23.61452
G1 X86.983 Y133.363 E23.6877
G1 X87.125 Y133.094 E23.71024
G1 X87.635 Y132.247 E23.7835
G1 X87.806 Y131.996 E23.80601
G1 X88.408 Y131.212 E23.87925
G1 X88.604 Y130.984 E23.90153
G1 X89.289 Y130.272 E23.97474
G1 X89.513 Y130.064 E23.9974
G1 X90.274 Y129.434 E24.0706
G1 X90.518 Y129.255 E24.09303
G0 F900 X90.846 Y129.757
G1 F1200 X91.673 Y129.216 E24.16625
G1 X91.877 Y129.098 E24.18372
G1 X92.759 Y128.653 E24.25692
G1 X92.973 Y128.56 E24.27421
G1 X93.901 Y128.215 E24.34757
G1 X94.126 Y128.145 E24.36503
G1 X95.083 Y127.907 E24.43811
G1 X95.317 Y127.863 E24.45575
G1 X96.3 Y127.734 E24.52922
G1 X96.535 Y127.716 E24.54668
G1 X97.522 Y127.698 E24.61983
G1 X97.755 Y127.707 E24.63711
G1 X98.739 Y127.799 E24.71034
G1 X98.975 Y127.835 E24.72803
G1 X99.944 Y128.038 E24.80139
G1 X100.168 Y128.098 E24.81857
G1 X101.107 Y128.406 E24.8918
G1 X101.326 Y128.491 E24.90921
G1 X102.222 Y128.901 E24.98222
G1 X102.434 Y129.013 E24.99999
G1 X103.28 Y129.524 E25.07323
G1 X103.472 Y129.656 E25.09049
G1 X104.258 Y130.259 E25.1639
G1 X104.436 Y130.412 E25.18129
G1 X105.147 Y131.096 E25.2544
G1 X105.309 Y131.27 E25.27202
G1 X105.938 Y132.03 E25.34512
G1 X106.077 Y132.219 E25.3625
G1 X106.649 Y133.095 E25.44003
G1 X107.742 Y134.867 E25.5943
G1 X108.894 Y136.536 E25.74457
G1 X110.104 Y138.11 E25.89169
G1 X111.375 Y139.596 E26.03658
G1 X112.426 Y140.717 E26.15045
G1 X112.435 Y140.727 E26.15144
G1 X112.743 Y141.038 E26.18388
G1 X112.761 Y141.056 E26.18576
G1 X113.782 Y142.038 E26.29073
G1 X113.788 Y142.044 E26.29136
G1 X114.187 Y142.409 E26.33143
G1 X115.204 Y143.292 E26.43123
G1 X115.209 Y143.297 E26.43176
G1 X115.711 Y143.709 E26.47988
G1 X115.725 Y143.721 E26.48125
G1 X116.685 Y144.471 E26.57152
G1 X117.298 Y144.926 E26.62809
G1 X117.306 Y144.932 E26.62883
G1 X118.222 Y145.573 E26.71167
G1 X118.242 Y145.588 E26.71352
G1 X118.942 Y146.052 E26.77575
G1 X118.952 Y146.059 E26.77666
G1 X119.816 Y146.602 E26.85228
G1 X119.847 Y146.623 E26.85505
G1 X120.646 Y147.097 E26.92389
G1 X120.666 Y147.109 E26.92562
G1 X121.455 Y147.55 E26.9926
G1 X121.478 Y147.563 E26.99455
G1 X122.4 Y148.047 E27.07172
G1 X123.142 Y148.414 E27.13306
G1 X123.163 Y148.425 E27.13481
G1 X124.203 Y148.905 E27.21969
G1 X124.215 Y148.911 E27.22068
G1 X124.871 Y149.195 E27.27365
G1 X124.889 Y149.203 E27.27511
G1 X126.048 Y149.668 E27.36765
G1 X126.065 Y149.675 E27.36901
G1 X126.625 Y149.884 E27.4133
G1 X127.935 Y150.335 E27.51596
G1 X127.951 Y150.341 E27.51723
G1 X128.423 Y150.489 E27.55388
G1 X128.469 Y150.503 E27.55745
G1 X129.846 Y150.899 E27.66362
G1 X130.271 Y151.009 E27.69615
G1 X132.108 Y151.429 E27.83578
G1 X132.111 Y151.429 E27.836
G1 X134.007 Y151.763 E27.97866
G1 X135.894 Y151.998 E28.11957
G1 X137.787 Y152.139 E28.26023
G1 X139.712 Y152.186 E28.40291
G1 X141.71 Y152.13 E28.55102
G1 X143.685 Y151.972 E28.69784
G1 X145.672 Y151.708 E28.84637
G1 X147.623 Y151.345 E28.99342
G1 X149.046 Y151.013 E29.10169
G1 X149.065 Y151.011 E29.10311
G1 X149.525 Y150.888 E29.13839
G1 X149.569 Y150.876 E29.14177
G1 X150.879 Y150.498 E29.2428
G1 X150.898 Y150.493 E29.24426
G1 X151.445 Y150.319 E29.28679
G1 X151.487 Y150.306 E29.29005
G1 X152.674 Y149.896 E29.38311
G1 X152.693 Y149.89 E29.38458
G1 X153.325 Y149.652 E29.43463
G1 X153.348 Y149.644 E29.43643
G1 X154.44 Y149.204 E29.52367
G1 X154.442 Y149.203 E29.52383
G1 X155.171 Y148.886 E29.58274
G1 X155.196 Y148.876 E29.58473
G1 X156.156 Y148.431 E29.66314
G1 X156.973 Y148.025 E29.73074
