; generated by Slic3r 1.3.0 on 2024-09-08 at 09:02:55

; external perimeters extrusion width = 0.55mm (4.37mm^3/s)
; perimeters extrusion width = 0.70mm (11.44mm^3/s)
; infill extrusion width = 0.62mm (13.45mm^3/s)
; solid infill extrusion width = 0.70mm (3.81mm^3/s)
; top infill extrusion width = 0.70mm (2.86mm^3/s)

M107
M104 S200 ; set temperature
G28 ; home all axes
G1 Z5 F5000 ; lift nozzle

; Filament gcode

M109 S200 ; set temperature and wait for it to be reached
G21 ; set units to millimeters
G90 ; use absolute coordinates
M82 ; use absolute distances for extrusion
G92 E0
G1 Z0.350 F7800.000
G1 E-2.00000 F2400.00000
G92 E0
G1 X83.342 Y81.914 F7800.000
G1 E2.00000 F2400.00000
G1 F1800
G1 X84.845 Y81.045 E2.05374
G1 X96.963 Y76.026 E2.45957
G1 X98.064 Y75.679 E2.49529
G1 X98.718 Y75.534 E2.51602
G1 X101.009 Y75.432 E2.58698
G1 X102.687 Y75.881 E2.64072
G1 X114.805 Y80.900 E3.04655
G1 X115.829 Y81.433 E3.08228
G1 X116.394 Y81.793 E3.10300
G1 X118.086 Y83.342 E3.17396
G1 X118.955 Y84.845 E3.22770
G1 X123.974 Y96.963 E3.63353
G1 X124.321 Y98.064 E3.66926
G1 X124.466 Y98.718 E3.68998
G1 X124.568 Y101.009 E3.76094
G1 X124.119 Y102.687 E3.81468
G1 X119.100 Y114.805 E4.22051
G1 X118.567 Y115.829 E4.25624
G1 X118.207 Y116.394 E4.27696
G1 X116.658 Y118.086 E4.34792
G1 X115.155 Y118.955 E4.40166
G1 X103.037 Y123.974 E4.80749
G1 X101.936 Y124.321 E4.84322
G1 X101.282 Y124.466 E4.86394
G1 X98.991 Y124.568 E4.93490
G1 X97.313 Y124.119 E4.98864
G1 X85.195 Y119.100 E5.39447
G1 X84.171 Y118.567 E5.43020
G1 X83.606 Y118.207 E5.45092
G1 X81.914 Y116.658 E5.52188
G1 X81.045 Y115.155 E5.57562
G1 X76.026 Y103.037 E5.98145
G1 X75.679 Y101.936 E6.01718
G1 X75.534 Y101.282 E6.03790
G1 X75.432 Y98.991 E6.10886
G1 X75.881 Y97.313 E6.16260
G1 X80.900 Y85.195 E6.56843
G1 X81.433 Y84.171 E6.60416
G1 X81.793 Y83.606 E6.62488
G1 X83.291 Y81.970 E6.69352
G1 E4.69352 F2400.00000
G92 E0
G1 X111.547 Y111.547 F7800.000
G1 E2.00000 F2400.00000
G1 F1800
G1 X100.000 Y116.330 E2.38672
G1 X88.453 Y111.547 E2.77343
G1 X83.670 Y100.000 E3.16015
G1 X88.453 Y88.453 E3.54687
G1 X100.000 Y83.670 E3.93358
G1 X111.547 Y88.453 E4.32030
G1 X116.330 Y100.000 E4.70702
G1 X111.576 Y111.478 E5.09141
G1 X112.071 Y111.881 F7800.000
G1 F1800
G1 X111.962 Y112.051 E5.09766
G1 X100.208 Y116.920 E5.49134
G1 X99.937 Y116.980 E5.49991
G1 X88.182 Y112.111 E5.89359
G1 X87.949 Y111.962 E5.90216
G1 X83.080 Y100.208 E6.29584
G1 X83.020 Y99.937 E6.30441
G1 X87.889 Y88.182 E6.69808
G1 X88.038 Y87.949 E6.70666
G1 X99.792 Y83.080 E7.10033
G1 X100.063 Y83.020 E7.10890
G1 X111.818 Y87.889 E7.50258
G1 X112.051 Y88.038 E7.51115
G1 X116.920 Y99.792 E7.90483
G1 X116.980 Y100.063 E7.91340
G1 X112.111 Y111.818 E8.30707
G1 X112.598 Y112.217 F7800.000
G1 F1800
G1 X112.384 Y112.553 E8.31942
G1 X100.396 Y117.519 E8.72089
G1 X99.880 Y117.633 E8.73724
G1 X87.893 Y112.668 E9.13871
G1 X87.447 Y112.384 E9.15507
G1 X82.481 Y100.396 E9.55653
G1 X82.367 Y99.880 E9.57289
G1 X87.332 Y87.893 E9.97436
G1 X87.616 Y87.447 E9.99071
G1 X99.604 Y82.481 E10.39218
G1 X100.120 Y82.367 E10.40854
G1 X112.107 Y87.332 E10.81000
G1 X112.553 Y87.616 E10.82636
G1 X117.519 Y99.604 E11.22783
G1 X117.633 Y100.120 E11.24418
G1 X112.638 Y112.153 E11.64731
G1 X112.199 Y112.222 F7800.000
G1 X110.825 Y111.312 F7800.000
G1 F1800
G1 X111.312 Y110.825 E11.66864
G1 X111.938 Y109.314 E11.71936
G1 X109.314 Y111.938 E11.83442
G1 X107.802 Y112.564 E11.88515
G1 X112.564 Y107.802 E12.09393
G1 X113.190 Y106.291 E12.14466
G1 X106.291 Y113.190 E12.44718
G1 X104.779 Y113.816 E12.49790
G1 X113.816 Y104.779 E12.89415
G1 X114.443 Y103.267 E12.94488
G1 X103.267 Y114.443 E13.43486
G1 X101.756 Y115.069 E13.48558
G1 X115.069 Y101.756 E14.06929
G1 X115.695 Y100.244 E14.12002
G1 X100.244 Y115.695 E14.79746
G1 X99.757 Y115.897 E14.81381
G1 X99.333 Y115.721 E14.82805
G1 X115.721 Y99.333 E15.54659
G1 X115.461 Y98.706 E15.56760
G1 X98.706 Y115.461 E16.30223
G1 X98.080 Y115.202 E16.32324
G1 X115.202 Y98.080 E17.07394
G1 X114.943 Y97.454 E17.09496
G1 X97.454 Y114.943 E17.86174
G1 X96.828 Y114.683 E17.88276
G1 X114.683 Y96.828 E18.66563
G1 X114.424 Y96.202 E18.68664
G1 X96.202 Y114.424 E19.48559
G1 X95.576 Y114.165 E19.50660
G1 X114.165 Y95.576 E20.32163
G1 X113.905 Y94.950 E20.34265
G1 X94.950 Y113.905 E21.17376
G1 X94.323 Y113.646 E21.19477
G1 X113.646 Y94.323 E22.04197
G1 X113.387 Y93.697 E22.06298
G1 X93.697 Y113.387 E22.92626
G1 X93.071 Y113.127 E22.94727
G1 X113.127 Y93.071 E23.82663
G1 X112.868 Y92.445 E23.84764
G1 X92.445 Y112.868 E24.74309
G1 X91.819 Y112.609 E24.76410
G1 X112.609 Y91.819 E25.67562
G1 X112.349 Y91.193 E25.69663
G1 X91.193 Y112.349 E26.62424
G1 X90.567 Y112.090 E26.64525
G1 X112.090 Y90.567 E27.58894
G1 X111.830 Y89.941 E27.60995
G1 X89.940 Y111.830 E28.56972
G1 X89.314 Y111.571 E28.59073
G1 X111.571 Y89.314 E29.56658
G1 X111.312 Y88.688 E29.58759
G1 X88.688 Y111.312 E30.57953
G1 X88.429 Y110.686 E30.60054
G1 X110.686 Y88.429 E31.57639
G1 X110.060 Y88.170 E31.59740
G1 X88.170 Y110.059 E32.55717
G1 X87.910 Y109.433 E32.57818
G1 X109.433 Y87.910 E33.52187
G1 X108.807 Y87.651 E33.54288
G1 X87.651 Y108.807 E34.47049
G1 X87.391 Y108.181 E34.49150
G1 X108.181 Y87.391 E35.40302
G1 X107.555 Y87.132 E35.42403
G1 X87.132 Y107.555 E36.31948
G1 X86.873 Y106.929 E36.34049
G1 X106.929 Y86.873 E37.21985
G1 X106.303 Y86.613 E37.24086
G1 X86.613 Y106.303 E38.10414
G1 X86.354 Y105.677 E38.12515
G1 X105.677 Y86.354 E38.97235
G1 X105.050 Y86.095 E38.99336
G1 X86.095 Y105.050 E39.82448
G1 X85.835 Y104.424 E39.84549
G1 X104.424 Y85.835 E40.66052
G1 X103.798 Y85.576 E40.68153
G1 X85.576 Y103.798 E41.48049
G1 X85.317 Y103.172 E41.50150
G1 X103.172 Y85.317 E42.28437
G1 X102.546 Y85.057 E42.30538
G1 X85.057 Y102.546 E43.07217
G1 X84.798 Y101.920 E43.09318
G1 X101.920 Y84.798 E43.84389
G1 X101.294 Y84.539 E43.86490
G1 X84.539 Y101.294 E44.59952
G1 X84.279 Y100.667 E44.62054
G1 X100.667 Y84.279 E45.33908
G1 X100.243 Y84.103 E45.35332
G1 X99.756 Y84.305 E45.36967
G1 X84.305 Y99.756 E46.04711
G1 X84.931 Y98.244 E46.09783
G1 X98.244 Y84.931 E46.68154
G1 X96.733 Y85.557 E46.73227
G1 X85.557 Y96.733 E47.22225
G1 X86.184 Y95.221 E47.27298
G1 X95.221 Y86.184 E47.66923
G1 X93.709 Y86.810 E47.71995
G1 X86.810 Y93.709 E48.02247
G1 X87.436 Y92.198 E48.07320
G1 X92.198 Y87.436 E48.28199
G1 X90.686 Y88.062 E48.33272
G1 X88.062 Y90.686 E48.44777
G1 X88.688 Y89.175 E48.49850
G1 X89.175 Y88.688 E48.51983
G1 Z0.650 F7800.000
G1 X111.720 Y111.657 F7800.000
G1 F3600
G1 X111.530 Y111.954 E48.52933
G1 X100.990 Y116.320 E48.83711
G1 X99.700 Y116.606 E48.87274
G1 X89.160 Y112.240 E49.18051
G1 X88.046 Y111.530 E49.21614
G1 X83.680 Y100.990 E49.52392
G1 X83.394 Y99.700 E49.55955
G1 X87.760 Y89.160 E49.86732
G1 X88.470 Y88.046 E49.90295
G1 X99.010 Y83.680 E50.21073
G1 X100.300 Y83.394 E50.24636
G1 X110.840 Y87.760 E50.55413
G1 X111.954 Y88.470 E50.58976
G1 X116.320 Y99.010 E50.89754
G1 X116.606 Y100.300 E50.93317
G1 X112.240 Y110.840 E51.24094
G1 X111.760 Y111.594 E51.26505
G1 X112.256 Y111.999 F7800.000
G1 F3600
G1 X111.959 Y112.465 E51.27996
G1 X101.182 Y116.929 E51.59464
G1 X99.642 Y117.270 E51.63718
G1 X88.865 Y112.806 E51.95186
G1 X87.535 Y111.959 E51.99439
G1 X83.071 Y101.182 E52.30908
G1 X82.730 Y99.642 E52.35161
G1 X87.194 Y88.865 E52.66629
G1 X88.041 Y87.535 E52.70883
G1 X98.818 Y83.071 E53.02351
G1 X100.358 Y82.730 E53.06605
G1 X111.135 Y87.194 E53.38073
G1 X112.465 Y88.041 E53.42327
G1 X116.929 Y98.818 E53.73795
G1 X117.270 Y100.358 E53.78049
G1 X112.806 Y111.135 E54.09517
G1 X112.296 Y111.935 E54.12077
G1 X112.729 Y112.300 F7800.000
G1 F1800
G1 X112.337 Y112.915 E54.13581
G1 X101.351 Y117.465 E54.38088
G1 X99.591 Y117.856 E54.41803
G1 X88.605 Y113.305 E54.66311
G1 X87.085 Y112.337 E54.70026
G1 X82.535 Y101.351 E54.94533
G1 X82.144 Y99.591 E54.98249
G1 X86.695 Y88.605 E55.22756
G1 X87.663 Y87.085 E55.26471
G1 X98.649 Y82.535 E55.50978
G1 X100.409 Y82.144 E55.54694
G1 X111.395 Y86.695 E55.79201
G1 X112.915 Y87.663 E55.82916
G1 X117.465 Y98.649 E56.07424
G1 X117.856 Y100.409 E56.11139
G1 X113.305 Y111.395 E56.35646
G1 X112.769 Y112.236 E56.37704
G1 X112.229 Y112.305 F7800.000
G1 X112.329 Y90.685 F7800.000
G1 F1200
G1 X109.315 Y87.671 E56.49238
G1 X107.776 Y87.034 E56.53748
G1 X112.966 Y92.224 E56.73615
G1 X113.604 Y93.764 E56.78125
G1 X106.236 Y86.396 E57.06325
G1 X104.697 Y85.758 E57.10835
G1 X114.242 Y95.303 E57.47368
G1 X114.879 Y96.843 E57.51878
G1 X103.157 Y85.121 E57.96744
G1 X101.618 Y84.483 E58.01253
G1 X115.517 Y98.382 E58.54453
G1 X115.959 Y99.449 E58.57578
G1 X116.038 Y99.805 E58.58564
G1 X100.078 Y83.845 E59.19648
G1 X99.994 Y83.811 E59.19894
G1 X99.296 Y83.965 E59.21829
G1 X116.081 Y100.750 E59.86071
G1 X115.817 Y101.388 E59.87939
G1 X98.612 Y84.183 E60.53789
G1 X97.974 Y84.447 E60.55657
G1 X115.553 Y102.026 E61.22937
G1 X115.289 Y102.663 E61.24805
G1 X97.337 Y84.711 E61.93514
G1 X96.699 Y84.975 E61.95382
G1 X115.025 Y103.301 E62.65522
G1 X114.760 Y103.939 E62.67390
G1 X96.061 Y85.240 E63.38959
G1 X95.424 Y85.504 E63.40827
G1 X114.496 Y104.576 E64.13825
G1 X114.232 Y105.214 E64.15693
G1 X94.786 Y85.768 E64.90122
G1 X94.148 Y86.032 E64.91990
G1 X113.968 Y105.852 E65.67848
G1 X113.704 Y106.489 E65.69716
G1 X93.511 Y86.296 E66.47004
G1 X92.873 Y86.560 E66.48872
G1 X113.440 Y107.127 E67.27589
G1 X113.176 Y107.765 E67.29457
G1 X92.235 Y86.824 E68.09604
G1 X91.598 Y87.089 E68.11472
G1 X112.911 Y108.402 E68.93049
G1 X112.647 Y109.040 E68.94917
G1 X90.960 Y87.353 E69.77924
G1 X90.322 Y87.617 E69.79792
G1 X112.383 Y109.678 E70.64229
G1 X112.119 Y110.315 E70.66097
G1 X89.685 Y87.881 E71.51963
G1 X89.047 Y88.145 E71.53831
G1 X111.833 Y110.931 E72.41043
G1 X111.482 Y111.482 E72.42811
G1 X88.518 Y88.518 E73.30705
G1 X88.167 Y89.069 E73.32473
G1 X110.953 Y111.855 E74.19685
G1 X110.315 Y112.119 E74.21553
G1 X87.881 Y89.685 E75.07419
G1 X87.617 Y90.322 E75.09287
G1 X109.678 Y112.383 E75.93724
G1 X109.040 Y112.647 E75.95592
G1 X87.353 Y90.960 E76.78599
G1 X87.089 Y91.598 E76.80467
G1 X108.402 Y112.911 E77.62044
G1 X107.765 Y113.176 E77.63912
G1 X86.824 Y92.235 E78.44059
G1 X86.560 Y92.873 E78.45927
G1 X107.127 Y113.440 E79.24645
G1 X106.489 Y113.704 E79.26513
G1 X86.296 Y93.511 E80.03801
G1 X86.032 Y94.148 E80.05669
G1 X105.852 Y113.968 E80.81527
G1 X105.214 Y114.232 E80.83395
G1 X85.768 Y94.786 E81.57824
G1 X85.504 Y95.424 E81.59692
G1 X104.576 Y114.496 E82.32690
G1 X103.939 Y114.760 E82.34558
G1 X85.240 Y96.061 E83.06127
G1 X84.975 Y96.699 E83.07995
G1 X103.301 Y115.025 E83.78135
G1 X102.663 Y115.289 E83.80003
G1 X84.711 Y97.337 E84.48712
G1 X84.447 Y97.974 E84.50580
G1 X102.026 Y115.553 E85.17860
G1 X101.388 Y115.817 E85.19728
G1 X84.183 Y98.612 E85.85578
G1 X83.919 Y99.250 E85.87446
G1 X100.704 Y116.035 E86.51689
G1 X100.006 Y116.189 E86.53624
G1 X99.922 Y116.155 E86.53869
G1 X83.962 Y100.195 E87.14954
G1 X84.041 Y100.551 E87.15940
G1 X84.483 Y101.617 E87.19065
G1 X98.383 Y115.517 E87.72265
G1 X96.843 Y114.879 E87.76774
G1 X85.121 Y103.157 E88.21641
G1 X85.758 Y104.696 E88.26151
G1 X95.304 Y114.242 E88.62685
G1 X93.764 Y113.604 E88.67194
G1 X86.396 Y106.236 E88.95395
G1 X87.034 Y107.775 E88.99905
G1 X92.225 Y112.966 E89.19773
G1 X90.685 Y112.329 E89.24282
G1 X87.671 Y109.315 E89.35817
G1 X88.309 Y110.854 E89.40327
G1 X88.803 Y111.349 E89.42219
G1 X111.197 Y88.651 F7800.000
G1 F1200
G1 X111.691 Y89.145 E89.44111
G1 Z0.950 F7800.000
G1 X111.782 Y111.697 F7800.000
G1 F3600
G1 X111.440 Y112.232 E89.45826
G1 X101.850 Y116.205 E89.73828
G1 X99.440 Y116.739 E89.80488
G1 X89.850 Y112.767 E90.08490
G1 X87.768 Y111.440 E90.15151
G1 X83.795 Y101.850 E90.43153
G1 X83.261 Y99.440 E90.49813
G1 X87.233 Y89.850 E90.77815
G1 X88.560 Y87.768 E90.84476
G1 X98.150 Y83.795 E91.12478
G1 X100.560 Y83.261 E91.19138
G1 X110.150 Y87.233 E91.47140
G1 X112.232 Y88.560 E91.53801
G1 X116.205 Y98.150 E91.81803
G1 X116.739 Y100.560 E91.88463
G1 X112.767 Y110.150 E92.16465
G1 X111.822 Y111.633 E92.21209
G1 X112.318 Y112.038 F7800.000
G1 F3600
G1 X111.869 Y112.743 E92.23464
G1 X102.042 Y116.813 E92.52157
G1 X99.382 Y117.403 E92.59508
G1 X89.555 Y113.333 E92.88201
G1 X87.257 Y111.869 E92.95551
G1 X83.187 Y102.042 E93.24244
G1 X82.597 Y99.382 E93.31595
G1 X86.667 Y89.555 E93.60288
G1 X88.131 Y87.257 E93.67639
G1 X97.958 Y83.187 E93.96332
G1 X100.618 Y82.597 E94.03683
G1 X110.445 Y86.667 E94.32376
G1 X112.743 Y88.131 E94.39727
G1 X116.813 Y97.958 E94.68420
G1 X117.403 Y100.618 E94.75770
G1 X113.333 Y110.445 E95.04463
G1 X112.358 Y111.975 E95.09357
G1 X112.791 Y112.339 F7800.000
G1 F1800
G1 X112.247 Y113.193 E95.11444
G1 X102.211 Y117.350 E95.33831
G1 X99.331 Y117.989 E95.39913
G1 X89.295 Y113.832 E95.62300
G1 X86.807 Y112.247 E95.68381
G1 X82.650 Y102.211 E95.90768
G1 X82.011 Y99.331 E95.96850
G1 X86.168 Y89.295 E96.19237
G1 X87.753 Y86.807 E96.25318
G1 X97.789 Y82.650 E96.47706
G1 X100.669 Y82.011 E96.53787
G1 X110.705 Y86.168 E96.76174
G1 X113.193 Y87.753 E96.82256
G1 X117.350 Y97.789 E97.04643
G1 X117.989 Y100.669 E97.10724
G1 X113.832 Y110.705 E97.33111
G1 X112.831 Y112.276 E97.36951
G1 X112.291 Y112.342 F7800.000
G1 X110.764 Y111.969 F7800.000
G1 F1200
G1 X111.259 Y111.474 E97.38861
G1 X112.448 Y109.608 E97.44899
G1 X112.612 Y109.212 E97.46070
G1 X109.212 Y112.612 E97.59192
G1 X107.660 Y113.255 E97.63778
G1 X113.255 Y107.660 E97.85373
G1 X113.898 Y106.107 E97.89958
G1 X106.107 Y113.898 E98.20026
G1 X104.555 Y114.541 E98.24612
G1 X114.541 Y104.555 E98.63152
G1 X115.184 Y103.003 E98.67738
G1 X103.003 Y115.184 E99.14751
G1 X101.450 Y115.827 E99.19337
G1 X115.827 Y101.450 E99.74823
G1 X116.322 Y100.255 E99.78354
G1 X116.285 Y100.084 E99.78832
G1 X100.272 Y116.096 E100.40630
G1 X99.251 Y116.322 E100.43485
G1 X99.170 Y116.289 E100.43724
G1 X116.120 Y99.339 E101.09139
G1 X115.955 Y98.595 E101.11220
G1 X98.527 Y116.023 E101.78480
G1 X97.884 Y115.756 E101.80379
G1 X115.756 Y97.884 E102.49356
G1 X115.490 Y97.241 E102.51255
G1 X97.241 Y115.490 E103.21686
G1 X96.598 Y115.224 E103.23585
G1 X115.224 Y96.598 E103.95469
G1 X114.957 Y95.955 E103.97368
G1 X95.955 Y114.957 E104.70706
G1 X95.312 Y114.691 E104.72606
G1 X114.691 Y95.312 E105.47397
G1 X114.425 Y94.669 E105.49296
G1 X94.669 Y114.425 E106.25542
G1 X94.026 Y114.158 E106.27441
G1 X114.158 Y94.026 E107.05140
G1 X113.892 Y93.383 E107.07039
G1 X93.383 Y113.892 E107.86192
G1 X92.740 Y113.626 E107.88091
G1 X113.626 Y92.740 E108.68697
G1 X113.359 Y92.097 E108.70597
G1 X92.097 Y113.359 E109.52657
G1 X91.454 Y113.093 E109.54556
G1 X113.093 Y91.454 E110.38070
G1 X112.827 Y90.811 E110.39969
G1 X90.811 Y112.827 E111.24937
G1 X90.168 Y112.560 E111.26836
G1 X112.560 Y90.168 E112.13257
G1 X112.294 Y89.525 E112.15156
G1 X89.576 Y112.243 E113.02836
G1 X89.020 Y111.889 E113.04633
G1 X112.028 Y88.882 E113.93428
G1 X111.969 Y88.741 E113.93844
G1 X111.535 Y88.465 E113.95248
G1 X88.465 Y111.535 E114.84287
G1 X88.031 Y111.259 E114.85691
G1 X87.972 Y111.118 E114.86107
G1 X110.980 Y88.111 E115.74902
G1 X110.425 Y87.757 E115.76700
G1 X87.706 Y110.475 E116.64379
G1 X87.440 Y109.832 E116.66278
G1 X109.832 Y87.440 E117.52699
G1 X109.189 Y87.173 E117.54599
G1 X87.173 Y109.189 E118.39566
G1 X86.907 Y108.546 E118.41466
G1 X108.546 Y86.907 E119.24979
G1 X107.903 Y86.641 E119.26879
G1 X86.641 Y107.903 E120.08939
G1 X86.374 Y107.260 E120.10838
G1 X107.260 Y86.374 E120.91444
G1 X106.617 Y86.108 E120.93344
G1 X86.108 Y106.617 E121.72496
G1 X85.842 Y105.974 E121.74396
G1 X105.974 Y85.842 E122.52095
G1 X105.331 Y85.575 E122.53994
G1 X85.575 Y105.331 E123.30239
G1 X85.309 Y104.688 E123.32139
G1 X104.688 Y85.309 E124.06930
G1 X104.045 Y85.043 E124.08829
G1 X85.043 Y104.045 E124.82167
G1 X84.776 Y103.402 E124.84067
G1 X103.402 Y84.776 E125.55951
G1 X102.759 Y84.510 E125.57850
G1 X84.510 Y102.759 E126.28281
G1 X84.244 Y102.116 E126.30180
G1 X102.116 Y84.244 E126.99157
G1 X101.473 Y83.977 E127.01056
G1 X84.045 Y101.405 E127.68316
G1 X83.880 Y100.661 E127.70397
G1 X100.830 Y83.711 E128.35812
G1 X100.749 Y83.678 E128.36051
G1 X99.728 Y83.904 E128.38906
G1 X83.715 Y99.916 E129.00704
G1 X83.678 Y99.745 E129.01182
G1 X84.173 Y98.550 E129.04713
G1 X98.550 Y84.173 E129.60200
