;FLAVOR:Marlin
;TIME:2366
;Filament used: 3.72328m
;Layer height: 0.3
;MINX:83.941
;MINY:79.098
;MINZ:0.3
;MAXX:216.059
;MAXY:211.216
;MAXZ:9
;LINEARADVANCEPROCESSED
;Generated with Cura_SteamEngine 4.6.0
M140 S80
M105
M190 S80
M104 S250
M105
M109 S250
M82 ;absolute extrusion mode
G28 ; home all axes
M420 S1 ; enable bed mesh
M117 Purge extruder
G92 E0 ; reset extruder
G1 Z1.0 F3000 ; move z up little to prevent scratching of surface
G1 X2 Y20 Z0.3 F5000.0 ; move to start-line position
G1 X2 Y200.0 Z0.3 F1500.0 E15 ; draw 1st line
G1 X2 Y200.0 Z0.4 F5000.0 ; move to side a little
G1 X2 Y20 Z0.4 F1500.0 E30 ; draw 2nd line
G92 E0 ; reset extruder
G1 Z1.0 F3000 ; move z up little to prevent scratching of surface
G92 E0
G92 E0
G1 F1500 E-2
;LAYER_COUNT:30
M900 K0.050000 T0 ;added by LinearAdvanceSettingPlugin
;LAYER:0
M107
G0 F1200 X151.601 Y81.75 Z0.3
;TYPE:SKIRT
G1 F1500 E0
G1 F1200 X153.721 Y81.839 E0.21019
G1 X154.219 Y81.871 E0.25962
G1 X156.315 Y82.045 E0.46796
G1 X156.851 Y82.101 E0.52134
G1 X158.9 Y82.358 E0.7259
G1 X159.428 Y82.435 E0.77875
G1 X161.538 Y82.788 E0.99067
G1 X161.956 Y82.867 E1.03281
G1 X164.13 Y83.324 E1.25286
G1 X164.547 Y83.421 E1.29527
G1 X166.596 Y83.941 E1.50467
G1 X166.595 Y83.945 E1.50508
G1 X166.665 Y83.958 E1.51214
G1 X167.115 Y84.083 E1.5584
G1 X169.133 Y84.684 E1.76697
G1 X169.592 Y84.832 E1.81474
G1 X171.677 Y85.549 E2.03315
G1 X172.08 Y85.698 E2.07571
G1 X174.099 Y86.486 E2.2904
G1 X174.496 Y86.652 E2.33302
G1 X176.518 Y87.539 E2.55174
G1 X176.94 Y87.737 E2.59792
G1 X178.836 Y88.663 E2.80693
G1 X179.262 Y88.884 E2.85447
G1 X181.159 Y89.911 E3.06815
G1 X181.592 Y90.158 E3.11753
G1 X183.406 Y91.24 E3.32676
G1 X183.833 Y91.508 E3.3767
G1 X185.599 Y92.662 E3.58567
G1 X186.005 Y92.939 E3.63435
G1 X187.746 Y94.184 E3.84637
G1 X188.125 Y94.467 E3.89323
G1 X189.852 Y95.813 E4.11012
G1 X190.177 Y96.078 E4.15166
G1 X191.833 Y97.48 E4.36659
G1 X192.187 Y97.795 E4.41353
G1 X193.768 Y99.251 E4.62643
G1 X194.062 Y99.533 E4.66679
G1 X195.624 Y101.095 E4.8856
G1 X195.905 Y101.388 E4.92582
G1 X195.948 Y101.441 E4.93258
G1 X195.951 Y101.438 E4.933
G1 X197.409 Y103.021 E5.14618
G1 X197.727 Y103.382 E5.19384
G1 X199.118 Y105.029 E5.40738
G1 X199.393 Y105.367 E5.45055
G1 X200.737 Y107.094 E5.66732
G1 X201.018 Y107.473 E5.71405
G1 X202.236 Y109.18 E5.92177
G1 X202.577 Y109.679 E5.98164
G1 X203.686 Y111.381 E6.18287
G1 X203.957 Y111.816 E6.23364
G1 X205.037 Y113.63 E6.44276
G1 X205.281 Y114.063 E6.492
G1 X206.304 Y115.953 E6.70488
G1 X206.528 Y116.39 E6.75352
G1 X207.42 Y118.217 E6.95492
G1 X207.415 Y118.22 E6.9555
G1 X207.449 Y118.276 E6.96198
G1 X207.653 Y118.716 E7.01003
G1 X208.531 Y120.721 E7.22684
G1 X208.671 Y121.058 E7.26299
G1 X208.694 Y121.128 E7.27029
G1 X208.697 Y121.127 E7.2706
G1 X209.482 Y123.139 E7.48454
G1 X209.649 Y123.594 E7.53255
G1 X210.337 Y125.597 E7.74234
G1 X210.483 Y126.057 E7.79015
G1 X211.101 Y128.135 E8.0049
G1 X211.224 Y128.585 E8.05111
G1 X211.751 Y130.67 E8.26414
G1 X211.862 Y131.15 E8.31294
G1 X212.275 Y133.117 E8.51203
G1 X212.283 Y133.181 E8.51842
G1 X212.286 Y133.181 E8.51872
G1 X212.383 Y133.695 E8.57053
G1 X212.74 Y135.842 E8.78613
G1 X212.802 Y136.281 E8.83004
G1 X213.069 Y138.42 E9.04357
G1 X213.114 Y138.867 E9.08807
G1 X213.293 Y141.036 E9.30366
G1 X213.322 Y141.509 E9.3506
G1 X213.409 Y143.628 E9.56068
G1 X213.419 Y144.135 E9.61091
G1 X213.418 Y146.248 E9.82022
G1 X213.407 Y146.763 E9.87125
G1 X213.319 Y148.871 E10.08024
G1 X213.287 Y149.366 E10.12937
G1 X213.111 Y151.492 E10.34069
G1 X213.061 Y151.966 E10.3879
G1 X212.792 Y154.118 E10.60273
G1 X212.725 Y154.571 E10.64809
G1 X212.371 Y156.688 E10.86071
G1 X212.283 Y157.152 E10.90749
G1 X211.84 Y159.26 E11.12086
G1 X211.752 Y159.641 E11.1596
G1 X211.748 Y159.64 E11.16001
G1 X211.735 Y159.713 E11.16735
G1 X211.206 Y161.797 E11.38033
G1 X211.081 Y162.249 E11.42679
G1 X210.464 Y164.317 E11.64056
G1 X210.313 Y164.788 E11.68956
G1 X209.626 Y166.785 E11.89875
G1 X209.448 Y167.269 E11.94983
G1 X208.682 Y169.227 E12.1581
G1 X208.504 Y169.656 E12.20411
G1 X207.621 Y171.665 E12.42149
G1 X207.42 Y172.099 E12.46887
G1 X206.495 Y173.99 E12.67739
G1 X206.306 Y174.357 E12.71828
G1 X206.27 Y174.415 E12.72505
G1 X206.273 Y174.417 E12.7254
G1 X205.246 Y176.316 E12.93926
G1 X204.999 Y176.749 E12.98864
G1 X203.922 Y178.555 E13.19693
G1 X203.649 Y178.992 E13.24797
G1 X202.496 Y180.754 E13.45656
G1 X202.219 Y181.16 E13.50524
G1 X200.97 Y182.908 E13.71806
G1 X200.689 Y183.283 E13.76447
G1 X199.347 Y185.005 E13.98073
G1 X199.078 Y185.335 E14.02291
G1 X197.675 Y186.992 E14.23798
G1 X197.351 Y187.357 E14.28632
G1 X195.914 Y188.916 E14.49635
G1 X195.581 Y189.263 E14.54399
G1 X194.105 Y190.738 E14.75069
G1 X194.104 Y190.737 E14.75083
G1 X194.056 Y190.787 E14.75769
G1 X193.707 Y191.121 E14.80554
G1 X192.144 Y192.559 E15.01593
G1 X191.748 Y192.908 E15.06822
G1 X190.178 Y194.237 E15.27197
G1 X189.773 Y194.564 E15.32354
G1 X188.061 Y195.896 E15.5384
G1 X187.692 Y196.17 E15.58393
G1 X185.943 Y197.417 E15.79671
G1 X185.547 Y197.686 E15.84413
G1 X183.771 Y198.846 E16.05426
G1 X183.335 Y199.117 E16.10511
G1 X181.52 Y200.198 E16.31437
G1 X181.124 Y200.423 E16.35948
G1 X179.191 Y201.469 E16.5772
G1 X178.768 Y201.686 E16.62429
G1 X176.886 Y202.605 E16.83176
G1 X176.441 Y202.811 E16.88033
G1 X174.44 Y203.686 E17.09666
G1 X174.055 Y203.846 E17.13796
G1 X171.988 Y204.651 E17.35769
G1 X171.641 Y204.779 E17.39433
G1 X171.567 Y204.8 E17.40195
G1 X171.568 Y204.804 E17.40236
G1 X169.563 Y205.492 E17.61234
G1 X169.099 Y205.64 E17.66058
G1 X167.023 Y206.257 E17.87511
G1 X166.572 Y206.381 E17.92145
G1 X164.486 Y206.908 E18.13457
G1 X164.106 Y206.996 E18.17321
G1 X164.037 Y207.006 E18.18011
G1 X164.038 Y207.01 E18.18052
G1 X161.929 Y207.453 E18.39399
G1 X161.459 Y207.541 E18.44136
G1 X159.341 Y207.893 E18.65404
G1 X158.894 Y207.958 E18.69878
G1 X156.734 Y208.226 E18.91439
G1 X156.248 Y208.275 E18.96277
G1 X154.151 Y208.448 E19.1712
G1 X153.648 Y208.479 E19.22112
G1 X151.528 Y208.566 E19.4313
G1 X151.021 Y208.576 E19.48153
G1 X148.908 Y208.575 E19.69084
G1 X148.4 Y208.564 E19.74117
G1 X146.28 Y208.475 E19.95136
G1 X145.78 Y208.443 E20.00099
G1 X143.685 Y208.269 E20.20923
G1 X143.191 Y208.218 E20.25842
G1 X141.039 Y207.949 E20.47325
G1 X140.586 Y207.882 E20.51861
G1 X138.467 Y207.528 E20.73142
G1 X138.005 Y207.44 E20.77801
G1 X135.964 Y207.012 E20.98458
G1 X135.965 Y207.008 E20.98499
G1 X135.886 Y206.995 E20.99292
G1 X135.446 Y206.892 E21.03768
G1 X133.358 Y206.362 E21.25107
G1 X132.91 Y206.238 E21.29712
G1 X130.834 Y205.619 E21.51171
G1 X130.366 Y205.469 E21.56039
G1 X128.372 Y204.783 E21.76927
G1 X127.954 Y204.629 E21.8134
G1 X125.872 Y203.817 E22.03477
G1 X125.504 Y203.663 E22.07428
G1 X123.485 Y202.778 E22.29265
G1 X123.058 Y202.578 E22.33935
G1 X121.166 Y201.653 E22.54797
G1 X120.746 Y201.436 E22.5948
G1 X118.815 Y200.389 E22.81239
G1 X118.418 Y200.162 E22.85769
G1 X116.608 Y199.082 E23.06647
G1 X116.165 Y198.806 E23.11817
G1 X114.396 Y197.648 E23.32761
G1 X113.994 Y197.373 E23.37586
G1 X112.25 Y196.128 E23.58812
G1 X111.879 Y195.85 E23.63404
G1 X110.172 Y194.521 E23.84833
G1 X109.767 Y194.191 E23.90008
G1 X108.195 Y192.859 E24.10418
G1 X107.806 Y192.514 E24.15569
G1 X106.245 Y191.076 E24.36593
G1 X105.892 Y190.737 E24.41441
G1 X104.369 Y189.211 E24.62797
G1 X104.039 Y188.866 E24.67526
G1 X102.597 Y187.301 E24.88606
G1 X102.274 Y186.933 E24.93456
G1 X100.881 Y185.286 E25.14824
G1 X100.609 Y184.951 E25.19098
G1 X99.27 Y183.229 E25.40706
G1 X98.986 Y182.847 E25.45421
G1 X97.737 Y181.097 E25.66718
G1 X97.469 Y180.703 E25.71439
G1 X96.313 Y178.932 E25.92388
G1 X96.043 Y178.498 E25.97451
G1 X94.967 Y176.69 E26.18292
G1 X94.717 Y176.25 E26.23305
G1 X93.696 Y174.361 E26.44575
G1 X93.472 Y173.925 E26.49431
G1 X92.55 Y172.035 E26.70262
G1 X92.351 Y171.604 E26.74964
G1 X91.469 Y169.591 E26.96734
G1 X91.291 Y169.162 E27.01335
G1 X90.551 Y167.27 E27.21459
G1 X90.53 Y167.201 E27.22174
G1 X90.527 Y167.202 E27.22205
G1 X90.35 Y166.718 E27.2731
G1 X89.662 Y164.713 E27.48308
G1 X89.517 Y164.256 E27.53057
G1 X88.899 Y162.179 E27.74522
G1 X88.776 Y161.729 E27.79144
G1 X88.249 Y159.642 E28.00466
G1 X88.145 Y159.192 E28.05041
G1 X87.706 Y157.096 E28.26254
G1 X87.63 Y156.701 E28.30238
G1 X87.62 Y156.616 E28.31086
G1 X87.616 Y156.617 E28.31127
G1 X87.263 Y154.498 E28.52406
G1 X87.199 Y154.051 E28.56879
G1 X86.931 Y151.896 E28.7839
G1 X86.883 Y151.42 E28.83129
G1 X86.708 Y149.298 E29.04221
G1 X86.677 Y148.795 E29.09213
G1 X86.591 Y146.691 E29.30072
G1 X86.581 Y146.178 E29.35154
G1 X86.582 Y144.065 E29.56085
G1 X86.593 Y143.556 E29.61128
G1 X86.682 Y141.438 E29.82127
G1 X86.712 Y140.966 E29.86812
G1 X86.892 Y138.799 E30.08351
G1 X86.94 Y138.345 E30.12874
G1 X87.206 Y136.221 E30.34078
G1 X87.272 Y135.767 E30.38622
G1 X87.631 Y133.615 E30.60234
G1 X87.726 Y133.12 E30.65227
G1 X88.154 Y131.08 E30.85874
G1 X88.266 Y130.601 E30.90747
G1 X88.778 Y128.582 E31.1138
G1 X88.782 Y128.583 E31.11421
G1 X88.795 Y128.514 E31.12116
G1 X88.919 Y128.065 E31.1673
G1 X89.535 Y125.998 E31.38095
G1 X89.661 Y125.601 E31.42221
G1 X89.692 Y125.525 E31.43034
G1 X89.688 Y125.524 E31.43075
G1 X90.376 Y123.525 E31.64017
G1 X90.541 Y123.077 E31.68746
G1 X91.301 Y121.129 E31.89459
G1 X91.304 Y121.13 E31.8949
G1 X91.33 Y121.055 E31.90276
G1 X91.495 Y120.661 E31.94507
G1 X92.382 Y118.639 E32.16379
G1 X92.58 Y118.217 E32.20997
G1 X93.506 Y116.321 E32.41898
G1 X93.727 Y115.895 E32.46652
G1 X94.754 Y113.996 E32.68038
G1 X95.001 Y113.565 E32.72958
G1 X96.08 Y111.755 E32.93832
G1 X96.336 Y111.346 E32.98611
G1 X97.523 Y109.531 E33.20094
G1 X97.8 Y109.127 E33.24946
G1 X99.005 Y107.442 E33.45466
G1 X99.312 Y107.029 E33.50563
G1 X100.648 Y105.316 E33.72082
G1 X100.921 Y104.98 E33.76371
G1 X102.323 Y103.324 E33.97864
G1 X102.638 Y102.97 E34.02558
G1 X104.094 Y101.389 E34.23848
G1 X104.376 Y101.095 E34.27884
G1 X105.938 Y99.533 E34.49765
G1 X106.231 Y99.252 E34.53787
G1 X106.284 Y99.209 E34.54463
G1 X106.281 Y99.206 E34.54505
G1 X107.864 Y97.748 E34.75823
G1 X108.225 Y97.43 E34.80589
G1 X109.824 Y96.078 E35.01331
G1 X110.206 Y95.765 E35.06223
G1 X111.934 Y94.422 E35.27902
G1 X112.31 Y94.143 E35.3254
G1 X114.06 Y92.894 E35.53837
G1 X114.454 Y92.626 E35.58557
G1 X116.225 Y91.47 E35.79507
G1 X116.659 Y91.2 E35.8457
G1 X118.473 Y90.12 E36.05482
G1 X118.906 Y89.876 E36.10406
G1 X120.796 Y88.853 E36.31694
G1 X121.233 Y88.629 E36.36558
G1 X123.06 Y87.737 E36.56698
G1 X123.063 Y87.742 E36.56755
G1 X123.119 Y87.708 E36.57404
G1 X123.559 Y87.504 E36.62209
G1 X125.564 Y86.626 E36.8389
G1 X125.901 Y86.486 E36.87505
G1 X125.971 Y86.463 E36.88235
G1 X125.97 Y86.46 E36.88266
G1 X127.981 Y85.675 E37.09651
G1 X128.395 Y85.523 E37.14019
G1 X130.472 Y84.811 E37.35769
G1 X130.939 Y84.662 E37.40624
G1 X132.953 Y84.063 E37.61438
G1 X133.406 Y83.939 E37.66091
G1 X135.527 Y83.403 E37.87761
G1 X135.934 Y83.31 E37.91897
G1 X138.041 Y82.867 E38.13224
G1 X138.121 Y82.856 E38.14024
G1 X138.12 Y82.852 E38.14065
G1 X138.526 Y82.777 E38.18155
G1 X140.645 Y82.424 E38.39434
G1 X141.167 Y82.349 E38.44658
G1 X143.226 Y82.092 E38.65212
G1 X143.751 Y82.039 E38.70439
G1 X145.849 Y81.866 E38.91292
G1 X146.352 Y81.835 E38.96284
G1 X148.471 Y81.748 E39.17292
G1 X148.979 Y81.738 E39.22325
G1 X151.092 Y81.739 E39.43255
G1 X151.601 Y81.75 E39.48299
G0 X151.637 Y80.871
G1 X153.776 Y80.96 E39.69505
G1 X154.291 Y80.994 E39.74618
G1 X156.405 Y81.169 E39.9563
G1 X156.96 Y81.227 E40.01158
G1 X159.026 Y81.487 E40.21784
G1 X159.573 Y81.567 E40.2726
G1 X161.699 Y81.923 E40.48613
G1 X162.137 Y82.006 E40.53029
G1 X164.328 Y82.466 E40.75206
G1 X164.764 Y82.568 E40.79641
G1 X166.813 Y83.088 E41.00581
G1 X166.813 Y83.089 E41.00591
G1 X166.9 Y83.11 E41.01478
G1 X167.366 Y83.239 E41.06267
G1 X169.402 Y83.846 E41.27313
G1 X169.878 Y84 E41.32268
G1 X171.981 Y84.723 E41.54297
G1 X172.399 Y84.878 E41.58713
G1 X174.436 Y85.674 E41.80377
G1 X174.849 Y85.846 E41.84808
G1 X176.891 Y86.742 E42.06897
G1 X177.326 Y86.946 E42.11657
G1 X179.24 Y87.881 E42.32757
G1 X179.681 Y88.11 E42.3768
G1 X181.595 Y89.146 E42.59238
G1 X182.042 Y89.402 E42.64341
G1 X183.873 Y90.494 E42.85459
G1 X184.314 Y90.771 E42.90618
G1 X186.094 Y91.934 E43.1168
G1 X186.517 Y92.223 E43.16754
G1 X188.272 Y93.478 E43.38126
G1 X188.665 Y93.773 E43.42994
G1 X190.408 Y95.13 E43.64875
G1 X190.745 Y95.406 E43.6919
G1 X192.416 Y96.821 E43.9088
G1 X192.783 Y97.147 E43.95743
G1 X194.377 Y98.616 E44.17215
G1 X194.736 Y98.961 E44.22147
G1 X196.259 Y100.486 E44.43496
G1 X196.54 Y100.779 E44.47518
G1 X196.595 Y100.844 E44.48361
G1 X196.598 Y100.841 E44.48403
G1 X198.068 Y102.438 E44.69904
G1 X198.399 Y102.814 E44.74866
G1 X199.801 Y104.473 E44.96382
G1 X200.087 Y104.826 E45.00882
G1 X201.444 Y106.57 E45.22771
G1 X201.734 Y106.962 E45.27602
G1 X202.961 Y108.682 E45.4853
G1 X203.314 Y109.198 E45.54723
G1 X204.433 Y110.915 E45.75025
G1 X204.713 Y111.366 E45.80283
G1 X205.802 Y113.196 E46.01377
G1 X206.055 Y113.644 E46.06474
G1 X207.086 Y115.549 E46.27931
G1 X207.319 Y116.004 E46.32994
G1 X208.211 Y117.831 E46.53134
G1 X208.206 Y117.834 E46.53192
G1 X208.247 Y117.905 E46.54004
G1 X208.459 Y118.363 E46.59003
G1 X209.343 Y120.384 E46.80854
G1 X209.483 Y120.721 E46.84469
G1 X209.513 Y120.809 E46.85389
G1 X209.517 Y120.807 E46.85434
G1 X210.308 Y122.836 E47.07006
G1 X210.481 Y123.308 E47.11985
G1 X211.176 Y125.33 E47.33165
G1 X211.326 Y125.806 E47.38109
G1 X211.95 Y127.902 E47.59771
G1 X212.077 Y128.369 E47.64565
G1 X212.609 Y130.472 E47.86053
G1 X212.723 Y130.969 E47.91104
G1 X213.136 Y132.936 E48.11014
G1 X213.147 Y133.017 E48.11823
G1 X213.151 Y133.016 E48.11864
G1 X213.251 Y133.55 E48.17246
G1 X213.611 Y135.716 E48.38996
G1 X213.676 Y136.171 E48.43549
G1 X213.944 Y138.33 E48.65099
G1 X213.991 Y138.794 E48.69719
G1 X214.172 Y140.981 E48.91457
G1 X214.201 Y141.473 E48.96339
G1 X214.289 Y143.61 E49.17525
G1 X214.299 Y144.135 E49.22727
G1 X214.298 Y146.266 E49.43836
G1 X214.286 Y146.799 E49.49117
G1 X214.197 Y148.926 E49.70205
G1 X214.164 Y149.438 E49.75287
G1 X213.986 Y151.583 E49.96608
G1 X213.934 Y152.075 E50.01509
G1 X213.662 Y154.244 E50.23162
G1 X213.593 Y154.716 E50.27888
G1 X213.236 Y156.851 E50.4933
G1 X213.144 Y157.333 E50.54191
G1 X212.697 Y159.458 E50.75701
G1 X212.609 Y159.839 E50.79574
G1 X212.602 Y159.837 E50.79646
G1 X212.588 Y159.929 E50.80568
G1 X212.055 Y162.03 E51.02039
G1 X211.924 Y162.501 E51.06882
G1 X211.303 Y164.584 E51.28413
G1 X211.146 Y165.074 E51.3351
G1 X210.453 Y167.088 E51.54608
G1 X210.268 Y167.589 E51.59898
G1 X209.495 Y169.564 E51.80907
G1 X209.31 Y170.009 E51.85681
G1 X208.42 Y172.034 E52.07592
G1 X208.211 Y172.485 E52.12516
G1 X207.278 Y174.393 E52.33554
G1 X207.089 Y174.76 E52.37644
G1 X207.044 Y174.834 E52.38501
G1 X207.048 Y174.836 E52.38546
G1 X206.011 Y176.752 E52.60127
G1 X205.755 Y177.2 E52.65238
G1 X204.669 Y179.02 E52.86232
G1 X204.385 Y179.473 E52.91528
G1 X203.224 Y181.249 E53.12546
G1 X202.935 Y181.672 E53.17621
G1 X201.675 Y183.435 E53.39086
G1 X201.383 Y183.823 E53.43896
G1 X200.03 Y185.559 E53.65699
G1 X199.75 Y185.903 E53.70092
G1 X198.333 Y187.576 E53.9181
G1 X197.999 Y187.953 E53.96799
G1 X196.549 Y189.526 E54.17991
G1 X196.203 Y189.886 E54.22937
G1 X194.727 Y191.361 E54.43607
G1 X194.722 Y191.356 E54.43677
G1 X194.665 Y191.422 E54.44541
G1 X194.303 Y191.768 E54.49501
G1 X192.727 Y193.218 E54.70715
G1 X192.317 Y193.58 E54.76133
G1 X190.732 Y194.921 E54.96699
G1 X190.314 Y195.259 E55.02024
G1 X188.587 Y196.602 E55.23695
G1 X188.203 Y196.887 E55.28432
G1 X186.438 Y198.145 E55.49902
G1 X186.029 Y198.422 E55.54795
G1 X184.237 Y199.593 E55.76
G1 X183.786 Y199.873 E55.81258
G1 X181.955 Y200.963 E56.02366
G1 X181.543 Y201.196 E56.07055
G1 X179.594 Y202.251 E56.29008
G1 X179.154 Y202.477 E56.33908
G1 X177.258 Y203.402 E56.54805
G1 X176.794 Y203.617 E56.5987
G1 X174.779 Y204.499 E56.81659
G1 X174.375 Y204.666 E56.85989
G1 X172.292 Y205.477 E57.08131
G1 X171.945 Y205.605 E57.11795
G1 X171.853 Y205.632 E57.12745
G1 X171.854 Y205.636 E57.12786
G1 X169.831 Y206.331 E57.33974
G1 X169.35 Y206.483 E57.38971
G1 X167.257 Y207.106 E57.60603
G1 X166.788 Y207.234 E57.65419
