;FLAVOR:Marlin
;TIME:3031
;Filament used: 3.95255m
;Layer height: 0.3
;MINX:133.889
;MINY:105.46
;MINZ:0.2
;MAXX:164.289
;MAXY:170.86
;MAXZ:44.9
;Generated with Cura_SteamEngine 4.6.0
M140 S80
M105
M190 S80
M104 S250
M105
M109 S250
M82 ;absolute extrusion mode
G28 ; home all axes
M420 S1 ; enable bed mesh
M117 Purge extruder
G92 E0 ; reset extruder
G1 Z1.0 F3000 ; move z up little to prevent scratching of surface
G1 X2 Y20 Z0.3 F5000.0 ; move to start-line position
G1 X2 Y200.0 Z0.3 F1500.0 E15 ; draw 1st line
G1 X2 Y200.0 Z0.4 F5000.0 ; move to side a little
G1 X2 Y20 Z0.4 F1500.0 E30 ; draw 2nd line
G92 E0 ; reset extruder
G1 Z1.0 F3000 ; move z up little to prevent scratching of surface
G92 E0
G92 E0
G1 F1500 E-2
;LAYER_COUNT:150
;LAYER:0
M107
G0 F900 X134.504 Y106.444 Z0.2
;TYPE:SKIRT
G1 F1500 E0
G1 F1200 X134.829 Y106.112 E0.02459
G1 X135.206 Y105.841 E0.04916
G1 X135.624 Y105.638 E0.07376
G1 X136.07 Y105.51 E0.09832
G1 X136.589 Y105.46 E0.12592
G1 X161.589 Y105.46 E1.44913
G1 X162.052 Y105.5 E1.47373
G1 X162.501 Y105.619 E1.49831
G1 X162.923 Y105.812 E1.52287
G1 X163.305 Y106.075 E1.54742
G1 X163.637 Y106.4 E1.57201
G1 X163.908 Y106.777 E1.59658
G1 X164.111 Y107.195 E1.62118
G1 X164.239 Y107.641 E1.64574
G1 X164.289 Y108.16 E1.67334
G1 X164.289 Y168.16 E4.84905
G1 X164.249 Y168.623 E4.87364
G1 X164.13 Y169.072 E4.89823
G1 X163.937 Y169.494 E4.92279
G1 X163.674 Y169.876 E4.94734
G1 X163.349 Y170.208 E4.97193
G1 X162.972 Y170.479 E4.9965
G1 X162.554 Y170.682 E5.0211
G1 X162.108 Y170.81 E5.04566
G1 X161.589 Y170.86 E5.07325
G1 X136.589 Y170.86 E6.39647
G1 X136.126 Y170.82 E6.42106
G1 X135.677 Y170.701 E6.44565
G1 X135.255 Y170.508 E6.47021
G1 X134.873 Y170.245 E6.49476
G1 X134.541 Y169.92 E6.51935
G1 X134.27 Y169.543 E6.54392
G1 X134.067 Y169.125 E6.56852
G1 X133.939 Y168.679 E6.59308
G1 X133.889 Y168.16 E6.62067
G1 X133.889 Y108.16 E9.79638
G1 X133.929 Y107.697 E9.82098
G1 X134.048 Y107.248 E9.84557
G1 X134.241 Y106.826 E9.87013
G1 X134.504 Y106.444 E9.89468
G0 F900 X135.098 Y106.682
G1 F1200 X135.413 Y106.42 E9.91636
G1 X135.773 Y106.225 E9.93803
G1 X136.164 Y106.104 E9.95969
G1 X136.589 Y106.06 E9.98231
G1 X161.589 Y106.06 E11.30552
G1 X161.996 Y106.1 E11.32717
G1 X162.388 Y106.218 E11.34884
G1 X162.75 Y106.41 E11.37052
G1 X163.067 Y106.669 E11.39219
G1 X163.329 Y106.984 E11.41388
G1 X163.524 Y107.344 E11.43555
G1 X163.645 Y107.735 E11.45721
G1 X163.689 Y108.16 E11.47982
G1 X163.689 Y168.16 E14.65554
G1 X163.649 Y168.567 E14.67718
G1 X163.531 Y168.959 E14.69885
G1 X163.339 Y169.321 E14.72054
G1 X163.08 Y169.638 E14.7422
G1 X162.765 Y169.9 E14.76389
G1 X162.405 Y170.095 E14.78556
G1 X162.014 Y170.216 E14.80722
G1 X161.589 Y170.26 E14.82984
G1 X136.589 Y170.26 E16.15305
G1 X136.182 Y170.22 E16.1747
G1 X135.79 Y170.102 E16.19636
G1 X135.428 Y169.91 E16.21805
G1 X135.111 Y169.651 E16.23972
G1 X134.849 Y169.336 E16.2614
G1 X134.654 Y168.976 E16.28307
G1 X134.533 Y168.585 E16.30474
G1 X134.489 Y168.16 E16.32735
G1 X134.489 Y108.16 E19.50306
G1 X134.529 Y107.753 E19.52471
G1 X134.647 Y107.361 E19.54638
G1 X134.839 Y106.999 E19.56806
G1 X135.098 Y106.682 E19.58973
G0 F900 X135.435 Y107.201
G1 F1200 X135.685 Y106.963 E19.608
G1 X135.984 Y106.788 E19.62634
G1 X136.314 Y106.685 E19.64463
G1 X136.589 Y106.66 E19.65925
G1 X161.589 Y106.66 E20.98246
G1 X161.933 Y106.7 E21.00079
G1 X162.258 Y106.817 E21.01908
G1 X162.548 Y107.006 E21.0374
G1 X162.786 Y107.256 E21.05567
G1 X162.961 Y107.555 E21.074
G1 X163.064 Y107.885 E21.0923
G1 X163.089 Y108.16 E21.10692
G1 X163.089 Y168.16 E24.28263
G1 X163.049 Y168.504 E24.30096
G1 X162.932 Y168.829 E24.31924
G1 X162.743 Y169.119 E24.33756
G1 X162.493 Y169.357 E24.35583
G1 X162.194 Y169.532 E24.37417
G1 X161.864 Y169.635 E24.39246
G1 X161.589 Y169.66 E24.40708
G1 X136.589 Y169.66 E25.73029
G1 X136.245 Y169.62 E25.74862
G1 X135.92 Y169.503 E25.76691
G1 X135.63 Y169.314 E25.78523
G1 X135.392 Y169.064 E25.8035
G1 X135.217 Y168.765 E25.82183
G1 X135.114 Y168.435 E25.84013
G1 X135.089 Y168.16 E25.85475
G1 X135.089 Y108.16 E29.03046
G1 X135.129 Y107.816 E29.04879
G1 X135.246 Y107.491 E29.06707
G1 X135.435 Y107.201 E29.08539
G0 F900 X135.845 Y107.654
G1 F1200 X136.026 Y107.458 E29.09951
G1 X136.258 Y107.323 E29.11372
G1 X136.589 Y107.26 E29.13155
G1 X161.589 Y107.26 E30.45477
G1 X161.854 Y107.3 E30.46895
G1 X162.095 Y107.416 E30.48311
G1 X162.291 Y107.597 E30.49723
G1 X162.426 Y107.829 E30.51143
G1 X162.489 Y108.16 E30.52927
G1 X162.489 Y168.16 E33.70498
G1 X162.449 Y168.425 E33.71916
G1 X162.333 Y168.666 E33.73332
G1 X162.152 Y168.862 E33.74744
G1 X161.92 Y168.997 E33.76165
G1 X161.589 Y169.06 E33.77948
G1 X136.589 Y169.06 E35.1027
G1 X136.324 Y169.02 E35.11688
G1 X136.083 Y168.904 E35.13104
G1 X135.887 Y168.723 E35.14516
G1 X135.752 Y168.491 E35.15937
G1 X135.689 Y168.16 E35.1772
G1 X135.689 Y108.16 E38.35291
G1 X135.729 Y107.895 E38.36709
G1 X135.845 Y107.654 E38.38125
G0 F900 X136.328 Y108.011
G1 F1200 X136.436 Y107.902 E38.38937
G1 X136.589 Y107.86 E38.39777
G1 X161.589 Y107.86 E39.72098
G1 X161.738 Y107.899 E39.72914
G1 X161.847 Y108.007 E39.73726
G1 X161.889 Y108.16 E39.74565
G1 X161.889 Y168.16 E42.92137
G1 X161.85 Y168.309 E42.92952
G1 X161.742 Y168.418 E42.93764
G1 X161.589 Y168.46 E42.94604
G1 X136.589 Y168.46 E44.26925
G1 X136.44 Y168.421 E44.2774
G1 X136.331 Y168.313 E44.28552
G1 X136.289 Y168.16 E44.29392
G1 X136.289 Y108.16 E47.46963
G1 X136.328 Y108.011 E47.47778
;MESH:BXAtest.stl
G0 F900 X136.889 Y108.46
;TYPE:WALL-OUTER
G1 F1200 X161.289 Y108.46 E48.66893
G1 X161.289 Y167.86 E51.5687
G1 X136.889 Y167.86 E52.75984
G1 X136.889 Y108.46 E55.65961
G0 F900 X137.489 Y109.06
;TYPE:WALL-INNER
G1 F1200 X160.689 Y109.06 E56.79217
G1 X160.689 Y167.26 E59.63336
G1 X137.489 Y167.26 E60.76592
G1 X137.489 Y109.06 E63.60711
G0 F900 X138.079 Y109.65
;TYPE:SKIN
G1 F1200 X160.099 Y109.65 E64.68207
G1 X160.099 Y166.67 E67.46565
G1 X138.079 Y166.67 E68.54061
G1 X138.079 Y109.65 E71.32419
G1 F1500 E69.32419
G0 F900 X138.079 Y107.495
G0 X162.242 Y107.507
G0 X162.254 Y110.644
G0 X159.859 Y110.644
G1 F1500 E71.32419
G1 F1200 X159.104 Y109.89 E71.37628
G0 F900 X158.256 Y109.89
G1 F1200 X159.859 Y111.493 E71.48695
G0 F900 X159.859 Y112.341
G1 F1200 X157.407 Y109.89 E71.65619
G0 F900 X156.559 Y109.89
G1 F1200 X159.859 Y113.19 E71.88402
G0 F900 X159.859 Y114.038
G1 F1200 X155.71 Y109.89 E72.17043
G0 F900 X154.862 Y109.89
G1 F1200 X159.859 Y114.887 E72.51541
G0 F900 X159.859 Y115.735
G1 F1200 X154.013 Y109.89 E72.91898
G0 F900 X153.164 Y109.89
G1 F1200 X159.859 Y116.584 E73.38115
G0 F900 X159.859 Y117.432
G1 F1200 X152.316 Y109.89 E73.90188
G0 F900 X151.467 Y109.89
G1 F1200 X159.859 Y118.281 E74.48121
G0 F900 X159.859 Y119.129
G1 F1200 X150.619 Y109.89 E75.11909
G0 F900 X149.77 Y109.89
G1 F1200 X159.859 Y119.978 E75.81559
G0 F900 X159.859 Y120.826
G1 F1200 X148.922 Y109.89 E76.57063
G0 F900 X148.073 Y109.89
G1 F1200 X159.859 Y121.675 E77.38428
G0 F900 X159.859 Y122.523
G1 F1200 X147.225 Y109.89 E78.25648
G0 F900 X146.376 Y109.89
G1 F1200 X159.859 Y123.372 E79.18729
G0 F900 X159.859 Y124.22
G1 F1200 X145.528 Y109.89 E80.17664
G0 F900 X144.679 Y109.89
G1 F1200 X159.859 Y125.069 E81.22461
G0 F900 X159.859 Y125.918
G1 F1200 X143.831 Y109.89 E82.33116
G0 F900 X142.982 Y109.89
G1 F1200 X159.859 Y126.766 E83.49629
G0 F900 X159.859 Y127.615
G1 F1200 X142.134 Y109.89 E84.72
G0 F900 X141.285 Y109.89
G1 F1200 X159.859 Y128.463 E86.00228
G0 F900 X159.859 Y129.312
G1 F1200 X140.437 Y109.89 E87.34315
G0 F900 X139.588 Y109.89
G1 F1200 X159.859 Y130.16 E88.74259
G0 F900 X159.859 Y131.009
G1 F1200 X138.74 Y109.89 E90.20061
G0 F900 X138.318 Y110.317
G1 F1200 X159.859 Y131.857 E91.68774
G0 F900 X159.859 Y132.706
G1 F1200 X138.318 Y111.165 E93.17489
G0 F900 X138.318 Y112.014
G1 F1200 X159.859 Y133.554 E94.66202
G0 F900 X159.859 Y134.403
G1 F1200 X138.318 Y112.862 E96.14917
G0 F900 X138.318 Y113.711
G1 F1200 X159.859 Y135.251 E97.6363
G0 F900 X159.859 Y136.1
G1 F1200 X138.318 Y114.559 E99.12346
G0 F900 X138.318 Y115.408
G1 F1200 X159.859 Y136.948 E100.61058
G0 F900 X159.859 Y137.797
G1 F1200 X138.318 Y116.256 E102.09774
G0 F900 X138.318 Y117.105
G1 F1200 X159.859 Y138.645 E103.58486
G0 F900 X159.859 Y139.494
G1 F1200 X138.318 Y117.953 E105.07202
G0 F900 X138.318 Y118.802
G1 F1200 X159.859 Y140.343 E106.55917
G0 F900 X159.859 Y141.191
G1 F1200 X138.318 Y119.65 E108.04633
G0 F900 X138.318 Y120.499
G1 F1200 X159.859 Y142.04 E109.53349
G0 F900 X159.859 Y142.888
G1 F1200 X138.318 Y121.348 E111.02061
G0 F900 X138.318 Y122.196
G1 F1200 X159.859 Y143.737 E112.50777
G0 F900 X159.859 Y144.585
G1 F1200 X138.318 Y123.045 E113.99489
G0 F900 X138.318 Y123.893
G1 F1200 X159.859 Y145.434 E115.48205
G0 F900 X159.859 Y146.282
G1 F1200 X138.318 Y124.742 E116.96917
G0 F900 X138.318 Y125.59
G1 F1200 X159.859 Y147.131 E118.45633
G0 F900 X159.859 Y147.979
G1 F1200 X138.318 Y126.439 E119.94345
G0 F900 X138.318 Y127.287
G1 F1200 X159.859 Y148.828 E121.43061
G0 F900 X159.859 Y149.676
G1 F1200 X138.318 Y128.136 E122.91773
G0 F900 X138.318 Y128.984
G1 F1200 X159.859 Y150.525 E124.40489
G0 F900 X159.859 Y151.373
G1 F1200 X138.318 Y129.833 E125.89201
G0 F900 X138.318 Y130.681
G1 F1200 X159.859 Y152.222 E127.37917
G0 F900 X159.859 Y153.07
G1 F1200 X138.318 Y131.53 E128.86629
G0 F900 X138.318 Y132.378
G1 F1200 X159.859 Y153.919 E130.35345
G0 F900 X159.859 Y154.767
G1 F1200 X138.318 Y133.227 E131.84057
G0 F900 X138.318 Y134.075
G1 F1200 X159.859 Y155.616 E133.32773
G0 F900 X159.859 Y156.465
G1 F1200 X138.318 Y134.924 E134.81489
G0 F900 X138.318 Y135.772
G1 F1200 X159.859 Y157.313 E136.30205
G0 F900 X159.859 Y158.162
G1 F1200 X138.318 Y136.621 E137.7892
G0 F900 X138.318 Y137.47
G1 F1200 X159.859 Y159.01 E139.27633
G0 F900 X159.859 Y159.859
G1 F1200 X138.318 Y138.318 E140.76348
G0 F900 X138.318 Y139.167
G1 F1200 X159.859 Y160.707 E142.25061
G0 F900 X159.859 Y161.556
G1 F1200 X138.318 Y140.015 E143.73776
G0 F900 X138.318 Y140.864
G1 F1200 X159.859 Y162.404 E145.22489
G0 F900 X159.859 Y163.253
G1 F1200 X138.318 Y141.712 E146.71205
G0 F900 X138.318 Y142.561
G1 F1200 X159.859 Y164.101 E148.19917
G0 F900 X159.859 Y164.95
G1 F1200 X138.318 Y143.409 E149.68633
G0 F900 X138.318 Y144.258
G1 F1200 X159.859 Y165.798 E151.17345
G0 F900 X159.641 Y166.429
G1 F1200 X138.318 Y145.106 E152.64556
G0 F900 X138.318 Y145.955
G1 F1200 X158.792 Y166.429 E154.05905
G0 F900 X157.944 Y166.429
G1 F1200 X138.318 Y146.803 E155.414
G0 F900 X138.318 Y147.652
G1 F1200 X157.095 Y166.429 E156.71033
G0 F900 X156.247 Y166.429
G1 F1200 X138.318 Y148.5 E157.94812
G0 F900 X138.318 Y149.349
G1 F1200 X155.398 Y166.429 E159.1273
G0 F900 X154.55 Y166.429
G1 F1200 X138.318 Y150.197 E160.24793
G0 F900 X138.318 Y151.046
G1 F1200 X153.701 Y166.429 E161.30995
G0 F900 X152.853 Y166.429
G1 F1200 X138.318 Y151.895 E162.31339
G0 F900 X138.318 Y152.743
G1 F1200 X152.004 Y166.429 E163.25825
G0 F900 X151.156 Y166.429
G1 F1200 X138.318 Y153.592 E164.14453
G0 F900 X138.318 Y154.44
G1 F1200 X150.307 Y166.429 E164.97223
G0 F900 X149.459 Y166.429
G1 F1200 X138.318 Y155.289 E165.74136
G0 F900 X138.318 Y156.137
G1 F1200 X148.61 Y166.429 E166.4519
G0 F900 X147.761 Y166.429
G1 F1200 X138.318 Y156.986 E167.10383
G0 F900 X138.318 Y157.834
G1 F1200 X146.913 Y166.429 E167.69722
G0 F900 X146.064 Y166.429
G1 F1200 X138.318 Y158.683 E168.23199
G0 F900 X138.318 Y159.531
G1 F1200 X145.216 Y166.429 E168.70822
G0 F900 X144.367 Y166.429
M104 S240
G1 F1200 X138.318 Y160.38 E169.12583
G0 F900 X138.318 Y161.228
G1 F1200 X143.519 Y166.429 E169.4849
G0 F900 X142.67 Y166.429
G1 F1200 X138.318 Y162.077 E169.78535
G0 F900 X138.318 Y162.925
G1 F1200 X141.822 Y166.429 E170.02727
G0 F900 X140.973 Y166.429
G1 F1200 X138.318 Y163.774 E170.21056
G0 F900 X138.318 Y164.622
G1 F1200 X140.125 Y166.429 E170.33531
G0 F900 X139.276 Y166.429
G1 F1200 X138.318 Y165.471 E170.40145
G0 F900 X138.318 Y166.32
G1 F1200 X138.428 Y166.429 E170.40901
G1 F1500 E168.40901
;MESH:NONMESH
G0 F600 X138.428 Y166.429 Z0.5
G0 F900 X135.924 Y166.429
G0 X135.924 Y109.06
G0 X137.489 Y109.06
;TIME_ELAPSED:198.936588
;LAYER:1
M140 S80
M106 S6.4
;TYPE:WALL-INNER
;MESH:BXAtest.stl
G1 F1500 E170.40901
G1 F1200 X160.689 Y109.06 E172.05838
G1 X160.689 Y167.26 E176.19603
G1 X137.489 Y167.26 E177.8454
G1 X137.489 Y109.06 E181.98304
G0 F6450 X136.889 Y108.46
;TYPE:WALL-OUTER
G1 F1200 X161.289 Y108.46 E183.71772
G1 X161.289 Y167.86 E187.94068
G1 X136.889 Y167.86 E189.67536
G1 X136.889 Y108.46 E193.89832
G0 F6450 X138.079 Y109.65
;TYPE:SKIN
G1 F1200 X160.099 Y109.65 E195.4638
G1 X160.099 Y166.67 E199.51755
G1 X138.079 Y166.67 E201.08303
G1 X138.079 Y109.65 E205.13679
G0 F6450 X138.319 Y110.299
G1 F1200 X138.728 Y109.89 E205.17791
G0 F6450 X139.577 Y109.89
G1 F1200 X138.319 Y111.147 E205.30434
G0 F6450 X138.319 Y111.996
G1 F1200 X140.425 Y109.89 E205.51608
G0 F6450 X141.274 Y109.89
G1 F1200 X138.319 Y112.845 E205.81318
G0 F6450 X138.319 Y113.693
G1 F1200 X142.122 Y109.89 E206.19554
G0 F6450 X142.971 Y109.89
G1 F1200 X138.319 Y114.542 E206.66326
G0 F6450 X138.319 Y115.39
G1 F1200 X143.819 Y109.89 E207.21623
G0 F6450 X144.668 Y109.89
G1 F1200 X138.319 Y116.239 E207.85457
G0 F6450 X138.319 Y117.087
G1 F1200 X145.516 Y109.89 E208.57817
G0 F6450 X146.365 Y109.89
G1 F1200 X138.319 Y117.936 E209.38712
G0 F6450 X138.319 Y118.784
G1 F1200 X147.213 Y109.89 E210.28134
G0 F6450 X148.062 Y109.89
G1 F1200 X138.319 Y119.633 E211.26092
G0 F6450 X138.319 Y120.481
G1 F1200 X148.911 Y109.89 E212.3258
G0 F6450 X149.759 Y109.89
G1 F1200 X138.319 Y121.33 E213.47599
G0 F6450 X138.319 Y122.178
G1 F1200 X150.608 Y109.89 E214.7115
G0 F6450 X151.456 Y109.89
G1 F1200 X138.319 Y123.027 E216.03231
G0 F6450 X138.319 Y123.875
G1 F1200 X152.305 Y109.89 E217.43843
G0 F6450 X153.153 Y109.89
G1 F1200 X138.319 Y124.724 E218.92987
G0 F6450 X138.319 Y125.572
G1 F1200 X154.002 Y109.89 E220.50661
G0 F6450 X154.85 Y109.89
G1 F1200 X138.319 Y126.421 E222.16866
G0 F6450 X138.319 Y127.27
G1 F1200 X155.699 Y109.89 E223.91607
G0 F6450 X156.547 Y109.89
G1 F1200 X138.319 Y128.118 E225.74874
G0 F6450 X138.319 Y128.967
G1 F1200 X157.396 Y109.89 E227.66677
G0 F6450 X158.244 Y109.89
G1 F1200 X138.319 Y129.815 E229.67005
G0 F6450 X138.319 Y130.664
G1 F1200 X159.093 Y109.89 E231.7587
G0 F6450 X159.858 Y109.973
G1 F1200 X138.319 Y131.512 E233.92426
G0 F6450 X138.319 Y132.361
G1 F1200 X159.858 Y110.822 E236.08983
G0 F6450 X159.858 Y111.67
G1 F1200 X138.319 Y133.209 E238.25539
G0 F6450 X138.319 Y134.058
G1 F1200 X159.858 Y112.519 E240.42095
G0 F6450 X159.858 Y113.367
G1 F1200 X138.319 Y134.906 E242.58651
G0 F6450 X138.319 Y135.755
G1 F1200 X159.858 Y114.216 E244.75208
G0 F6450 X159.858 Y115.064
G1 F1200 X138.319 Y136.603 E246.91764
G0 F6450 X138.319 Y137.452
G1 F1200 X159.858 Y115.913 E249.0832
G0 F6450 X159.858 Y116.761
G1 F1200 X138.319 Y138.3 E251.24876
G0 F6450 X138.319 Y139.149
G1 F1200 X159.858 Y117.61 E253.41432
G0 F6450 X159.858 Y118.458
G1 F1200 X138.319 Y139.997 E255.57989
G0 F6450 X138.319 Y140.846
G1 F1200 X159.858 Y119.307 E257.74545
G0 F6450 X159.858 Y120.155
G1 F1200 X138.319 Y141.695 E259.91106
G0 F6450 X138.319 Y142.543
G1 F1200 X159.858 Y121.004 E262.07662
G0 F6450 X159.858 Y121.852
G1 F1200 X138.319 Y143.392 E264.24224
G0 F6450 X138.319 Y144.24
G1 F1200 X159.858 Y122.701 E266.4078
G0 F6450 X159.858 Y123.549
G1 F1200 X138.319 Y145.089 E268.57341
G0 F6450 X138.319 Y145.937
G1 F1200 X159.858 Y124.398 E270.73897
G0 F6450 X159.858 Y125.246
G1 F1200 X138.319 Y146.786 E272.90459
G0 F6450 X138.319 Y147.634
G1 F1200 X159.858 Y126.095 E275.07015
G0 F6450 X159.858 Y126.944
G1 F1200 X138.319 Y148.483 E277.23571
G0 F6450 X138.319 Y149.331
G1 F1200 X159.858 Y127.792 E279.40127
G0 F6450 X159.858 Y128.641
G1 F1200 X138.319 Y150.18 E281.56683
G0 F6450 X138.319 Y151.028
G1 F1200 X159.858 Y129.489 E283.7324
G0 F6450 X159.858 Y130.338
G1 F1200 X138.319 Y151.877 E285.89796
G0 F6450 X138.319 Y152.725
G1 F1200 X159.858 Y131.186 E288.06352
G0 F6450 X159.858 Y132.035
G1 F1200 X138.319 Y153.574 E290.22908
G0 F6450 X138.319 Y154.422
G1 F1200 X159.858 Y132.883 E292.39465
G0 F6450 X159.858 Y133.732
