;FLAVOR:Marlin
;TIME:14474
;Filament used: 14.461m
;Layer height: 0.28
;MINX:68.361
;MINY:66.157
;MINZ:0.3
;MAXX:231.64
;MAXY:233.843
;MAXZ:31.94
;Generated with Cura_SteamEngine 4.6.0
M140 S80
M105
M190 S80
M104 S230
M105
M109 S230
M82 ;absolute extrusion mode
G28 ; home all axes
 M117 Purge extruder
 G92 E0 ; reset extruder
 G1 Z1.0 F3000 ; move z up little to prevent scratching of surface
 G1 X2 Y20 Z0.3 F5000.0 ; move to start-line position
 G1 X2 Y200.0 Z0.3 F1500.0 E15 ; draw 1st line
 G1 X2 Y200.0 Z0.4 F5000.0 ; move to side a little
 G1 X2 Y20 Z0.4 F1500.0 E30 ; draw 2nd line
 G92 E0 ; reset extruder
 G1 Z1.0 F3000 ; move z up little to prevent scratching of surface
G92 E0
G92 E0
G1 F1500 E-6.5
;LAYER_COUNT:114
;LAYER:0
M107
G0 F6000 X100.768 Y79.364 Z0.3
;TYPE:SKIRT
G1 F1500 E0
G1 F1200 X101.31 Y78.766 E0.04429
G1 X101.909 Y78.225 E0.08859
G1 X102.558 Y77.746 E0.13285
G1 X103.251 Y77.334 E0.1771
G1 X103.982 Y76.992 E0.22139
G1 X104.681 Y76.743 E0.26211
G1 X138.143 Y66.513 E2.18238
G1 X138.925 Y66.315 E2.22665
G1 X139.723 Y66.196 E2.27093
G1 X140.529 Y66.157 E2.31521
G1 X141.335 Y66.198 E2.3595
G1 X142.132 Y66.318 E2.40373
G1 X142.914 Y66.516 E2.448
G1 X143.673 Y66.791 E2.49231
G1 X144.4 Y67.14 E2.53656
G1 X145.09 Y67.559 E2.58086
G1 X145.734 Y68.044 E2.62511
G1 X146.328 Y68.59 E2.66939
G1 X146.864 Y69.193 E2.71366
G1 X147.184 Y69.633 E2.74352
G1 X147.58 Y69.616 E2.76527
G1 X150.5 Y69.563 E2.92555
G1 X200.793 Y69.568 E5.68559
G1 X202.433 Y69.627 E5.77565
G1 X203.008 Y69.668 E5.80728
G1 X204.64 Y69.843 E5.89736
G1 X205.219 Y69.927 E5.92947
G1 X206.836 Y70.219 E6.01964
G1 X206.833 Y70.236 E6.02059
G1 X207.406 Y70.342 E6.05257
G1 X208.997 Y70.749 E6.14269
G1 X209.547 Y70.91 E6.17414
G1 X211.106 Y71.428 E6.2643
G1 X211.662 Y71.636 E6.29688
G1 X213.176 Y72.265 E6.38685
G1 X213.691 Y72.5 E6.41791
G1 X215.162 Y73.235 E6.50816
G1 X215.675 Y73.515 E6.54023
G1 X217.087 Y74.352 E6.63031
G1 X217.581 Y74.669 E6.66252
G1 X218.928 Y75.605 E6.75254
G1 X219.384 Y75.956 E6.78412
G1 X219.388 Y75.951 E6.78447
G1 X220.667 Y76.981 E6.87459
G1 X221.11 Y77.365 E6.90677
G1 X222.311 Y78.484 E6.99685
G1 X222.718 Y78.891 E7.02844
G1 X223.837 Y80.092 E7.11853
G1 X224.22 Y80.535 E7.15066
G1 X225.251 Y81.815 E7.24086
G1 X225.25 Y81.816 E7.24094
G1 X225.29 Y81.861 E7.24424
G1 X225.598 Y82.275 E7.27256
G1 X226.534 Y83.622 E7.36258
G1 X226.849 Y84.113 E7.39459
G1 X227.687 Y85.525 E7.4847
G1 X227.97 Y86.043 E7.51709
G1 X228.704 Y87.513 E7.60726
G1 X228.94 Y88.03 E7.63845
G1 X229.569 Y89.546 E7.72853
G1 X229.774 Y90.095 E7.76069
G1 X230.292 Y91.652 E7.85074
G1 X230.454 Y92.206 E7.88242
G1 X230.861 Y93.798 E7.97259
G1 X230.977 Y94.367 E8.00446
G1 X230.984 Y94.366 E8.00485
G1 X231.276 Y95.981 E8.09492
G1 X231.36 Y96.562 E8.12713
G1 X231.535 Y98.195 E8.21726
G1 X231.577 Y98.792 E8.25011
G1 X231.64 Y100.837 E8.36239
G1 X231.64 Y202.702 E13.95266
G1 X231.635 Y202.994 E13.96869
G1 X231.576 Y204.635 E14.0588
G1 X231.535 Y205.211 E14.09049
G1 X231.36 Y206.843 E14.18057
G1 X231.276 Y207.422 E14.21268
G1 X230.984 Y209.039 E14.30285
G1 X230.967 Y209.036 E14.3038
G1 X230.861 Y209.609 E14.33578
G1 X230.454 Y211.2 E14.4259
G1 X230.293 Y211.748 E14.45725
G1 X229.776 Y213.305 E14.54728
G1 X229.569 Y213.862 E14.57989
G1 X228.939 Y215.379 E14.67004
G1 X228.704 Y215.893 E14.70106
G1 X227.97 Y217.363 E14.79123
G1 X227.688 Y217.88 E14.82354
G1 X226.851 Y219.291 E14.91358
G1 X226.536 Y219.782 E14.94559
G1 X225.599 Y221.131 E15.03573
G1 X225.245 Y221.59 E15.06754
G1 X225.25 Y221.594 E15.06789
G1 X224.22 Y222.872 E15.15797
G1 X223.84 Y223.31 E15.18979
G1 X222.721 Y224.512 E15.27992
G1 X222.309 Y224.924 E15.3119
G1 X221.108 Y226.042 E15.40194
G1 X220.671 Y226.421 E15.43369
G1 X219.391 Y227.453 E15.52392
G1 X219.39 Y227.452 E15.524
G1 X219.342 Y227.494 E15.5275
G1 X218.925 Y227.804 E15.55601
G1 X217.578 Y228.739 E15.646
G1 X217.09 Y229.052 E15.67782
G1 X215.678 Y229.89 E15.76792
G1 X215.162 Y230.172 E15.8002
G1 X213.691 Y230.907 E15.89044
G1 X213.178 Y231.141 E15.92138
G1 X212.976 Y231.225 E15.93339
G1 X212.965 Y231.23 E15.93405
G1 X211.654 Y231.773 E16.01193
G1 X211.11 Y231.976 E16.04379
G1 X209.551 Y232.495 E16.13396
G1 X208.997 Y232.658 E16.16566
G1 X207.406 Y233.065 E16.25578
G1 X206.83 Y233.182 E16.28804
G1 X206.831 Y233.189 E16.28842
G1 X205.214 Y233.48 E16.37859
G1 X204.645 Y233.562 E16.41014
G1 X203.013 Y233.738 E16.50022
G1 X202.428 Y233.78 E16.53241
G1 X200.788 Y233.838 E16.62247
G1 X200.5 Y233.843 E16.63827
G1 X150.347 Y233.842 E19.39063
G1 X147.58 Y233.79 E19.54251
G1 X147.277 Y233.778 E19.55915
G1 X144.212 Y233.601 E19.72763
G1 X141.456 Y233.343 E19.87954
G1 X141.153 Y233.308 E19.89628
G1 X138.409 Y232.947 E20.04817
G1 X138.106 Y232.902 E20.06498
G1 X135.378 Y232.438 E20.21684
G1 X135.082 Y232.382 E20.23337
G1 X132.371 Y231.817 E20.38535
G1 X132.072 Y231.749 E20.40217
G1 X129.387 Y231.083 E20.55399
G1 X129.094 Y231.004 E20.57064
G1 X126.435 Y230.238 E20.7225
G1 X126.144 Y230.148 E20.73922
G1 X123.515 Y229.283 E20.89111
G1 X123.227 Y229.182 E20.90785
G1 X120.632 Y228.219 E21.05976
G1 X120.348 Y228.108 E21.07649
G1 X117.792 Y227.049 E21.22832
G1 X117.512 Y226.927 E21.24509
G1 X114.998 Y225.773 E21.39689
G1 X114.728 Y225.643 E21.41334
G1 X112.256 Y224.396 E21.56528
G1 X111.985 Y224.252 E21.58212
G1 X109.562 Y222.913 E21.73405
G1 X109.297 Y222.76 E21.75084
G1 X106.928 Y221.332 E21.90264
G1 X106.673 Y221.172 E21.91917
G1 X104.358 Y219.657 E22.071
G1 X104.103 Y219.483 E22.08794
G1 X101.845 Y217.88 E22.23991
G1 X101.602 Y217.701 E22.25647
G1 X99.407 Y216.017 E22.4083
G1 X99.168 Y215.827 E22.42505
G1 X97.037 Y214.061 E22.57694
G1 X96.808 Y213.863 E22.59355
G1 X94.744 Y212.019 E22.74545
G1 X94.52 Y211.811 E22.76222
G1 X92.527 Y209.891 E22.91409
G1 X92.312 Y209.676 E22.93078
G1 X90.392 Y207.683 E23.08265
G1 X90.184 Y207.459 E23.09943
G1 X88.34 Y205.395 E23.25132
G1 X88.141 Y205.164 E23.26805
G1 X86.202 Y202.816 E23.43517
G1 X85.975 Y202.522 E23.45555
G1 X85.959 Y202.501 E23.457
G1 X84.501 Y200.6 E23.58848
G1 X84.322 Y200.358 E23.605
G1 X82.72 Y198.101 E23.75689
G1 X82.548 Y197.848 E23.77368
G1 X81.032 Y195.533 E23.92554
G1 X80.868 Y195.272 E23.94246
G1 X79.44 Y192.9 E24.0944
G1 X79.29 Y192.639 E24.11092
G1 X77.81 Y189.951 E24.27932
G1 X76.562 Y187.48 E24.43124
G1 X76.564 Y187.479 E24.43136
G1 X76.428 Y187.202 E24.44829
G1 X75.275 Y184.687 E24.60013
G1 X75.154 Y184.411 E24.61667
G1 X74.095 Y181.855 E24.7685
G1 X73.992 Y181.568 E24.78524
G1 X73.985 Y181.571 E24.78565
G1 X72.92 Y178.687 E24.95437
G1 X72.055 Y176.057 E25.10631
G1 X71.966 Y175.768 E25.12291
G1 X71.2 Y173.11 E25.27471
G1 X71.121 Y172.816 E25.29142
G1 X70.455 Y170.131 E25.44323
G1 X70.388 Y169.835 E25.45989
G1 X69.822 Y167.125 E25.61182
G1 X69.765 Y166.822 E25.62874
G1 X69.302 Y164.092 E25.7807
G1 X69.257 Y163.796 E25.79713
G1 X68.895 Y161.054 E25.94892
G1 X68.86 Y160.747 E25.96587
G1 X68.602 Y157.99 E26.11784
G1 X68.58 Y157.688 E26.13445
G1 X68.413 Y154.623 E26.30291
G1 X68.361 Y151.856 E26.45479
G1 X68.361 Y151.55 E26.47158
G1 X68.413 Y148.783 E26.62346
G1 X68.425 Y148.48 E26.6401
G1 X68.602 Y145.415 E26.80858
G1 X68.86 Y142.659 E26.96049
G1 X68.895 Y142.353 E26.97739
G1 X69.257 Y139.609 E27.12929
G1 X69.302 Y139.312 E27.14577
G1 X69.765 Y136.584 E27.29762
G1 X69.821 Y136.285 E27.31432
G1 X70.386 Y133.575 E27.46624
G1 X70.455 Y133.274 E27.48319
G1 X71.122 Y130.589 E27.63501
G1 X71.2 Y130.298 E27.65155
G1 X71.966 Y127.638 E27.80346
G1 X72.056 Y127.346 E27.82023
G1 X72.921 Y124.718 E27.97206
G1 X73.02 Y124.435 E27.98852
G1 X73.981 Y121.841 E28.14033
G1 X74.094 Y121.553 E28.15731
G1 X75.154 Y118.995 E28.30926
G1 X75.276 Y118.715 E28.32602
G1 X76.43 Y116.201 E28.47783
G1 X76.562 Y115.928 E28.49447
G1 X77.81 Y113.456 E28.64644
G1 X77.95 Y113.191 E28.66289
G1 X79.287 Y110.769 E28.81472
G1 X79.442 Y110.5 E28.83175
G1 X80.871 Y108.13 E28.98363
G1 X81.032 Y107.874 E29.00023
G1 X82.547 Y105.56 E29.15201
G1 X82.72 Y105.307 E29.16883
G1 X84.323 Y103.049 E29.3208
G1 X84.502 Y102.806 E29.33736
G1 X86.186 Y100.611 E29.48919
G1 X86.375 Y100.373 E29.50587
G1 X88.141 Y98.241 E29.6578
G1 X88.34 Y98.011 E29.67449
G1 X90.183 Y95.948 E29.82631
G1 X90.391 Y95.723 E29.84312
G1 X92.312 Y93.729 E29.99507
G1 X92.527 Y93.515 E30.01172
G1 X94.519 Y91.596 E30.16351
G1 X94.743 Y91.388 E30.18029
G1 X96.808 Y89.543 E30.33226
G1 X97.039 Y89.344 E30.34899
G1 X99.169 Y87.58 E30.50076
G1 X99.404 Y87.392 E30.51728
G1 X99.414 Y87.385 E30.51795
G1 X99.27 Y86.914 E30.54498
G1 X99.073 Y86.132 E30.58924
G1 X98.954 Y85.334 E30.63351
G1 X98.915 Y84.528 E30.6778
G1 X98.956 Y83.722 E30.72209
G1 X99.076 Y82.925 E30.76632
G1 X99.275 Y82.143 E30.8106
G1 X99.55 Y81.385 E30.85485
G1 X99.899 Y80.657 E30.89916
G1 X100.282 Y80.021 E30.9399
G1 X100.288 Y80.012 E30.9405
G1 X100.768 Y79.364 E30.98475
G0 F6000 X101.122 Y79.626
G1 F1200 X101.652 Y79.047 E31.02783
G1 X102.237 Y78.525 E31.07086
G1 X102.873 Y78.065 E31.11393
G1 X103.553 Y77.673 E31.15701
G1 X104.268 Y77.351 E31.20004
G1 X104.81 Y77.163 E31.23152
G1 X138.272 Y66.933 E33.15179
G1 X139.033 Y66.743 E33.19484
G1 X139.809 Y66.63 E33.23787
G1 X140.593 Y66.597 E33.28094
G1 X141.376 Y66.644 E33.32399
G1 X142.151 Y66.771 E33.36708
G1 X142.908 Y66.976 E33.41012
G1 X143.641 Y67.256 E33.45319
G1 X144.341 Y67.61 E33.49623
G1 X145.002 Y68.034 E33.53933
G1 X145.616 Y68.522 E33.58237
G1 X146.177 Y69.07 E33.62541
G1 X146.68 Y69.673 E33.66851
G1 X146.958 Y70.086 E33.69583
G1 X147.588 Y70.056 E33.73044
G1 X150.5 Y70.003 E33.89027
G1 X200.777 Y70.008 E36.64944
G1 X202.417 Y70.067 E36.7395
G1 X202.961 Y70.106 E36.76943
G1 X204.593 Y70.281 E36.8595
G1 X205.14 Y70.36 E36.88984
G1 X206.626 Y70.628 E36.9727
G1 X206.757 Y70.652 E36.98001
G1 X206.756 Y70.655 E36.98018
G1 X207.297 Y70.768 E37.01051
G1 X208.888 Y71.175 E37.10064
G1 X209.408 Y71.328 E37.13039
G1 X210.967 Y71.846 E37.22054
G1 X211.493 Y72.042 E37.25135
G1 X213.007 Y72.671 E37.34132
G1 X213.495 Y72.894 E37.37076
G1 X214.966 Y73.629 E37.46101
G1 X215.45 Y73.893 E37.49126
G1 X216.862 Y74.73 E37.58134
G1 X217.33 Y75.031 E37.61188
G1 X218.677 Y75.967 E37.7019
G1 X219.107 Y76.3 E37.73175
G1 X219.112 Y76.294 E37.73217
G1 X220.391 Y77.324 E37.8223
G1 X220.81 Y77.687 E37.85272
G1 X222.011 Y78.806 E37.9428
G1 X222.396 Y79.191 E37.97268
G1 X223.515 Y80.392 E38.06277
G1 X223.878 Y80.811 E38.09319
G1 X224.909 Y82.091 E38.18339
G1 X224.9 Y82.098 E38.18402
G1 X225.236 Y82.526 E38.21388
G1 X226.172 Y83.873 E38.3039
G1 X226.471 Y84.337 E38.33419
G1 X227.309 Y85.749 E38.4243
G1 X227.576 Y86.239 E38.45492
G1 X228.31 Y87.709 E38.54509
G1 X228.533 Y88.198 E38.57459
G1 X229.162 Y89.714 E38.66466
G1 X229.356 Y90.234 E38.69512
G1 X229.874 Y91.791 E38.78517
G1 X230.028 Y92.315 E38.81514
G1 X230.435 Y93.907 E38.90532
G1 X230.544 Y94.445 E38.93544
G1 X230.551 Y94.444 E38.93583
G1 X230.843 Y96.059 E39.0259
G1 X230.922 Y96.609 E39.05639
G1 X231.097 Y98.242 E39.14652
G1 X231.137 Y98.806 E39.17755
G1 X231.2 Y100.837 E39.28907
G1 X231.2 Y202.702 E44.87934
G1 X231.195 Y202.979 E44.89454
G1 X231.136 Y204.62 E44.98466
G1 X231.097 Y205.164 E45.01459
G1 X230.922 Y206.796 E45.10467
G1 X230.843 Y207.343 E45.135
G1 X230.551 Y208.96 E45.22517
G1 X230.548 Y208.959 E45.22534
G1 X230.435 Y209.5 E45.25567
G1 X230.028 Y211.091 E45.3458
G1 X229.876 Y211.61 E45.37548
G1 X229.359 Y213.167 E45.46551
G1 X229.162 Y213.693 E45.49634
G1 X228.532 Y215.21 E45.58648
G1 X228.31 Y215.697 E45.61585
G1 X227.576 Y217.167 E45.70602
G1 X227.309 Y217.655 E45.73655
G1 X226.472 Y219.066 E45.82659
G1 X226.174 Y219.531 E45.85689
G1 X225.237 Y220.88 E45.94703
G1 X224.901 Y221.313 E45.97711
G1 X224.907 Y221.318 E45.97754
G1 X223.877 Y222.596 E46.06762
G1 X223.518 Y223.011 E46.09773
G1 X222.399 Y224.213 E46.18786
G1 X222.009 Y224.602 E46.21809
G1 X220.808 Y225.72 E46.30813
G1 X220.395 Y226.078 E46.33813
G1 X219.115 Y227.11 E46.42836
G1 X219.108 Y227.101 E46.42899
G1 X218.674 Y227.442 E46.45928
G1 X217.327 Y228.377 E46.54926
G1 X216.866 Y228.674 E46.57936
G1 X215.454 Y229.512 E46.66947
G1 X214.966 Y229.778 E46.69997
G1 X213.495 Y230.513 E46.79021
G1 X213.01 Y230.735 E46.81948
G1 X212.808 Y230.819 E46.83149
G1 X212.797 Y230.824 E46.83215
G1 X211.486 Y231.367 E46.91003
G1 X210.971 Y231.559 E46.94019
G1 X209.412 Y232.078 E47.03036
G1 X208.888 Y232.232 E47.06034
G1 X207.297 Y232.639 E47.15046
G1 X206.752 Y232.749 E47.18097
G1 X206.753 Y232.756 E47.18136
G1 X205.136 Y233.047 E47.27153
G1 X204.598 Y233.125 E47.30136
G1 X202.966 Y233.301 E47.39144
G1 X202.412 Y233.34 E47.42192
G1 X200.5 Y233.403 E47.52691
G1 X150.355 Y233.402 E50.27883
G1 X147.588 Y233.35 E50.4307
G1 X147.302 Y233.339 E50.44641
G1 X144.54 Y233.184 E50.59823
G1 X144.253 Y233.162 E50.61402
G1 X141.497 Y232.904 E50.76593
G1 X141.211 Y232.872 E50.78172
G1 X138.467 Y232.511 E50.93361
G1 X138.18 Y232.468 E50.94954
G1 X135.452 Y232.004 E51.1014
G1 X135.172 Y231.951 E51.11704
G1 X132.178 Y231.322 E51.28493
G1 X129.493 Y230.656 E51.43675
G1 X129.215 Y230.581 E51.45255
G1 X126.556 Y229.815 E51.60441
G1 X126.281 Y229.73 E51.6202
G1 X123.652 Y228.865 E51.77209
G1 X123.38 Y228.77 E51.7879
G1 X120.785 Y227.807 E51.9398
G1 X120.517 Y227.702 E51.9556
G1 X117.961 Y226.643 E52.10743
G1 X117.696 Y226.527 E52.12331
G1 X114.926 Y225.25 E52.2907
G1 X112.454 Y224.003 E52.44264
G1 X112.198 Y223.867 E52.45855
G1 X109.524 Y222.384 E52.62636
G1 X107.155 Y220.956 E52.77816
G1 X106.914 Y220.804 E52.7938
G1 X104.599 Y219.289 E52.94563
G1 X104.358 Y219.125 E52.96163
G1 X102.1 Y217.522 E53.1136
G1 X101.87 Y217.352 E53.12929
G1 X99.675 Y215.668 E53.28112
G1 X99.449 Y215.488 E53.29697
G1 X97.318 Y213.722 E53.44886
G1 X97.101 Y213.535 E53.46458
G1 X95.037 Y211.691 E53.61647
G1 X94.825 Y211.494 E53.63236
G1 X92.832 Y209.574 E53.78423
G1 X92.629 Y209.371 E53.79998
G1 X90.709 Y207.378 E53.95185
G1 X90.512 Y207.166 E53.96774
G1 X88.668 Y205.102 E54.11963
G1 X88.48 Y204.884 E54.13543
G1 X86.55 Y202.547 E54.30176
G1 X86.323 Y202.253 E54.32215
G1 X86.308 Y202.233 E54.32352
G1 X84.85 Y200.332 E54.45499
G1 X84.681 Y200.103 E54.47061
G1 X83.079 Y197.846 E54.6225
G1 X82.916 Y197.607 E54.63838
G1 X81.4 Y195.292 E54.79024
G1 X81.245 Y195.045 E54.80625
G1 X79.817 Y192.673 E54.95819
G1 X79.675 Y192.427 E54.97378
G1 X78.337 Y190.006 E55.12558
G1 X78.203 Y189.752 E55.14134
G1 X76.955 Y187.281 E55.29326
G1 X76.965 Y187.276 E55.29388
G1 X76.828 Y187.019 E55.30986
G1 X75.56 Y184.242 E55.47739
G1 X74.501 Y181.686 E55.62923
G1 X74.405 Y181.415 E55.64501
G1 X74.397 Y181.418 E55.64547
G1 X73.338 Y178.55 E55.81325
G1 X72.473 Y175.92 E55.96519
G1 X72.389 Y175.646 E55.98092
G1 X71.548 Y172.71 E56.14853
G1 X70.882 Y170.025 E56.30034
G1 X70.819 Y169.745 E56.31609
G1 X70.198 Y166.749 E56.48401
G1 X69.735 Y164.019 E56.63596
G1 X69.693 Y163.739 E56.6515
G1 X69.331 Y160.997 E56.80329
G1 X69.298 Y160.706 E56.81936
G1 X69.04 Y157.949 E56.97132
G1 X69.019 Y157.663 E56.98706
G1 X68.864 Y154.901 E57.13888
G1 X68.853 Y154.615 E57.15458
G1 X68.801 Y151.848 E57.30646
G1 X68.801 Y151.558 E57.32238
G1 X68.853 Y148.791 E57.47425
G1 X68.864 Y148.505 E57.48996
G1 X69.019 Y145.743 E57.64177
G1 X69.041 Y145.456 E57.65757
G1 X69.331 Y142.411 E57.82543
G1 X69.693 Y139.667 E57.97733
G1 X69.736 Y139.386 E57.99293
G1 X70.252 Y136.374 E58.16063
G1 X70.817 Y133.664 E58.31255
G1 X70.882 Y133.38 E58.32854
G1 X71.549 Y130.695 E58.48037
G1 X71.623 Y130.42 E58.496
G1 X72.389 Y127.76 E58.64791
G1 X72.474 Y127.484 E58.66376
G1 X73.339 Y124.856 E58.81559
G1 X73.433 Y124.588 E58.83118
G1 X74.394 Y121.994 E58.98299
G1 X74.501 Y121.721 E58.99908
G1 X75.561 Y119.163 E59.15104
G1 X75.676 Y118.899 E59.16684
G1 X76.83 Y116.385 E59.31865
G1 X76.954 Y116.127 E59.33436
G1 X78.202 Y113.655 E59.48633
G1 X78.335 Y113.404 E59.50192
G1 X79.672 Y110.982 E59.65374
G1 X79.819 Y110.727 E59.6699
G1 X81.248 Y108.357 E59.82177
G1 X81.4 Y108.115 E59.83746
G1 X82.915 Y105.801 E59.98924
G1 X83.078 Y105.562 E60.00512
G1 X84.681 Y103.304 E60.15709
G1 X84.851 Y103.074 E60.17278
G1 X86.535 Y100.879 E60.32461
G1 X86.714 Y100.654 E60.34039
G1 X88.48 Y98.522 E60.49232
G1 X88.668 Y98.304 E60.50812
G1 X90.511 Y96.241 E60.65993
G1 X90.708 Y96.029 E60.67581
