; generated by Slic3r 1.3.0 on 2024-05-20 at 13:58:10

; external perimeters extrusion width = 0.55mm (4.37mm^3/s)
; perimeters extrusion width = 0.70mm (11.44mm^3/s)
; infill extrusion width = 0.62mm (13.45mm^3/s)
; solid infill extrusion width = 0.70mm (3.81mm^3/s)
; top infill extrusion width = 0.70mm (2.86mm^3/s)

M107
M104 S200 ; set temperature
G28 ; home all axes
G1 Z5 F5000 ; lift nozzle

; Filament gcode

M109 S200 ; set temperature and wait for it to be reached
G21 ; set units to millimeters
G90 ; use absolute coordinates
M82 ; use absolute distances for extrusion
G92 E0
G1 Z0.350 F7800.000
G1 E-2.00000 F2400.00000
G92 E0
G1 X87.446 Y87.488 F7800.000
G1 E2.00000 F2400.00000
G1 F1800
G1 X87.914 Y87.035 E2.02014
G1 X88.624 Y86.408 E2.04947
G1 X89.366 Y85.820 E2.07875
G1 X89.994 Y85.370 E2.10263
G1 X90.790 Y84.856 E2.13195
G1 X91.354 Y84.527 E2.15215
G1 X92.191 Y84.088 E2.18142
G1 X93.053 Y83.694 E2.21074
G1 X93.933 Y83.346 E2.24002
G1 X94.664 Y83.098 E2.26391
G1 X95.575 Y82.837 E2.29323
G1 X96.499 Y82.625 E2.32255
G1 X97.139 Y82.508 E2.34270
G1 X98.076 Y82.380 E2.37194
G1 X98.846 Y82.313 E2.39588
G1 X99.796 Y82.277 E2.42527
G1 X100.741 Y82.291 E2.45451
G1 X101.684 Y82.356 E2.48378
G1 X102.333 Y82.430 E2.50397
G1 X103.269 Y82.579 E2.53330
G1 X104.027 Y82.739 E2.55726
G1 X104.940 Y82.978 E2.58646
G1 X105.842 Y83.266 E2.61578
G1 X106.728 Y83.602 E2.64511
G1 X107.326 Y83.860 E2.66525
G1 X108.178 Y84.275 E2.69457
G1 X109.007 Y84.735 E2.72390
G1 X109.662 Y85.141 E2.74774
G1 X110.203 Y85.506 E2.76794
G1 X110.961 Y86.071 E2.79721
G1 X111.690 Y86.677 E2.82653
G1 X112.385 Y87.321 E2.85585
G1 X113.044 Y88.000 E2.88512
G1 X113.555 Y88.579 E2.90902
G1 X114.147 Y89.322 E2.93841
G1 X114.696 Y90.092 E2.96766
G1 X115.050 Y90.638 E2.98780
G1 X115.529 Y91.456 E3.01713
G1 X115.964 Y92.298 E3.04645
G1 X116.352 Y93.162 E3.07577
G1 X116.695 Y94.046 E3.10510
G1 X116.988 Y94.944 E3.13432
G1 X117.232 Y95.849 E3.16332
G1 X117.399 Y96.618 E3.18769
G1 X117.511 Y97.259 E3.20782
G1 X117.631 Y98.178 E3.23648
G1 X117.700 Y99.064 E3.26400
G1 X117.725 Y99.959 E3.29168
G1 X117.702 Y100.889 E3.32048
G1 X117.633 Y101.798 E3.34867
G1 X117.554 Y102.455 E3.36917
G1 X117.402 Y103.366 E3.39774
G1 X117.217 Y104.214 E3.42460
G1 X116.973 Y105.108 E3.45325
G1 X116.677 Y106.004 E3.48247
G1 X116.354 Y106.835 E3.51005
G1 X116.090 Y107.434 E3.53028
G1 X115.670 Y108.283 E3.55961
G1 X115.205 Y109.108 E3.58890
G1 X114.792 Y109.766 E3.61294
G1 X114.252 Y110.538 E3.64210
G1 X113.668 Y111.285 E3.67142
G1 X113.244 Y111.779 E3.69156
G1 X112.596 Y112.470 E3.72087
G1 X112.041 Y113.007 E3.74477
G1 X111.330 Y113.631 E3.77405
G1 X110.821 Y114.038 E3.79419
G1 X110.056 Y114.596 E3.82352
G1 X109.261 Y115.112 E3.85284
G1 X108.595 Y115.501 E3.87671
G1 X107.754 Y115.938 E3.90604
G1 X106.892 Y116.330 E3.93533
G1 X106.288 Y116.572 E3.95547
G1 X105.393 Y116.884 E3.98479
G1 X104.484 Y117.148 E4.01408
G1 X103.561 Y117.363 E4.04341
G1 X102.802 Y117.502 E4.06728
G1 X101.862 Y117.626 E4.09661
G1 X100.917 Y117.701 E4.12593
G1 X100.265 Y117.723 E4.14613
G1 X99.319 Y117.711 E4.17539
G1 X98.373 Y117.650 E4.20472
G1 X97.433 Y117.538 E4.23404
G1 X96.673 Y117.409 E4.25788
G1 X95.747 Y117.207 E4.28720
G1 X94.833 Y116.955 E4.31653
G1 X94.214 Y116.754 E4.33667
G1 X93.327 Y116.420 E4.36599
G1 X92.620 Y116.115 E4.38984
G1 X91.769 Y115.697 E4.41916
G1 X90.942 Y115.235 E4.44848
G1 X90.387 Y114.891 E4.46868
G1 X89.608 Y114.358 E4.49789
G1 X88.853 Y113.781 E4.52727
G1 X88.265 Y113.283 E4.55111
G1 X87.572 Y112.637 E4.58043
G1 X86.915 Y111.956 E4.60970
G1 X86.484 Y111.466 E4.62990
G1 X85.998 Y110.868 E4.65374
G1 X85.437 Y110.104 E4.68307
G1 X85.076 Y109.562 E4.70321
G1 X84.587 Y108.753 E4.73247
G1 X84.141 Y107.915 E4.76185
G1 X83.744 Y107.064 E4.79090
G1 X83.414 Y106.252 E4.81802
G1 X83.115 Y105.390 E4.84624
G1 X82.840 Y104.441 E4.87683
G1 X82.646 Y103.606 E4.90335
G1 X82.481 Y102.690 E4.93214
G1 X82.393 Y102.034 E4.95264
G1 X82.314 Y101.171 E4.97944
G1 X82.277 Y100.234 E5.00845
G1 X82.288 Y99.315 E5.03690
G1 X82.346 Y98.420 E5.06464
G1 X82.453 Y97.496 E5.09342
G1 X82.559 Y96.845 E5.11383
G1 X82.751 Y95.920 E5.14306
G1 X82.994 Y95.004 E5.17238
G1 X83.285 Y94.102 E5.20170
G1 X83.558 Y93.381 E5.22555
G1 X83.812 Y92.780 E5.24574
G1 X84.221 Y91.927 E5.27501
G1 X84.675 Y91.095 E5.30433
G1 X85.173 Y90.289 E5.33366
G1 X85.712 Y89.512 E5.36293
G1 X86.182 Y88.899 E5.38682
G1 X86.795 Y88.176 E5.41615
G1 X87.394 Y87.541 E5.44315
G1 E3.44315 F2400.00000
G92 E0
G1 X104.654 Y105.737 F7800.000
G1 E2.00000 F2400.00000
G1 F1800
G1 X104.277 Y106.111 E2.01644
G1 X103.876 Y106.460 E2.03288
G1 X103.241 Y106.930 E2.05734
G1 X102.561 Y107.340 E2.08189
G1 X101.846 Y107.684 E2.10645
G1 X101.101 Y107.959 E2.13102
G1 X100.333 Y108.163 E2.15560
G1 X99.549 Y108.293 E2.18019
G1 X98.756 Y108.348 E2.20477
G1 X97.962 Y108.329 E2.22936
G1 X97.173 Y108.234 E2.25393
G1 X96.450 Y108.080 E2.27681
G1 X95.990 Y107.946 E2.29164
G1 X95.538 Y107.787 E2.30647
G1 X94.886 Y107.503 E2.32847
G1 X94.463 Y107.282 E2.34324
G1 X94.052 Y107.036 E2.35806
G1 X93.470 Y106.629 E2.38004
G1 X93.099 Y106.329 E2.39480
G1 X92.745 Y106.008 E2.40960
G1 X92.254 Y105.495 E2.43155
G1 X91.951 Y105.127 E2.44630
G1 X91.667 Y104.743 E2.46108
G1 X91.289 Y104.143 E2.48303
G1 X91.063 Y103.722 E2.49780
G1 X90.864 Y103.293 E2.51243
G1 X90.689 Y102.854 E2.52708
G1 X90.538 Y102.401 E2.54183
G1 X90.362 Y101.711 E2.56388
G1 X90.239 Y100.956 E2.58753
G1 X90.186 Y100.169 E2.61194
G1 X90.192 Y99.643 E2.62823
G1 X90.231 Y99.118 E2.64452
G1 X90.352 Y98.337 E2.66895
G1 X90.547 Y97.569 E2.69349
G1 X90.814 Y96.824 E2.71797
G1 X91.150 Y96.108 E2.74245
G1 X91.553 Y95.426 E2.76694
G1 X92.019 Y94.786 E2.79145
G1 X92.542 Y94.194 E2.81587
G1 X92.924 Y93.825 E2.83231
G1 X93.328 Y93.480 E2.84876
G1 X93.969 Y93.017 E2.87321
G1 X94.653 Y92.615 E2.89777
G1 X95.372 Y92.279 E2.92233
G1 X96.121 Y92.013 E2.94691
G1 X96.891 Y91.818 E2.97149
G1 X97.676 Y91.697 E2.99607
G1 X98.468 Y91.650 E3.02061
G1 X99.263 Y91.679 E3.04524
G1 X100.050 Y91.782 E3.06981
G1 X100.747 Y91.938 E3.09188
G1 X101.206 Y92.075 E3.10671
G1 X101.656 Y92.238 E3.12153
G1 X102.304 Y92.527 E3.14349
G1 X102.727 Y92.752 E3.15830
G1 X103.136 Y93.001 E3.17312
G1 X103.714 Y93.412 E3.19505
G1 X104.083 Y93.716 E3.20986
G1 X104.435 Y94.040 E3.22465
G1 X104.920 Y94.556 E3.24657
G1 X105.222 Y94.927 E3.26136
G1 X105.502 Y95.314 E3.27614
G1 X105.875 Y95.915 E3.29803
G1 X106.097 Y96.338 E3.31280
G1 X106.294 Y96.772 E3.32757
G1 X106.541 Y97.437 E3.34953
G1 X106.675 Y97.893 E3.36422
G1 X106.782 Y98.355 E3.37889
G1 X106.898 Y99.108 E3.40245
G1 X106.944 Y99.816 E3.42443
G1 X106.942 Y100.265 E3.43833
G1 X106.908 Y100.791 E3.45462
G1 X106.796 Y101.571 E3.47901
G1 X106.610 Y102.341 E3.50351
G1 X106.353 Y103.084 E3.52784
G1 X106.023 Y103.809 E3.55248
G1 X105.629 Y104.494 E3.57695
G1 X105.170 Y105.140 E3.60145
G1 X104.703 Y105.681 E3.62356
G1 X104.654 Y105.737 F7800.000
G1 E1.62356 F2400.00000
G92 E0
G1 X102.250 Y108.876 F7800.000
G1 E2.00000 F2400.00000
G1 F1800
G1 X103.156 Y108.441 E2.03110
G1 X103.937 Y107.970 E2.05931
G1 X104.659 Y107.435 E2.08713
G1 X105.127 Y107.027 E2.10632
G1 X105.568 Y106.592 E2.12551
G1 X106.155 Y105.912 E2.15330
G1 X106.682 Y105.169 E2.18147
G1 X107.136 Y104.381 E2.20962
G1 X107.515 Y103.548 E2.23793
G1 X107.811 Y102.693 E2.26593
G1 X108.025 Y101.807 E2.29412
G1 X108.152 Y100.919 E2.32188
G1 X108.191 Y100.308 E2.34083
G1 X108.194 Y99.779 E2.35720
G1 X108.142 Y98.971 E2.38224
G1 X108.010 Y98.118 E2.40895
G1 X107.884 Y97.577 E2.42616
G1 X107.729 Y97.044 E2.44332
G1 X107.451 Y96.295 E2.46804
G1 X107.220 Y95.788 E2.48529
G1 X106.960 Y95.294 E2.50254
G1 X106.540 Y94.617 E2.52719
G1 X106.213 Y94.165 E2.54445
G1 X105.861 Y93.733 E2.56171
G1 X105.315 Y93.152 E2.58638
G1 X104.905 Y92.773 E2.60365
G1 X104.474 Y92.418 E2.62092
G1 X103.823 Y91.956 E2.64561
G1 X103.346 Y91.666 E2.66289
G1 X102.853 Y91.403 E2.68018
G1 X102.238 Y91.130 E2.70101
G1 X102.351 Y90.804 E2.71165
G1 X102.703 Y90.893 E2.72290
G1 X103.176 Y91.047 E2.73829
G1 X103.650 Y91.230 E2.75400
G1 X104.114 Y91.437 E2.76972
G1 X104.565 Y91.669 E2.78543
G1 X105.004 Y91.925 E2.80115
G1 X105.418 Y92.197 E2.81648
G1 X106.044 Y92.671 E2.84077
G1 X106.419 Y92.997 E2.85615
G1 X106.784 Y93.350 E2.87187
G1 X107.130 Y93.723 E2.88758
G1 X107.455 Y94.113 E2.90330
G1 X107.759 Y94.519 E2.91901
G1 X108.035 Y94.933 E2.93440
G1 X108.425 Y95.612 E2.95863
G1 X108.644 Y96.059 E2.97401
G1 X108.842 Y96.527 E2.98973
G1 X109.015 Y97.004 E3.00544
G1 X109.159 Y97.480 E3.02083
G1 X109.335 Y98.243 E3.04507
G1 X109.415 Y98.734 E3.06046
G1 X109.468 Y99.225 E3.07572
G1 X109.499 Y100.015 E3.10020
G1 X109.486 Y100.507 E3.11542
G1 X109.445 Y101.013 E3.13114
G1 X109.378 Y101.518 E3.14690
G1 X109.286 Y102.003 E3.16216
G1 X109.087 Y102.768 E3.18661
G1 X108.932 Y103.236 E3.20187
G1 X108.746 Y103.709 E3.21760
G1 X108.535 Y104.171 E3.23331
G1 X108.300 Y104.621 E3.24902
G1 X108.041 Y105.058 E3.26474
G1 X107.765 Y105.472 E3.28012
G1 X107.288 Y106.093 E3.30436
G1 X106.960 Y106.466 E3.31974
G1 X106.604 Y106.829 E3.33546
G1 X106.230 Y107.172 E3.35117
G1 X105.837 Y107.495 E3.36689
G1 X105.429 Y107.796 E3.38260
G1 X105.004 Y108.075 E3.39832
G1 X104.565 Y108.331 E3.41404
G1 X104.125 Y108.557 E3.42937
G1 X103.414 Y108.864 E3.45332
G1 X102.683 Y109.113 E3.47722
G1 X102.369 Y109.196 E3.48727
G1 X102.276 Y108.947 E3.49551
G1 E1.49551 F2400.00000
G92 E0
G1 X94.111 Y107.803 F7800.000
G1 E2.00000 F2400.00000
G1 F1800
G1 X94.616 Y108.067 E2.01764
G1 X95.309 Y108.368 E2.04102
G1 X95.798 Y108.541 E2.05708
G1 X96.298 Y108.686 E2.07316
G1 X97.071 Y108.851 E2.09762
G1 X97.917 Y108.953 E2.12399
G1 X98.770 Y108.974 E2.15041
G1 X99.622 Y108.914 E2.17682
G1 X100.464 Y108.774 E2.20324
G1 X101.289 Y108.556 E2.22964
G1 X102.090 Y108.260 E2.25605
G1 X102.859 Y107.890 E2.28244
G1 X103.589 Y107.450 E2.30882
G1 X104.267 Y106.947 E2.33496
G1 X104.702 Y106.569 E2.35278
G1 X105.111 Y106.164 E2.37059
G1 X105.663 Y105.526 E2.39670
G1 X106.155 Y104.832 E2.42303
G1 X106.580 Y104.095 E2.44934
G1 X106.934 Y103.316 E2.47582
G1 X107.210 Y102.517 E2.50199
G1 X107.411 Y101.689 E2.52833
G1 X107.530 Y100.855 E2.55441
G1 X107.566 Y100.287 E2.57202
G1 X107.569 Y99.798 E2.58716
G1 X107.520 Y99.039 E2.61067
G1 X107.396 Y98.237 E2.63580
G1 X107.279 Y97.735 E2.65174
G1 X107.135 Y97.241 E2.66767
G1 X106.872 Y96.534 E2.69101
G1 X106.658 Y96.063 E2.70702
G1 X106.417 Y95.605 E2.72303
G1 X106.021 Y94.965 E2.74630
G1 X105.717 Y94.546 E2.76232
G1 X105.391 Y94.144 E2.77835
G1 X104.875 Y93.596 E2.80164
G1 X104.494 Y93.244 E2.81767
G1 X104.094 Y92.915 E2.83371
G1 X103.480 Y92.479 E2.85702
G1 X103.037 Y92.209 E2.87307
G1 X102.579 Y91.965 E2.88912
G1 X101.890 Y91.659 E2.91245
G1 X101.402 Y91.482 E2.92851
G1 X100.905 Y91.333 E2.94457
G1 X100.160 Y91.166 E2.96820
G1 X99.315 Y91.055 E2.99454
G1 X98.461 Y91.025 E3.02101
G1 X97.610 Y91.075 E3.04738
G1 X96.766 Y91.205 E3.07379
G1 X95.939 Y91.414 E3.10020
G1 X95.135 Y91.701 E3.12660
G1 X94.362 Y92.061 E3.15299
G1 X94.111 Y92.209 E3.16201
G1 X93.915 Y91.909 E3.17310
G1 X94.326 Y91.615 E3.18872
G1 X94.782 Y91.323 E3.20547
G1 X95.253 Y91.057 E3.22222
G1 X95.738 Y90.816 E3.23897
G1 X96.235 Y90.601 E3.25572
G1 X96.743 Y90.413 E3.27247
G1 X97.252 Y90.255 E3.28896
G1 X98.056 Y90.064 E3.31454
G1 X98.583 Y89.975 E3.33109
G1 X99.121 Y89.913 E3.34784
G1 X99.662 Y89.881 E3.36459
G1 X100.195 Y89.877 E3.38108
G1 X101.020 Y89.927 E3.40666
G1 X101.550 Y89.995 E3.42321
G1 X102.077 Y90.091 E3.43976
G1 X102.876 Y90.293 E3.46528
G1 X103.385 Y90.458 E3.48183
G1 X103.890 Y90.652 E3.49858
G1 X104.384 Y90.874 E3.51533
G1 X104.866 Y91.121 E3.53208
G1 X105.333 Y91.394 E3.54883
G1 X105.779 Y91.687 E3.56532
G1 X106.438 Y92.186 E3.59090
G1 X106.842 Y92.537 E3.60745
G1 X107.231 Y92.913 E3.62420
G1 X107.599 Y93.309 E3.64095
G1 X107.946 Y93.725 E3.65770
G1 X108.270 Y94.159 E3.67445
G1 X108.567 Y94.604 E3.69100
G1 X108.978 Y95.319 E3.71652
G1 X109.212 Y95.800 E3.73307
G1 X109.424 Y96.298 E3.74982
G1 X109.608 Y96.807 E3.76657
G1 X109.763 Y97.319 E3.78312
G1 X109.949 Y98.123 E3.80865
G1 X110.034 Y98.651 E3.82521
G1 X110.091 Y99.179 E3.84162
G1 X110.125 Y100.011 E3.86740
G1 X110.110 Y100.540 E3.88379
G1 X110.067 Y101.080 E3.90053
G1 X109.995 Y101.618 E3.91733
G1 X109.896 Y102.140 E3.93376
G1 X109.687 Y102.945 E3.95950
G1 X109.519 Y103.449 E3.97592
G1 X109.321 Y103.953 E3.99268
G1 X109.097 Y104.445 E4.00943
G1 X108.846 Y104.925 E4.02618
G1 X108.570 Y105.391 E4.04293
G1 X108.274 Y105.836 E4.05948
G1 X107.771 Y106.490 E4.08500
G1 X107.418 Y106.891 E4.10155
G1 X107.039 Y107.278 E4.11830
G1 X106.640 Y107.644 E4.13505
G1 X106.222 Y107.988 E4.15180
G1 X105.786 Y108.309 E4.16855
G1 X105.333 Y108.606 E4.18530
G1 X104.866 Y108.879 E4.20205
G1 X104.392 Y109.123 E4.21855
G1 X103.639 Y109.448 E4.24392
G1 X102.864 Y109.711 E4.26924
G1 X102.347 Y109.849 E4.28579
G1 X101.817 Y109.960 E4.30254
G1 X101.282 Y110.043 E4.31929
G1 X100.750 Y110.097 E4.33584
G1 X99.932 Y110.124 E4.36116
G1 X99.115 Y110.086 E4.38648
G1 X98.583 Y110.025 E4.40303
G1 X98.050 Y109.935 E4.41978
G1 X97.521 Y109.817 E4.43653
G1 X97.000 Y109.670 E4.45328
G1 X96.488 Y109.496 E4.47003
G1 X95.991 Y109.297 E4.48658
G1 X95.246 Y108.939 E4.51215
G1 X94.782 Y108.677 E4.52865
G1 X94.326 Y108.385 E4.54540
G1 X93.928 Y108.100 E4.56054
G1 X94.072 Y107.867 E4.56904
G1 X93.544 Y108.594 F7800.000
G1 F1800
G1 X93.060 Y108.209 E4.58819
G1 X92.631 Y107.826 E4.60597
G1 X92.225 Y107.423 E4.62368
G1 X91.652 Y106.773 E4.65050
G1 X91.303 Y106.319 E4.66821
G1 X90.978 Y105.845 E4.68599
G1 X90.678 Y105.354 E4.70378
G1 X90.406 Y104.848 E4.72156
G1 X90.159 Y104.327 E4.73940
G1 X89.945 Y103.801 E4.75697
G1 X89.669 Y102.973 E4.78398
G1 X89.527 Y102.424 E4.80154
G1 X89.412 Y101.860 E4.81934
G1 X89.328 Y101.290 E4.83717
G1 X89.275 Y100.726 E4.85471
G1 X89.251 Y99.852 E4.88174
G1 X89.274 Y99.282 E4.89939
G1 X89.328 Y98.710 E4.91717
G1 X89.412 Y98.142 E4.93494
G1 X89.525 Y97.583 E4.95258
G1 X89.755 Y96.744 E4.97949
G1 X89.943 Y96.204 E4.99720
G1 X90.159 Y95.675 E5.01486
G1 X90.541 Y94.893 E5.04179
G1 X90.825 Y94.399 E5.05944
G1 X91.136 Y93.918 E5.07716
G1 X91.655 Y93.224 E5.10397
G1 X92.027 Y92.789 E5.12168
G1 X92.422 Y92.375 E5.13940
G1 X93.061 Y91.789 E5.16621
G1 X93.508 Y91.432 E5.18392
G1 X93.975 Y91.097 E5.20171
G1 X94.460 Y90.788 E5.21949
G1 X94.960 Y90.505 E5.23728
G1 X95.475 Y90.249 E5.25506
G1 X96.003 Y90.021 E5.27284
G1 X96.542 Y89.822 E5.29063
G1 X97.087 Y89.652 E5.30829
G1 X97.932 Y89.451 E5.33516
G1 X98.496 Y89.356 E5.35287
G1 X99.067 Y89.291 E5.37065
G1 X99.641 Y89.256 E5.38844
G1 X100.211 Y89.252 E5.40610
G1 X101.078 Y89.304 E5.43297
G1 X101.646 Y89.377 E5.45068
G1 X102.209 Y89.480 E5.46839
G1 X103.050 Y89.692 E5.49521
G1 X103.594 Y89.869 E5.51292
G1 X104.130 Y90.075 E5.53070
G1 X104.655 Y90.310 E5.54849
G1 X105.166 Y90.573 E5.56627
G1 X105.663 Y90.862 E5.58405
G1 X106.140 Y91.176 E5.60171
G1 X106.832 Y91.700 E5.62858
G1 X107.264 Y92.076 E5.64629
G1 X107.677 Y92.475 E5.66408
G1 X108.068 Y92.896 E5.68186
G1 X108.436 Y93.338 E5.69965
G1 X108.780 Y93.798 E5.71743
G1 X109.098 Y94.274 E5.73514
G1 X109.530 Y95.026 E5.76196
G1 X109.781 Y95.540 E5.77967
G1 X110.005 Y96.069 E5.79745
G1 X110.201 Y96.610 E5.81524
G1 X110.367 Y97.158 E5.83295
G1 X110.563 Y98.002 E5.85977
G1 X110.654 Y98.568 E5.87750
G1 X110.715 Y99.133 E5.89508
G1 X110.750 Y100.007 E5.92215
G1 X110.735 Y100.574 E5.93970
G1 X110.689 Y101.147 E5.95748
G1 X110.612 Y101.718 E5.97531
G1 X110.506 Y102.276 E5.99290
G1 X110.286 Y103.122 E6.01993
G1 X110.107 Y103.661 E6.03752
G1 X109.897 Y104.197 E6.05532
G1 X109.658 Y104.720 E6.07310
G1 X109.392 Y105.229 E6.09088
G1 X109.099 Y105.724 E6.10866
G1 X108.782 Y106.200 E6.12638
G1 X108.254 Y106.887 E6.15319
G1 X107.876 Y107.317 E6.17090
G1 X107.473 Y107.727 E6.18869
G1 X107.050 Y108.116 E6.20647
G1 X106.606 Y108.481 E6.22426
G1 X106.143 Y108.822 E6.24204
G1 X105.663 Y109.138 E6.25982
G1 X105.166 Y109.427 E6.27761
G1 X104.659 Y109.688 E6.29527
G1 X103.863 Y110.031 E6.32206
G1 X103.045 Y110.309 E6.34881
G1 X102.492 Y110.457 E6.36652
G1 X101.930 Y110.575 E6.38430
G1 X101.362 Y110.663 E6.40209
G1 X100.792 Y110.721 E6.41980
