;FLAVOR:Marlin
;TIME:2403
;Filament used: 1.6524m
;Layer height: 0.28
;MINX:136.099
;MINY:131.111
;MINZ:0.28
;MAXX:163.903
;MAXY:185.901
;MAXZ:22.34
;Generated with Cura_SteamEngine 4.6.0
M140 S80
M105
M190 S80
M104 S250
M105
M109 S250
M82 ;absolute extrusion mode
G28 ; home all axes
 M117 Purge extruder
 G92 E0 ; reset extruder
 G1 Z1.0 F3000 ; move z up little to prevent scratching of surface
 G1 X2 Y20 Z0.3 F5000.0 ; move to start-line position
 G1 X2 Y200.0 Z0.3 F1500.0 E15 ; draw 1st line
 G1 X2 Y200.0 Z0.4 F5000.0 ; move to side a little
 G1 X2 Y20 Z0.4 F1500.0 E30 ; draw 2nd line
 G92 E0 ; reset extruder
 G1 Z1.0 F3000 ; move z up little to prevent scratching of surface
G92 E0
G92 E0
G1 F1500 E-2
;LAYER_COUNT:78
;LAYER:0
M107
G1 F600 Z0.78
G0 F900 X150.875 Y133.09 Z0.78
;TYPE:SKIRT
G1 F600 Z0.28
G1 F1500 E0
G1 F1200 X151.59 Y133.161 E0.05768
G1 X151.749 Y133.184 E0.07058
G1 X152.44 Y133.307 E0.12692
G1 X152.599 Y133.342 E0.13999
G1 X153.131 Y133.474 E0.18399
G1 X153.38 Y133.544 E0.20475
G1 X153.606 Y133.627 E0.22408
G1 X153.609 Y133.619 E0.22476
G1 X154.509 Y133.944 E0.30158
G1 X154.695 Y134.017 E0.31762
G1 X155.051 Y134.175 E0.34888
G1 X155.684 Y134.492 E0.40571
G1 X155.822 Y134.568 E0.41836
G1 X156.43 Y134.931 E0.4752
G1 X156.56 Y135.016 E0.48767
G1 X157.009 Y135.325 E0.53143
G1 X157.256 Y135.509 E0.55615
G1 X157.663 Y135.835 E0.59801
G1 X157.926 Y136.061 E0.62585
G1 X158.211 Y136.328 E0.6572
G1 X158.855 Y136.977 E0.73059
G1 X158.989 Y137.127 E0.74674
G1 X159.43 Y137.658 E0.80215
G1 X159.505 Y137.758 E0.81218
G1 X159.786 Y138.147 E0.85071
G1 X160.006 Y138.469 E0.88201
G1 X160.128 Y138.658 E0.90007
G1 X160.218 Y138.807 E0.91404
G1 X160.522 Y139.337 E0.96309
G1 X160.624 Y139.528 E0.98047
G1 X160.864 Y140.022 E1.02456
G1 X160.998 Y140.325 E1.05116
G1 X161.238 Y140.93 E1.1034
G1 X161.297 Y141.097 E1.11762
G1 X161.517 Y141.799 E1.17668
G1 X161.553 Y141.934 E1.18789
G1 X161.716 Y142.625 E1.24489
G1 X161.745 Y142.779 E1.25747
G1 X161.832 Y143.301 E1.29995
G1 X161.878 Y143.653 E1.32844
G1 X161.926 Y144.189 E1.37164
G1 X161.944 Y144.545 E1.40026
G1 X161.953 Y145.092 E1.44417
G1 X161.945 Y145.461 E1.4738
G1 X161.914 Y145.976 E1.51522
G1 X161.877 Y146.394 E1.54891
G1 X161.846 Y146.663 E1.57064
G1 X161.843 Y146.697 E1.57338
G1 X161.617 Y148.646 E1.73089
G1 X161.378 Y151.358 E1.94944
G1 X161.215 Y154.099 E2.16986
G1 X161.131 Y156.807 E2.38735
G1 X161.122 Y159.555 E2.60794
G1 X161.192 Y162.3 E2.82837
G1 X161.338 Y165.009 E3.04615
G1 X161.564 Y167.766 E3.26821
G1 X161.772 Y169.717 E3.42571
G1 X161.869 Y170.55 E3.49304
G1 X161.927 Y171.185 E3.54422
G1 X161.946 Y171.566 E3.57484
G1 X161.953 Y172.091 E3.61699
G1 X161.945 Y172.45 E3.64582
G1 X161.916 Y172.945 E3.68562
G1 X161.881 Y173.325 E3.71626
G1 X161.816 Y173.812 E3.7557
G1 X161.755 Y174.173 E3.78509
G1 X161.677 Y174.559 E3.8167
G1 X161.674 Y174.558 E3.81695
G1 X161.653 Y174.671 E3.82618
G1 X161.568 Y175.019 E3.85494
G1 X161.375 Y175.678 E3.91006
G1 X161.238 Y176.06 E3.94264
G1 X160.832 Y177.054 E4.02883
G1 X160.734 Y177.264 E4.04743
G1 X160.558 Y177.599 E4.07781
G1 X160.069 Y178.437 E4.1557
G1 X159.969 Y178.598 E4.17091
G1 X159.763 Y178.901 E4.20032
G1 X159.331 Y179.477 E4.25812
G1 X159.238 Y179.59 E4.26987
G1 X158.754 Y180.142 E4.3288
G1 X158.649 Y180.252 E4.34101
G1 X158.434 Y180.467 E4.36542
G1 X158.35 Y180.539 E4.3743
G1 X158.354 Y180.543 E4.37475
G1 X157.875 Y180.991 E4.4274
G1 X157.71 Y181.136 E4.44503
G1 X157.296 Y181.469 E4.48769
G1 X156.863 Y181.787 E4.53081
G1 X156.589 Y181.973 E4.5574
G1 X156.021 Y182.328 E4.61116
G1 X155.884 Y182.406 E4.62382
G1 X155.102 Y182.811 E4.69451
G1 X154.453 Y183.095 E4.75138
G1 X154.302 Y183.154 E4.7644
G1 X153.631 Y183.392 E4.82155
G1 X153.463 Y183.444 E4.83567
G1 X152.939 Y183.589 E4.87931
G1 X152.656 Y183.656 E4.90266
G1 X152.128 Y183.764 E4.94592
G1 X151.806 Y183.818 E4.97213
G1 X151.218 Y183.892 E5.0197
G1 X150.838 Y183.923 E5.05031
G1 X150.499 Y183.939 E5.07755
G1 X149.718 Y183.951 E5.14025
G1 X149.366 Y183.939 E5.16853
G1 X149.116 Y183.921 E5.18865
G1 X148.42 Y183.851 E5.2448
G1 X148.26 Y183.828 E5.25778
G1 X147.561 Y183.704 E5.31477
G1 X147.404 Y183.67 E5.32766
G1 X146.732 Y183.5 E5.38331
G1 X146.575 Y183.454 E5.39644
G1 X146.168 Y183.323 E5.43076
G1 X146.092 Y183.292 E5.43735
G1 X146.091 Y183.296 E5.43768
G1 X145.754 Y183.175 E5.46642
G1 X145.086 Y182.899 E5.52444
G1 X144.954 Y182.838 E5.53612
G1 X144.316 Y182.518 E5.59341
G1 X144.158 Y182.43 E5.60793
G1 X143.614 Y182.106 E5.65876
G1 X143.434 Y181.991 E5.67591
G1 X142.871 Y181.598 E5.73102
G1 X142.743 Y181.501 E5.74392
G1 X142.273 Y181.123 E5.79233
G1 X142.048 Y180.925 E5.81639
G1 X141.759 Y180.653 E5.84825
G1 X141.314 Y180.208 E5.89877
G1 X141.177 Y180.063 E5.91478
G1 X140.879 Y179.725 E5.95096
G1 X140.599 Y179.388 E5.98613
G1 X140.493 Y179.25 E6.0001
G1 X140.207 Y178.853 E6.03938
G1 X139.991 Y178.537 E6.0701
G1 X139.793 Y178.223 E6.0999
G1 X139.455 Y177.632 E6.15455
G1 X139.375 Y177.48 E6.16834
G1 X139.053 Y176.805 E6.22838
G1 X138.999 Y176.678 E6.23946
G1 X138.756 Y176.063 E6.29254
G1 X138.703 Y175.911 E6.30546
G1 X138.48 Y175.197 E6.36551
G1 X138.446 Y175.071 E6.37599
G1 X138.281 Y174.371 E6.43372
G1 X138.251 Y174.213 E6.44663
G1 X138.167 Y173.701 E6.48828
G1 X138.119 Y173.33 E6.51831
G1 X138.061 Y172.603 E6.57685
G1 X138.05 Y172.317 E6.59983
G1 X138.049 Y172.11 E6.61645
G1 X138.067 Y171.434 E6.67073
G1 X138.081 Y171.209 E6.68883
G1 X138.21 Y169.852 E6.79825
G1 X138.383 Y168.36 E6.91882
G1 X138.622 Y165.65 E7.13721
G1 X138.785 Y162.912 E7.3574
G1 X138.869 Y160.203 E7.57497
G1 X138.878 Y157.454 E7.79564
G1 X138.808 Y154.711 E8.01591
G1 X138.662 Y152.001 E8.23377
G1 X138.437 Y149.249 E8.45542
G1 X138.226 Y147.284 E8.61407
G1 X138.137 Y146.512 E8.67645
G1 X138.073 Y145.808 E8.7332
G1 X138.048 Y145.258 E8.7774
G1 X138.049 Y145.123 E8.78823
G1 X138.078 Y144.173 E8.86453
G1 X138.12 Y143.689 E8.90353
G1 X138.189 Y143.172 E8.9454
G1 X138.246 Y142.833 E8.97299
G1 X138.352 Y142.319 E9.01512
G1 X138.4 Y142.117 E9.03179
G1 X138.406 Y142.118 E9.03228
G1 X138.435 Y141.98 E9.0436
G1 X138.63 Y141.316 E9.09915
G1 X138.762 Y140.951 E9.13031
G1 X139.097 Y140.119 E9.20231
G1 X139.174 Y139.942 E9.2178
G1 X139.389 Y139.506 E9.25683
G1 X139.446 Y139.405 E9.26614
G1 X140.027 Y138.419 E9.35801
G1 X140.237 Y138.109 E9.38807
G1 X140.673 Y137.529 E9.44631
G1 X140.762 Y137.421 E9.45755
G1 X141.242 Y136.871 E9.51615
G1 X141.363 Y136.745 E9.53017
G1 X141.63 Y136.482 E9.56026
G1 X142.131 Y136.014 E9.61529
G1 X142.292 Y135.874 E9.63242
G1 X142.543 Y135.668 E9.65849
G1 X142.708 Y135.536 E9.67545
G1 X143.192 Y135.18 E9.72368
G1 X143.316 Y135.096 E9.7357
G1 X143.671 Y134.868 E9.76957
G1 X143.828 Y134.774 E9.78426
G1 X144.332 Y134.488 E9.83078
G1 X144.783 Y134.254 E9.87157
G1 X144.915 Y134.192 E9.88327
G1 X145.549 Y133.915 E9.93881
G1 X145.693 Y133.859 E9.95122
G1 X146.227 Y133.666 E9.9968
G1 X146.528 Y133.571 E10.02213
G1 X147.04 Y133.427 E10.06483
G1 X147.349 Y133.353 E10.09034
G1 X147.874 Y133.245 E10.13336
G1 X148.204 Y133.191 E10.16021
G1 X148.806 Y133.115 E10.20891
G1 X149.501 Y133.071 E10.26482
G1 X150.376 Y133.06 E10.33506
G1 X150.875 Y133.09 E10.37519
G0 F900 X150.919 Y132.441
G1 F1200 X151.667 Y132.516 E10.43554
G1 X151.857 Y132.543 E10.45095
G1 X152.564 Y132.669 E10.50859
G1 X152.754 Y132.71 E10.5242
G1 X153.307 Y132.848 E10.56995
G1 X153.556 Y132.918 E10.59071
G1 X153.827 Y133.016 E10.61385
G1 X153.83 Y133.007 E10.61461
G1 X154.73 Y133.332 E10.69142
G1 X154.952 Y133.42 E10.71059
G1 X155.337 Y133.591 E10.74441
G1 X155.986 Y133.916 E10.80268
G1 X156.15 Y134.007 E10.81773
G1 X156.771 Y134.378 E10.8758
G1 X156.927 Y134.479 E10.89072
G1 X157.393 Y134.8 E10.93614
G1 X157.661 Y135.001 E10.96304
G1 X158.083 Y135.339 E11.00644
G1 X158.367 Y135.584 E11.03655
G1 X158.67 Y135.867 E11.06983
G1 X159.328 Y136.531 E11.14487
G1 X159.488 Y136.71 E11.16414
G1 X159.943 Y137.259 E11.22138
G1 X160.032 Y137.377 E11.23325
G1 X160.321 Y137.779 E11.27299
G1 X160.552 Y138.116 E11.30579
G1 X160.674 Y138.305 E11.32385
G1 X160.782 Y138.483 E11.34056
G1 X161.086 Y139.013 E11.38961
G1 X161.208 Y139.242 E11.41044
G1 X161.456 Y139.755 E11.45618
G1 X161.601 Y140.082 E11.48489
G1 X161.846 Y140.698 E11.53811
G1 X161.916 Y140.898 E11.55512
G1 X162.141 Y141.618 E11.61567
G1 X162.184 Y141.779 E11.62905
G1 X162.351 Y142.487 E11.68745
G1 X162.386 Y142.671 E11.70248
G1 X162.503 Y143.409 E11.76246
G1 X162.525 Y143.592 E11.77726
G1 X162.575 Y144.15 E11.82223
G1 X162.594 Y144.533 E11.85302
G1 X162.603 Y145.101 E11.89862
G1 X162.594 Y145.498 E11.9305
G1 X162.562 Y146.03 E11.97328
G1 X162.523 Y146.467 E12.0085
G1 X162.492 Y146.735 E12.03016
G1 X162.489 Y146.772 E12.03314
G1 X162.265 Y148.706 E12.18943
G1 X162.026 Y151.419 E12.40805
G1 X161.865 Y154.121 E12.62534
G1 X161.781 Y156.83 E12.84291
G1 X161.772 Y159.541 E13.06054
G1 X161.842 Y162.283 E13.28072
G1 X161.986 Y164.957 E13.49569
G1 X162.21 Y167.684 E13.71534
G1 X162.423 Y169.683 E13.87671
G1 X162.516 Y170.488 E13.94177
G1 X162.576 Y171.149 E13.99505
G1 X162.595 Y171.555 E14.02767
G1 X162.603 Y172.099 E14.07135
G1 X162.594 Y172.487 E14.1025
G1 X162.564 Y172.998 E14.14359
G1 X162.546 Y173.218 E14.16131
G1 X162.525 Y173.409 E14.17674
G1 X162.458 Y173.915 E14.21771
G1 X162.392 Y174.301 E14.24915
G1 X162.314 Y174.687 E14.28076
G1 X162.311 Y174.686 E14.28101
G1 X162.286 Y174.822 E14.29211
G1 X162.193 Y175.195 E14.32297
G1 X162.056 Y175.678 E14.36328
G1 X161.888 Y176.18 E14.40577
G1 X161.841 Y176.303 E14.41634
G1 X161.506 Y177.134 E14.48827
G1 X161.421 Y177.329 E14.50534
G1 X161.323 Y177.539 E14.52394
G1 X161.186 Y177.808 E14.54818
G1 X161.119 Y177.926 E14.55907
G1 X160.63 Y178.764 E14.63696
G1 X160.51 Y178.957 E14.6552
G1 X160.286 Y179.286 E14.68715
G1 X159.842 Y179.879 E14.74662
G1 X159.731 Y180.013 E14.76059
G1 X159.234 Y180.58 E14.82111
G1 X159.109 Y180.712 E14.83571
G1 X158.894 Y180.927 E14.86011
G1 X158.794 Y181.014 E14.87075
G1 X158.798 Y181.018 E14.87121
G1 X158.319 Y181.466 E14.92386
G1 X158.122 Y181.639 E14.9449
G1 X157.841 Y181.869 E14.97405
G1 X157.682 Y181.992 E14.99019
G1 X157.234 Y182.321 E15.03481
G1 X156.938 Y182.522 E15.06353
G1 X156.355 Y182.886 E15.1187
G1 X156.192 Y182.978 E15.13373
G1 X155.51 Y183.336 E15.19556
G1 X155.367 Y183.404 E15.20827
G1 X154.704 Y183.695 E15.2664
G1 X154.524 Y183.765 E15.2819
G1 X153.84 Y184.008 E15.34017
G1 X153.639 Y184.07 E15.35706
G1 X153.092 Y184.221 E15.40261
G1 X152.789 Y184.292 E15.42759
G1 X152.24 Y184.405 E15.47259
G1 X151.891 Y184.462 E15.50097
G1 X151.276 Y184.539 E15.55073
G1 X150.872 Y184.573 E15.58327
G1 X150.511 Y184.589 E15.61228
G1 X149.7 Y184.601 E15.67739
G1 X149.056 Y184.568 E15.72916
G1 X148.344 Y184.496 E15.7866
G1 X148.152 Y184.469 E15.80217
G1 X147.437 Y184.342 E15.86046
G1 X147.249 Y184.301 E15.87591
G1 X146.563 Y184.128 E15.9327
G1 X146.376 Y184.073 E15.94835
G1 X145.969 Y183.942 E15.98267
G1 X145.879 Y183.906 E15.99045
G1 X145.877 Y183.91 E15.99081
G1 X145.511 Y183.778 E16.02204
G1 X144.826 Y183.495 E16.08154
G1 X144.669 Y183.422 E16.09544
G1 X144.014 Y183.094 E16.15424
G1 X143.825 Y182.988 E16.17164
G1 X143.281 Y182.664 E16.22247
G1 X143.066 Y182.527 E16.24293
G1 X142.49 Y182.125 E16.29932
G1 X142.337 Y182.009 E16.31473
G1 X141.849 Y181.615 E16.36508
G1 X141.605 Y181.401 E16.39113
G1 X141.299 Y181.113 E16.42487
G1 X140.854 Y180.668 E16.47538
G1 X140.691 Y180.494 E16.49452
G1 X140.381 Y180.142 E16.53218
G1 X140.091 Y179.794 E16.56854
G1 X139.967 Y179.632 E16.58492
G1 X139.672 Y179.222 E16.62546
G1 X139.444 Y178.888 E16.65793
G1 X139.231 Y178.55 E16.69
G1 X138.886 Y177.948 E16.7457
G1 X138.791 Y177.766 E16.76218
G1 X138.461 Y177.073 E16.82379
G1 X138.396 Y176.921 E16.83706
G1 X138.148 Y176.292 E16.89134
G1 X138.085 Y176.111 E16.90672
G1 X137.855 Y175.376 E16.96855
G1 X137.815 Y175.225 E16.98109
G1 X137.646 Y174.508 E17.04022
G1 X137.61 Y174.319 E17.05567
G1 X137.523 Y173.79 E17.0987
G1 X137.472 Y173.39 E17.13107
G1 X137.411 Y172.629 E17.19236
G1 X137.4 Y172.331 E17.2163
G1 X137.399 Y172.093 E17.2354
G1 X137.417 Y171.417 E17.28969
G1 X137.434 Y171.148 E17.31132
G1 X137.565 Y169.777 E17.42188
G1 X137.732 Y168.335 E17.53841
G1 X137.974 Y165.591 E17.75954
G1 X138.135 Y162.888 E17.97691
G1 X138.219 Y160.18 E18.1944
G1 X138.228 Y157.468 E18.4121
G1 X138.158 Y154.728 E18.63213
G1 X138.014 Y152.053 E18.84718
G1 X137.786 Y149.271 E19.07125
G1 X137.577 Y147.321 E19.22868
G1 X137.49 Y146.574 E19.28905
G1 X137.424 Y145.842 E19.34805
G1 X137.398 Y145.268 E19.39418
G1 X137.399 Y145.106 E19.40718
G1 X137.419 Y144.327 E19.46974
G1 X137.43 Y144.123 E19.48614
G1 X137.454 Y143.812 E19.51118
G1 X137.475 Y143.605 E19.52788
G1 X137.547 Y143.068 E19.57137
G1 X137.609 Y142.704 E19.60101
G1 X137.72 Y142.169 E19.64488
G1 X137.768 Y141.967 E19.66154
G1 X137.775 Y141.969 E19.66213
G1 X137.809 Y141.803 E19.67573
G1 X138.009 Y141.123 E19.73263
G1 X138.159 Y140.708 E19.76805
G1 X138.494 Y139.876 E19.84005
G1 X138.586 Y139.664 E19.8586
G1 X138.687 Y139.45 E19.8776
G1 X138.817 Y139.197 E19.90043
G1 X138.884 Y139.078 E19.9114
G1 X139.371 Y138.244 E19.98892
G1 X139.484 Y138.061 E20.00619
G1 X139.594 Y137.894 E20.02224
G1 X139.714 Y137.723 E20.03901
G1 X140.162 Y137.126 E20.09893
G1 X140.268 Y136.997 E20.11233
G1 X140.761 Y136.434 E20.1724
G1 X140.906 Y136.283 E20.18921
G1 X141.187 Y136.007 E20.22083
G1 X141.688 Y135.539 E20.27586
G1 X141.879 Y135.371 E20.29628
G1 X142.13 Y135.165 E20.32235
G1 X142.317 Y135.017 E20.34149
G1 X142.816 Y134.65 E20.39122
G1 X142.965 Y134.549 E20.40567
G1 X143.32 Y134.321 E20.43954
G1 X143.507 Y134.208 E20.45707
G1 X144.328 Y133.755 E20.53235
G1 X144.65 Y133.598 E20.5611
G1 X145.298 Y133.315 E20.61787
G1 X145.47 Y133.248 E20.63269
G1 X146.027 Y133.048 E20.68019
G1 X146.35 Y132.946 E20.70738
G1 X146.883 Y132.796 E20.75183
G1 X147.217 Y132.716 E20.7794
G1 X147.762 Y132.605 E20.82405
G1 X148.118 Y132.546 E20.85302
G1 X148.556 Y132.488 E20.88849
G1 X148.753 Y132.467 E20.90439
G1 X149.489 Y132.421 E20.96359
G1 X150.385 Y132.41 E21.03552
G1 X150.919 Y132.441 E21.07846
G0 F900 X151.083 Y131.802
G1 F1200 X151.744 Y131.871 E21.13181
G1 X151.965 Y131.902 E21.14972
G1 X152.687 Y132.031 E21.2086
G1 X152.909 Y132.079 E21.22683
G1 X153.483 Y132.223 E21.27434
G1 X153.732 Y132.293 E21.2951
G1 X154.048 Y132.404 E21.32199
G1 X154.051 Y132.396 E21.32267
G1 X154.951 Y132.721 E21.39949
G1 X155.209 Y132.823 E21.42176
G1 X155.418 Y132.913 E21.44002
G1 X155.623 Y133.007 E21.45813
G1 X156.288 Y133.341 E21.51787
G1 X156.479 Y133.447 E21.5354
G1 X157.113 Y133.825 E21.59466
G1 X157.293 Y133.942 E21.61189
G1 X157.919 Y134.38 E21.67322
G1 X158.066 Y134.492 E21.68806
G1 X158.503 Y134.843 E21.73305
G1 X158.807 Y135.106 E21.76532
G1 X159.129 Y135.407 E21.8007
G1 X159.8 Y136.084 E21.87722
G1 X159.986 Y136.294 E21.89974
G1 X160.456 Y136.86 E21.9588
G1 X160.558 Y136.996 E21.97244
G1 X160.856 Y137.41 E22.01339
G1 X161.098 Y137.764 E22.04781
G1 X161.22 Y137.953 E22.06587
G1 X161.346 Y138.16 E22.08533
G1 X161.65 Y138.69 E22.13437
G1 X161.791 Y138.956 E22.15854
G1 X162.049 Y139.487 E22.20593
G1 X162.203 Y139.838 E22.2367
G1 X162.453 Y140.466 E22.29096
G1 X162.535 Y140.699 E22.31079
G1 X162.765 Y141.437 E22.37284
G1 X162.815 Y141.625 E22.38846
G1 X162.986 Y142.35 E22.44826
G1 X163.027 Y142.564 E22.46575
G1 X163.147 Y143.319 E22.52712
G1 X163.172 Y143.532 E22.54433
G1 X163.224 Y144.111 E22.591
G1 X163.244 Y144.521 E22.62395
G1 X163.253 Y145.11 E22.67124
G1 X163.243 Y145.535 E22.70536
G1 X163.21 Y146.085 E22.74959
G1 X163.169 Y146.541 E22.78635
G1 X163.137 Y146.821 E22.80897
G1 X162.912 Y148.766 E22.96615
G1 X162.676 Y151.444 E23.18196
G1 X162.515 Y154.145 E23.39916
G1 X162.431 Y156.852 E23.61657
G1 X162.422 Y159.526 E23.83123
G1 X162.492 Y162.267 E24.05133
G1 X162.634 Y164.906 E24.26349
G1 X162.858 Y167.643 E24.48393
G1 X163.069 Y169.614 E24.64306
G1 X163.163 Y170.427 E24.70876
G1 X163.225 Y171.112 E24.76397
G1 X163.245 Y171.545 E24.79877
G1 X163.253 Y172.108 E24.84397
G1 X163.243 Y172.523 E24.87729
G1 X163.212 Y173.051 E24.91975
G1 X163.194 Y173.271 E24.93747
G1 X163.17 Y173.494 E24.95547
G1 X163.099 Y174.019 E24.998
