;FLAVOR:Marlin
;TIME:850
;Filament used: 1.29415m
;Layer height: 0.3
;MINX:114.259
;MINY:136.259
;MINZ:0.3
;MAXX:185.735
;MAXY:163.733
;MAXZ:9.9
;LINEARADVANCEPROCESSED
;Generated with Cura_SteamEngine 4.6.0
M140 S80
M105
M190 S80
M104 S250
M105
M109 S250
M82 ;absolute extrusion mode
G28 ; home all axes
M420 S1 ; enable bed mesh
M117 Purge extruder
G92 E0 ; reset extruder
G1 Z1.0 F3000 ; move z up little to prevent scratching of surface
G1 X2 Y20 Z0.3 F5000.0 ; move to start-line position
G1 X2 Y200.0 Z0.3 F1500.0 E15 ; draw 1st line
G1 X2 Y200.0 Z0.4 F5000.0 ; move to side a little
G1 X2 Y20 Z0.4 F1500.0 E30 ; draw 2nd line
G92 E0 ; reset extruder
G1 Z1.0 F3000 ; move z up little to prevent scratching of surface
G92 E0
G92 E0
G1 F1500 E-2
;LAYER_COUNT:33
M900 K0.050000 T0 ;added by LinearAdvanceSettingPlugin
;LAYER:0
M107
G0 F6000 X172.973 Y138.098 Z0.3
;TYPE:SKIRT
G1 F1500 E0
G1 F1200 X173.273 Y138.129 E0.03251
G1 X173.951 Y138.221 E0.10628
G1 X174.059 Y138.237 E0.11805
G1 X174.255 Y138.272 E0.13951
G1 X174.891 Y138.414 E0.20977
G1 X175.18 Y138.491 E0.24201
G1 X175.414 Y138.559 E0.26828
G1 X175.575 Y138.619 E0.2868
G1 X175.577 Y138.612 E0.28759
G1 X176.196 Y138.823 E0.35809
G1 X176.473 Y138.927 E0.38999
G1 X177 Y139.155 E0.45189
G1 X177.47 Y139.384 E0.50826
G1 X177.988 Y139.667 E0.57189
G1 X178.392 Y139.915 E0.623
G1 X178.832 Y140.208 E0.67999
G1 X179.265 Y140.523 E0.73772
G1 X179.433 Y140.654 E0.76068
G1 X179.909 Y141.052 E0.82757
G1 X180.216 Y141.339 E0.87288
G1 X180.825 Y141.958 E0.9665
G1 X181.076 Y142.24 E1.0072
G1 X181.469 Y142.724 E1.07441
G1 X181.832 Y143.221 E1.14076
G1 X182.004 Y143.479 E1.17419
G1 X182.146 Y143.702 E1.20269
G1 X182.386 Y144.11 E1.25372
G1 X182.544 Y144.403 E1.28961
G1 X182.948 Y145.233 E1.38913
G1 X183.065 Y145.512 E1.42174
G1 X183.136 Y145.727 E1.44615
G1 X183.144 Y145.724 E1.44708
G1 X183.469 Y146.675 E1.55542
G1 X183.536 Y146.918 E1.5826
G1 X183.646 Y147.394 E1.63527
G1 X183.802 Y148.208 E1.72462
G1 X183.863 Y148.643 E1.77197
G1 X183.911 Y149.147 E1.82655
G1 X183.93 Y149.494 E1.86402
G1 X183.935 Y149.703 E1.88656
G1 X183.931 Y150.407 E1.96246
G1 X183.919 Y150.672 E1.99105
G1 X183.891 Y151.006 E2.02719
G1 X183.791 Y151.897 E2.12385
G1 X183.703 Y152.371 E2.17582
G1 X183.578 Y152.92 E2.23652
G1 X183.435 Y153.443 E2.29498
G1 X183.382 Y153.615 E2.31438
G1 X183.216 Y154.104 E2.37005
G1 X183.13 Y154.329 E2.39602
G1 X182.917 Y154.835 E2.45521
G1 X182.637 Y155.429 E2.526
G1 X182.442 Y155.791 E2.57033
G1 X182.17 Y156.254 E2.62822
G1 X181.983 Y156.545 E2.66551
G1 X181.867 Y156.715 E2.6877
G1 X181.374 Y157.39 E2.77781
G1 X181.219 Y157.587 E2.80484
G1 X180.898 Y157.961 E2.85797
G1 X180.509 Y158.379 E2.91953
G1 X180.37 Y158.505 E2.93976
G1 X180.376 Y158.511 E2.94067
G1 X180.152 Y158.722 E2.97385
G1 X180.006 Y158.852 E2.99492
G1 X179.304 Y159.442 E3.09378
G1 X179.138 Y159.573 E3.11658
G1 X178.69 Y159.891 E3.17581
G1 X178.27 Y160.161 E3.22964
G1 X178.006 Y160.316 E3.26264
G1 X177.326 Y160.687 E3.34615
G1 X177.033 Y160.829 E3.38125
G1 X176.665 Y160.993 E3.42469
G1 X176.483 Y161.066 E3.44583
G1 X175.762 Y161.33 E3.52861
G1 X175.074 Y161.538 E3.60609
G1 X174.908 Y161.581 E3.62458
G1 X174.356 Y161.707 E3.68562
G1 X173.879 Y161.793 E3.73787
G1 X173.555 Y161.837 E3.77312
G1 X172.871 Y161.909 E3.84727
G1 X172.635 Y161.921 E3.87275
G1 X171.597 Y161.934 E3.98466
G1 X171.449 Y161.927 E4.00063
G1 X170.878 Y161.891 E4.06231
G1 X170.272 Y161.839 E4.12789
G1 X170.238 Y161.836 E4.13157
G1 X168.873 Y161.705 E4.2794
G1 X166.134 Y161.52 E4.57536
G1 X163.437 Y161.415 E4.86633
G1 X160.694 Y161.385 E5.16207
G1 X157.922 Y161.432 E5.46096
G1 X155.256 Y161.553 E5.74867
G1 X152.507 Y161.757 E6.04584
G1 X151.902 Y161.82 E6.11142
G1 X150.875 Y161.908 E6.22255
G1 X150.635 Y161.921 E6.24846
G1 X149.597 Y161.934 E6.36037
G1 X149.449 Y161.927 E6.37634
G1 X148.878 Y161.891 E6.43802
G1 X148.272 Y161.839 E6.5036
G1 X148.238 Y161.836 E6.50728
G1 X146.873 Y161.705 E6.65511
G1 X144.134 Y161.52 E6.95107
G1 X141.437 Y161.415 E7.24205
G1 X138.694 Y161.385 E7.53778
G1 X135.922 Y161.432 E7.83667
G1 X133.256 Y161.553 E8.12438
G1 X130.507 Y161.757 E8.42156
G1 X129.902 Y161.82 E8.48713
G1 X128.875 Y161.908 E8.59826
G1 X128.635 Y161.921 E8.62417
G1 X127.597 Y161.934 E8.73608
G1 X127.451 Y161.928 E8.75183
G1 X126.895 Y161.89 E8.81191
G1 X126.291 Y161.82 E8.87747
G1 X125.922 Y161.761 E8.91775
G1 X125.923 Y161.755 E8.91841
G1 X125.692 Y161.717 E8.94365
G1 X125.063 Y161.572 E9.01324
G1 X124.873 Y161.522 E9.03442
G1 X124.282 Y161.346 E9.1009
G1 X123.864 Y161.2 E9.14863
G1 X123.189 Y160.929 E9.22705
G1 X122.928 Y160.81 E9.25797
G1 X122.491 Y160.595 E9.31048
G1 X121.97 Y160.307 E9.37465
G1 X121.417 Y159.964 E9.44481
G1 X121.104 Y159.751 E9.48562
G1 X121.037 Y159.703 E9.49451
G1 X120.559 Y159.34 E9.55922
G1 X120.101 Y158.956 E9.62365
G1 X119.724 Y158.608 E9.67896
G1 X119.445 Y158.33 E9.72143
G1 X119.351 Y158.221 E9.73694
G1 X119.346 Y158.226 E9.7377
G1 X119.03 Y157.879 E9.7883
G1 X118.661 Y157.442 E9.84996
G1 X118.517 Y157.259 E9.87507
G1 X118.259 Y156.908 E9.92203
G1 X118.139 Y156.733 E9.94491
G1 X117.741 Y156.107 E10.02488
G1 X117.429 Y155.552 E10.09352
G1 X117.336 Y155.364 E10.11613
G1 X116.99 Y154.607 E10.20586
G1 X116.871 Y154.318 E10.23956
G1 X116.821 Y154.181 E10.25528
G1 X116.594 Y153.523 E10.33032
G1 X116.512 Y153.252 E10.36084
G1 X116.415 Y152.887 E10.40156
G1 X116.422 Y152.885 E10.40234
G1 X116.357 Y152.633 E10.4304
G1 X116.197 Y151.783 E10.52365
G1 X116.151 Y151.458 E10.55903
G1 X116.069 Y150.467 E10.66624
G1 X116.059 Y149.925 E10.72468
G1 X116.061 Y149.731 E10.74559
G1 X116.074 Y149.413 E10.7799
G1 X116.098 Y149.041 E10.82009
G1 X116.138 Y148.632 E10.8644
G1 X116.222 Y148.025 E10.93046
G1 X116.329 Y147.472 E10.99118
G1 X116.425 Y147.066 E11.03616
G1 X116.433 Y147.068 E11.03705
G1 X116.463 Y146.913 E11.05407
G1 X116.572 Y146.531 E11.09689
G1 X116.67 Y146.267 E11.12725
G1 X116.662 Y146.264 E11.12817
G1 X116.929 Y145.538 E11.21157
G1 X117.018 Y145.316 E11.23735
G1 X117.196 Y144.918 E11.28436
G1 X117.417 Y144.475 E11.33773
G1 X117.738 Y143.895 E11.40919
G1 X117.86 Y143.693 E11.43464
G1 X118.164 Y143.229 E11.49444
G1 X118.484 Y142.787 E11.55327
G1 X118.793 Y142.397 E11.60691
G1 X119.133 Y142.001 E11.66318
G1 X119.149 Y141.983 E11.66577
G1 X119.281 Y141.843 E11.68652
G1 X119.726 Y141.399 E11.75429
G1 X120.127 Y141.034 E11.81275
G1 X120.687 Y140.564 E11.89156
G1 X120.908 Y140.394 E11.92162
G1 X121.13 Y140.237 E11.95094
G1 X121.785 Y139.802 E12.0357
G1 X121.935 Y139.712 E12.05456
G1 X122.352 Y139.478 E12.10611
G1 X122.801 Y139.249 E12.16045
G1 X122.99 Y139.162 E12.18288
G1 X123.664 Y138.877 E12.26177
G1 X123.881 Y138.793 E12.28686
G1 X124.088 Y138.72 E12.31052
G1 X124.817 Y138.493 E12.39284
G1 X125.198 Y138.391 E12.43536
G1 X125.512 Y138.319 E12.47009
G1 X125.68 Y138.294 E12.4884
G1 X125.679 Y138.286 E12.48927
G1 X126.067 Y138.217 E12.53175
G1 X126.276 Y138.187 E12.55452
G1 X127.129 Y138.093 E12.64703
G1 X127.503 Y138.072 E12.68742
G1 X127.975 Y138.059 E12.73832
G1 X128.348 Y138.064 E12.77854
G1 X128.664 Y138.078 E12.81264
G1 X129.184 Y138.113 E12.86882
G1 X129.709 Y138.158 E12.92563
G1 X131.226 Y138.302 E13.08991
G1 X133.918 Y138.481 E13.38077
G1 X136.692 Y138.586 E13.68004
G1 X139.432 Y138.613 E13.97545
G1 X142.133 Y138.563 E14.26669
G1 X144.861 Y138.435 E14.56111
G1 X147.833 Y138.208 E14.88245
G1 X148.173 Y138.174 E14.91929
G1 X149.096 Y138.095 E15.01916
G1 X149.503 Y138.072 E15.06311
G1 X149.975 Y138.059 E15.11401
G1 X150.348 Y138.064 E15.15423
G1 X150.664 Y138.078 E15.18833
G1 X151.184 Y138.113 E15.24451
G1 X151.709 Y138.158 E15.30132
G1 X153.226 Y138.302 E15.4656
G1 X155.918 Y138.481 E15.75646
G1 X158.692 Y138.586 E16.05573
G1 X161.432 Y138.613 E16.35114
G1 X164.133 Y138.563 E16.64238
G1 X166.861 Y138.435 E16.9368
G1 X169.833 Y138.208 E17.25814
G1 X170.173 Y138.174 E17.29498
G1 X171.096 Y138.095 E17.39485
G1 X171.503 Y138.072 E17.43879
G1 X171.975 Y138.059 E17.4897
G1 X172.23 Y138.061 E17.51719
G1 X172.973 Y138.098 E17.59739
G0 F6000 X172.624 Y137.175
G1 F1200 X173.031 Y137.2 E17.64135
G1 X173.394 Y137.238 E17.6807
G1 X174.192 Y137.347 E17.76753
G1 X174.439 Y137.392 E17.7946
G1 X175.121 Y137.544 E17.86992
G1 X175.431 Y137.627 E17.90452
G1 X175.665 Y137.695 E17.93079
G1 X175.868 Y137.769 E17.95409
G1 X175.871 Y137.761 E17.95501
G1 X176.475 Y137.968 E18.02384
G1 X176.824 Y138.099 E18.06403
G1 X177.391 Y138.345 E18.13066
G1 X177.889 Y138.588 E18.1904
G1 X178.455 Y138.898 E18.25997
G1 X178.885 Y139.162 E18.31437
G1 X179.361 Y139.48 E18.37608
G1 X179.794 Y139.795 E18.43381
G1 X180.006 Y139.96 E18.46277
G1 X180.516 Y140.388 E18.53455
G1 X180.702 Y140.558 E18.56172
G1 X180.855 Y140.705 E18.58459
G1 X181.492 Y141.354 E18.68263
G1 X181.77 Y141.668 E18.72784
G1 X182.052 Y142.01 E18.77563
G1 X182.192 Y142.189 E18.80013
G1 X182.457 Y142.547 E18.84815
G1 X182.58 Y142.722 E18.87121
G1 X182.814 Y143.074 E18.91677
G1 X182.92 Y143.243 E18.93828
G1 X183.175 Y143.677 E18.99255
G1 X183.348 Y143.999 E19.03196
G1 X183.778 Y144.885 E19.13813
G1 X183.895 Y145.164 E19.17074
G1 X183.987 Y145.434 E19.2015
G1 X183.995 Y145.431 E19.20242
G1 X184.327 Y146.405 E19.31335
G1 X184.412 Y146.712 E19.3477
G1 X184.476 Y146.978 E19.37719
G1 X184.53 Y147.224 E19.40434
G1 X184.686 Y148.038 E19.4937
G1 X184.758 Y148.551 E19.54954
G1 X184.809 Y149.098 E19.60877
G1 X184.828 Y149.445 E19.64624
G1 X184.835 Y149.708 E19.6746
G1 X184.831 Y150.412 E19.7505
G1 X184.816 Y150.747 E19.78665
G1 X184.785 Y151.102 E19.82507
G1 X184.709 Y151.814 E19.90226
G1 X184.679 Y152.039 E19.92673
G1 X184.581 Y152.567 E19.98463
G1 X184.449 Y153.149 E20.04896
G1 X184.302 Y153.687 E20.10909
G1 X184.234 Y153.904 E20.13361
G1 X184.068 Y154.393 E20.18928
G1 X183.96 Y154.678 E20.22214
G1 X183.737 Y155.205 E20.28383
G1 X183.494 Y155.73 E20.3462
G1 X183.431 Y155.853 E20.3611
G1 X183.222 Y156.24 E20.40851
G1 X182.928 Y156.741 E20.47114
G1 X182.741 Y157.032 E20.50843
G1 X182.594 Y157.246 E20.53642
G1 X182.101 Y157.921 E20.62653
G1 X181.905 Y158.169 E20.66061
G1 X181.562 Y158.569 E20.71742
G1 X181.161 Y159 E20.78088
G1 X180.987 Y159.16 E20.80637
G1 X180.993 Y159.166 E20.80728
G1 X180.769 Y159.377 E20.84046
G1 X180.585 Y159.541 E20.86703
G1 X179.883 Y160.131 E20.96589
G1 X179.673 Y160.296 E20.99468
G1 X179.181 Y160.646 E21.05977
G1 X178.731 Y160.934 E21.11737
G1 X178.44 Y161.105 E21.15376
G1 X177.724 Y161.494 E21.24161
G1 X177.401 Y161.65 E21.28028
G1 X177.02 Y161.82 E21.32526
G1 X176.999 Y161.829 E21.32772
G1 X176.795 Y161.91 E21.35138
G1 X176.43 Y162.045 E21.39334
G1 X176.43 Y162.046 E21.39344
G1 X176.277 Y162.104 E21.41108
G1 X176.03 Y162.189 E21.43925
G1 X175.321 Y162.404 E21.51912
G1 X175.112 Y162.458 E21.54239
G1 X174.522 Y162.591 E21.60759
G1 X174.004 Y162.684 E21.66433
G1 X173.655 Y162.731 E21.70229
G1 X172.947 Y162.805 E21.77904
G1 X172.649 Y162.82 E21.81121
G1 X171.572 Y162.833 E21.92732
G1 X171.394 Y162.826 E21.94653
G1 X170.801 Y162.788 E22.01059
G1 X170.195 Y162.736 E22.07616
G1 X168.798 Y162.602 E22.22746
G1 X166.107 Y162.42 E22.51823
G1 X163.392 Y162.314 E22.81115
G1 X160.663 Y162.284 E23.10538
G1 X157.978 Y162.33 E23.39489
G1 X155.292 Y162.453 E23.68476
G1 X152.606 Y162.652 E23.97513
G1 X151.978 Y162.717 E24.04319
G1 X150.951 Y162.805 E24.15431
G1 X150.649 Y162.82 E24.18691
G1 X149.572 Y162.833 E24.30303
G1 X149.394 Y162.826 E24.32223
G1 X148.801 Y162.788 E24.3863
G1 X148.195 Y162.736 E24.45187
G1 X146.798 Y162.602 E24.60317
G1 X144.107 Y162.42 E24.89394
G1 X141.392 Y162.314 E25.18686
G1 X138.663 Y162.284 E25.48109
G1 X135.978 Y162.33 E25.77059
G1 X133.292 Y162.453 E26.06047
G1 X130.606 Y162.652 E26.35083
G1 X129.978 Y162.717 E26.4189
G1 X128.951 Y162.805 E26.53002
G1 X128.649 Y162.82 E26.56262
G1 X127.572 Y162.833 E26.67874
G1 X127.396 Y162.826 E26.69773
G1 X127.003 Y162.802 E26.74017
G1 X126.798 Y162.784 E26.76236
G1 X126.366 Y162.737 E26.80921
G1 X126.149 Y162.708 E26.83281
G1 X125.78 Y162.649 E26.8731
G1 X125.782 Y162.636 E26.87451
G1 X125.49 Y162.594 E26.90632
G1 X124.861 Y162.449 E26.97591
G1 X124.622 Y162.387 E27.00253
G1 X124.179 Y162.258 E27.05227
G1 X123.991 Y162.198 E27.07354
G1 X123.533 Y162.037 E27.12588
G1 X123.014 Y161.832 E27.18604
G1 X122.818 Y161.749 E27.20899
G1 X122.538 Y161.621 E27.24218
G1 X122.257 Y161.486 E27.27579
G1 X122.061 Y161.385 E27.29956
G1 X121.503 Y161.076 E27.36832
G1 X120.914 Y160.711 E27.44302
G1 X120.581 Y160.484 E27.48647
G1 X120.159 Y160.17 E27.54318
G1 X119.984 Y160.032 E27.56721
G1 X119.496 Y159.622 E27.63592
G1 X119.234 Y159.384 E27.67408
G1 X119.089 Y159.245 E27.69573
G1 X118.81 Y158.967 E27.73819
G1 X118.69 Y158.83 E27.75783
G1 X118.684 Y158.836 E27.75874
G1 X118.342 Y158.459 E27.81362
G1 X117.973 Y158.022 E27.87528
G1 X117.792 Y157.792 E27.90683
G1 X117.534 Y157.441 E27.9538
G1 X117.382 Y157.221 E27.98262
G1 X117.076 Y156.746 E28.04354
G1 X116.96 Y156.555 E28.06763
G1 X116.635 Y155.975 E28.13931
G1 X116.518 Y155.738 E28.1678
G1 X116.172 Y154.981 E28.25753
G1 X116.034 Y154.648 E28.29639
G1 X115.97 Y154.475 E28.31628
G1 X115.743 Y153.817 E28.39132
G1 X115.667 Y153.576 E28.41856
G1 X115.545 Y153.118 E28.46966
G1 X115.554 Y153.116 E28.47065
G1 X115.472 Y152.8 E28.50585
G1 X115.312 Y151.95 E28.59909
G1 X115.255 Y151.539 E28.64383
G1 X115.17 Y150.506 E28.75557
G1 X115.159 Y149.941 E28.81649
G1 X115.161 Y149.697 E28.8428
G1 X115.176 Y149.357 E28.87949
G1 X115.202 Y148.962 E28.92217
G1 X115.245 Y148.514 E28.97068
G1 X115.302 Y148.082 E29.01766
G1 X115.337 Y147.862 E29.04168
G1 X115.408 Y147.477 E29.08388
G1 X115.453 Y147.265 E29.10725
G1 X115.549 Y146.859 E29.15222
G1 X115.551 Y146.86 E29.15247
G1 X115.598 Y146.666 E29.17399
G1 X115.707 Y146.284 E29.21681
G1 X115.827 Y145.951 E29.25497
G1 X115.819 Y145.948 E29.25589
G1 X115.966 Y145.557 E29.30093
G1 X116.082 Y145.234 E29.33793
G1 X116.194 Y144.954 E29.37044
G1 X116.386 Y144.525 E29.42111
G1 X116.63 Y144.04 E29.47964
G1 X116.951 Y143.46 E29.5511
G1 X117.104 Y143.204 E29.58326
G1 X117.431 Y142.707 E29.64739
G1 X117.775 Y142.231 E29.71071
G1 X117.989 Y141.958 E29.74811
G1 X118.11 Y141.812 E29.76855
G1 X118.461 Y141.403 E29.82665
G1 X118.477 Y141.385 E29.82925
G1 X118.643 Y141.208 E29.85541
G1 X119.116 Y140.738 E29.9273
G1 X119.393 Y140.482 E29.96796
G1 X119.549 Y140.345 E29.99034
G1 X120.109 Y139.875 E30.06916
G1 X120.387 Y139.66 E30.10705
G1 X120.627 Y139.491 E30.13869
G1 X121.3 Y139.045 E30.22573
G1 X121.489 Y138.93 E30.24958
G1 X121.943 Y138.676 E30.30567
G1 X122.399 Y138.444 E30.36083
G1 X122.637 Y138.334 E30.38909
G1 X123.339 Y138.037 E30.47127
G1 X123.556 Y137.953 E30.49635
G1 X123.817 Y137.862 E30.52615
G1 X124.579 Y137.624 E30.61222
G1 X124.997 Y137.514 E30.65881
G1 X125.311 Y137.442 E30.69354
G1 X125.523 Y137.409 E30.71667
G1 X125.521 Y137.4 E30.71767
G1 X125.909 Y137.331 E30.76015
G1 X126.173 Y137.293 E30.78891
G1 X126.841 Y137.216 E30.8614
G1 X127.074 Y137.195 E30.88662
G1 X127.473 Y137.172 E30.92971
G1 X127.982 Y137.159 E30.9846
G1 X128.386 Y137.165 E31.02816
G1 X128.722 Y137.18 E31.06442
G1 X129.26 Y137.216 E31.12255
G1 X129.785 Y137.261 E31.17936
G1 X131.299 Y137.405 E31.34331
G1 X133.977 Y137.583 E31.63266
G1 X136.699 Y137.686 E31.92632
G1 X139.424 Y137.713 E32.22011
G1 X142.108 Y137.663 E32.50952
G1 X144.822 Y137.535 E32.80243
G1 X147.713 Y137.315 E33.11501
G1 X148.095 Y137.277 E33.15639
G1 X149.041 Y137.197 E33.25874
G1 X149.473 Y137.172 E33.30539
G1 X149.982 Y137.159 E33.36029
G1 X150.386 Y137.165 E33.40385
G1 X150.722 Y137.18 E33.44011
G1 X151.26 Y137.216 E33.49824
G1 X151.785 Y137.261 E33.55504
G1 X153.299 Y137.405 E33.719
G1 X155.977 Y137.583 E34.00835
G1 X158.699 Y137.686 E34.30201
G1 X161.424 Y137.713 E34.5958
G1 X164.108 Y137.663 E34.88521
G1 X166.822 Y137.535 E35.17812
G1 X169.713 Y137.315 E35.49069
G1 X170.095 Y137.277 E35.53208
G1 X171.041 Y137.197 E35.63443
G1 X171.473 Y137.172 E35.68108
G1 X171.982 Y137.159 E35.73597
G1 X172.237 Y137.161 E35.76346
G1 X172.624 Y137.175 E35.80521
G0 F6000 X172.661 Y136.276
G1 F1200 X173.089 Y136.302 E35.85144
G1 X173.515 Y136.346 E35.89761
G1 X174.326 Y136.457 E35.98586
G1 X174.624 Y136.511 E36.01851
G1 X175.176 Y136.63 E36.07938
