;FLAVOR:Marlin
;TIME:6138
;Filament used: 6.29883m
;Layer height: 0.3
;MINX:126.653
;MINY:132.773
;MINZ:0.3
;MAXX:176.494
;MAXY:167.228
;MAXZ:101.9
;POSTPROCESSED
;ChangeAtZ instances: 1
;Generated with Cura_SteamEngine 4.6.0
M140 S80
M105
M190 S80
M104 S230
M105
M109 S230
M82 ;absolute extrusion mode
G28 ; home all axes
 M117 Purge extruder
 G92 E0 ; reset extruder
 G1 Z1.0 F3000 ; move z up little to prevent scratching of surface
 G1 X2 Y20 Z0.3 F5000.0 ; move to start-line position
 G1 X2 Y200.0 Z0.3 F1500.0 E15 ; draw 1st line
 G1 X2 Y200.0 Z0.4 F5000.0 ; move to side a little
 G1 X2 Y20 Z0.4 F1500.0 E30 ; draw 2nd line
 G92 E0 ; reset extruder
 G1 Z1.0 F3000 ; move z up little to prevent scratching of surface
G92 E0
G92 E0
G1 F1500 E-6.5
;LAYER_COUNT:338
;LAYER:0
M107
G1 F600 Z0.8
G0 F12000 X128.305 Y133.982 Z0.8
;TYPE:SKIRT
G1 F600 Z0.3
G1 F1500 E0
G1 F1200 X128.68 Y133.65 E0.04373
G1 X128.933 Y133.477 E0.07049
G1 X129.18 Y133.326 E0.09576
G1 X129.627 Y133.1 E0.13949
G1 X130.125 Y132.942 E0.18511
G1 X130.323 Y132.897 E0.20284
G1 X130.782 Y132.828 E0.24336
G1 X131.019 Y132.81 E0.26411
G1 X131.289 Y132.801 E0.2877
G1 X131.494 Y132.803 E0.3056
G1 X131.748 Y132.816 E0.3278
G1 X132.034 Y132.842 E0.35288
G1 X132.254 Y132.87 E0.37224
G1 X132.701 Y132.945 E0.41181
G1 X133.007 Y133.011 E0.43914
G1 X133.495 Y133.138 E0.48317
G1 X133.839 Y133.243 E0.51457
G1 X133.974 Y133.296 E0.52723
G1 X133.976 Y133.29 E0.52778
G1 X134.324 Y133.414 E0.56004
G1 X134.32 Y133.426 E0.56114
G1 X134.487 Y133.476 E0.57636
G1 X134.954 Y133.675 E0.62068
G1 X135.279 Y133.829 E0.65208
G1 X135.43 Y133.916 E0.6673
G1 X135.434 Y133.909 E0.668
G1 X135.857 Y134.142 E0.71016
G1 X136.143 Y134.317 E0.73944
G1 X136.409 Y134.493 E0.76729
G1 X136.558 Y134.598 E0.7832
G1 X136.816 Y134.791 E0.81133
G1 X136.815 Y134.792 E0.81145
G1 X136.982 Y134.922 E0.82993
G1 X137.319 Y135.213 E0.8688
G1 X137.552 Y135.436 E0.89696
G1 X137.745 Y135.635 E0.92117
G1 X137.744 Y135.636 E0.92129
G1 X137.893 Y135.796 E0.94038
G1 X138.179 Y136.139 E0.97937
G1 X138.334 Y136.343 E1.00174
G1 X138.344 Y136.356 E1.00317
G1 X138.474 Y136.538 E1.0227
G1 X138.613 Y136.748 E1.04468
G1 X138.609 Y136.751 E1.04512
G1 X138.721 Y136.92 E1.06282
G1 X138.845 Y137.134 E1.08442
G1 X138.839 Y137.138 E1.08505
G1 X138.926 Y137.279 E1.09951
G1 X139.187 Y137.808 E1.15101
G1 X139.279 Y138.02 E1.17119
G1 X139.278 Y138.02 E1.17128
G1 X139.326 Y138.132 E1.18192
G1 X139.404 Y138.33 E1.2005
G1 X139.403 Y138.33 E1.20058
G1 X139.449 Y138.446 E1.21148
G1 X139.907 Y139.737 E1.33108
G1 X139.991 Y139.925 E1.34905
G1 X140.142 Y140.197 E1.37621
G1 X140.28 Y140.393 E1.39714
G1 X140.444 Y140.578 E1.41873
G1 X140.459 Y140.592 E1.42052
G1 X140.612 Y140.719 E1.43788
G1 X140.641 Y140.74 E1.44101
G1 X140.738 Y140.802 E1.45106
G1 X140.924 Y140.902 E1.46949
G1 X140.951 Y140.915 E1.47211
G1 X141.153 Y141 E1.49124
G1 X141.272 Y141.044 E1.50232
G1 X141.548 Y141.133 E1.52764
G1 X141.779 Y141.196 E1.54855
G1 X141.99 Y141.248 E1.56752
G1 X142.445 Y141.343 E1.6081
G1 X143.066 Y141.447 E1.66307
G1 X143.468 Y141.502 E1.6985
G1 X143.487 Y141.505 E1.70018
G1 X143.638 Y141.523 E1.71345
G1 X144.059 Y141.571 E1.75045
G1 X144.082 Y141.574 E1.75247
G1 X144.269 Y141.591 E1.76887
G1 X144.309 Y141.596 E1.77239
G1 X144.767 Y141.638 E1.81254
G1 X145 Y141.656 E1.83295
G1 X145.534 Y141.694 E1.87969
G1 X145.567 Y141.697 E1.88258
G1 X145.796 Y141.71 E1.9026
G1 X145.84 Y141.714 E1.90646
G1 X146.985 Y141.772 E2.00656
G1 X146.985 Y141.771 E2.00664
G1 X147.318 Y141.784 E2.03574
G1 X147.701 Y141.797 E2.0692
G1 X147.704 Y141.797 E2.06946
G1 X148.046 Y141.808 E2.09934
G1 X148.049 Y141.808 E2.0996
G1 X148.405 Y141.818 E2.13069
G1 X148.411 Y141.818 E2.13121
G1 X148.678 Y141.824 E2.15453
G1 X150.192 Y141.848 E2.28673
G1 X150.241 Y141.849 E2.29101
G1 X150.647 Y141.852 E2.32646
G1 X151.492 Y141.856 E2.40024
G1 X152.714 Y141.855 E2.50693
G1 X152.756 Y141.854 E2.51059
G1 X154.71 Y141.83 E2.68121
G1 X155.383 Y141.815 E2.73998
G1 X155.737 Y141.805 E2.7709
G1 X156.122 Y141.792 E2.80453
G1 X158.496 Y141.672 E3.01206
G1 X159.469 Y141.591 E3.09731
G1 X159.516 Y141.585 E3.10145
G1 X159.716 Y141.566 E3.11899
G1 X160.121 Y141.521 E3.15456
G1 X160.145 Y141.517 E3.15669
G1 X160.312 Y141.496 E3.17138
G1 X161.059 Y141.387 E3.23729
G1 X161.487 Y141.308 E3.27529
G1 X162.034 Y141.183 E3.32428
G1 X162.465 Y141.058 E3.36346
G1 X162.805 Y140.926 E3.3953
G1 X162.949 Y140.859 E3.40917
G1 X163.047 Y140.805 E3.41894
G1 X163.222 Y140.691 E3.43717
G1 X163.338 Y140.597 E3.45021
G1 X163.359 Y140.577 E3.45274
G1 X163.519 Y140.4 E3.47357
G1 X163.668 Y140.193 E3.49584
G1 X163.736 Y140.08 E3.50735
G1 X163.853 Y139.851 E3.52981
G1 X163.956 Y139.609 E3.55277
G1 X164.123 Y139.128 E3.59722
G1 X164.13 Y139.11 E3.59891
G1 X164.206 Y138.884 E3.61973
G1 X164.351 Y138.47 E3.65803
G1 X164.414 Y138.306 E3.67336
G1 X164.604 Y137.847 E3.71674
G1 X164.693 Y137.65 E3.73561
G1 X164.862 Y137.31 E3.76876
G1 X164.962 Y137.126 E3.78704
G1 X165.092 Y136.903 E3.80958
G1 X165.187 Y136.75 E3.8253
G1 X165.43 Y136.39 E3.86322
G1 X165.594 Y136.169 E3.88725
G1 X165.727 Y136.002 E3.90589
G1 X166.074 Y135.604 E3.95199
G1 X166.206 Y135.467 E3.9686
G1 X166.42 Y135.258 E3.99472
G1 X166.578 Y135.115 E4.01332
G1 X166.815 Y134.913 E4.04051
G1 X166.816 Y134.914 E4.04064
G1 X166.974 Y134.783 E4.05855
G1 X167.284 Y134.551 E4.09236
G1 X167.393 Y134.475 E4.10396
G1 X167.796 Y134.214 E4.14588
G1 X168.249 Y133.953 E4.19153
G1 X168.663 Y133.742 E4.2321
G1 X168.97 Y133.6 E4.26163
G1 X169.386 Y133.427 E4.30096
G1 X169.698 Y133.31 E4.33006
G1 X170.118 Y133.171 E4.36868
G1 X170.446 Y133.075 E4.39852
G1 X170.924 Y132.958 E4.44148
G1 X171.253 Y132.892 E4.47078
G1 X171.46 Y132.857 E4.48911
G1 X171.77 Y132.816 E4.51641
G1 X171.77 Y132.819 E4.51667
G1 X171.985 Y132.793 E4.53558
G1 X172.189 Y132.779 E4.55343
G1 X172.492 Y132.773 E4.57989
G1 X172.817 Y132.782 E4.60828
G1 X173.284 Y132.83 E4.64927
G1 X173.491 Y132.867 E4.66763
G1 X174.163 Y133.066 E4.72882
G1 X174.369 Y133.153 E4.74834
G1 X174.814 Y133.384 E4.79211
G1 X175.216 Y133.684 E4.83591
G1 X175.455 Y133.916 E4.86499
G1 X175.603 Y134.076 E4.88402
G1 X175.914 Y134.47 E4.92784
G1 X176.157 Y134.909 E4.97165
G1 X176.328 Y135.38 E5.0154
G1 X176.389 Y135.643 E5.03897
G1 X176.43 Y135.865 E5.05868
G1 X176.481 Y136.364 E5.10247
G1 X176.418 Y137.07 E5.16436
G1 X176.371 Y137.299 E5.18477
G1 X176.144 Y137.989 E5.24819
G1 X175.994 Y138.313 E5.27936
G1 X175.853 Y138.582 E5.30588
G1 X175.698 Y138.839 E5.33208
G1 X175.544 Y139.075 E5.35668
G1 X175.406 Y139.271 E5.37761
G1 X174.524 Y140.421 E5.50414
G1 X174.498 Y140.453 E5.50774
G1 X173.834 Y141.315 E5.60274
G1 X173.67 Y141.549 E5.62769
G1 X173.487 Y141.836 E5.65741
G1 X173.403 Y141.989 E5.67265
G1 X173.332 Y142.133 E5.68667
G1 X173.291 Y142.234 E5.69618
G1 X173.275 Y142.305 E5.70254
G1 X173.27 Y142.348 E5.70632
G1 X173.271 Y142.402 E5.71103
G1 X173.282 Y142.522 E5.72155
G1 X173.304 Y142.691 E5.73643
G1 X173.412 Y143.339 E5.79379
G1 X173.434 Y143.468 E5.80521
G1 X173.466 Y143.687 E5.82454
G1 X173.465 Y143.687 E5.82462
G1 X173.478 Y143.768 E5.83179
G1 X173.498 Y143.925 E5.8456
G1 X173.522 Y144.113 E5.86215
G1 X173.543 Y144.332 E5.88136
G1 X173.54 Y144.332 E5.88162
G1 X173.555 Y144.472 E5.89391
G1 X173.573 Y144.781 E5.92094
G1 X173.581 Y145.042 E5.94374
G1 X173.576 Y145.042 E5.94417
G1 X173.582 Y145.247 E5.96208
G1 X173.571 Y145.606 E5.99344
G1 X173.552 Y145.831 E6.01315
G1 X173.555 Y145.831 E6.01341
G1 X173.497 Y146.332 E6.05745
G1 X173.476 Y146.46 E6.06877
G1 X173.429 Y146.714 E6.09132
G1 X173.386 Y146.914 E6.10918
G1 X173.322 Y147.167 E6.13197
G1 X173.274 Y147.334 E6.14714
G1 X173.193 Y147.593 E6.17083
G1 X173.13 Y147.776 E6.18773
G1 X172.965 Y148.195 E6.22705
G1 X172.848 Y148.458 E6.25218
G1 X172.772 Y148.616 E6.26749
G1 X172.557 Y149.026 E6.30791
G1 X172.319 Y149.429 E6.34877
G1 X172.052 Y149.832 E6.39097
G1 X171.937 Y149.991 E6.40811
G1 X172.12 Y150.251 E6.43587
G1 X172.376 Y150.65 E6.47726
G1 X172.608 Y151.052 E6.51778
G1 X172.823 Y151.472 E6.55897
G1 X173.011 Y151.896 E6.59947
G1 X173.113 Y152.157 E6.62393
G1 X173.178 Y152.339 E6.64081
G1 X173.261 Y152.597 E6.66447
G1 X173.312 Y152.776 E6.68072
G1 X173.378 Y153.032 E6.7038
G1 X173.419 Y153.212 E6.71992
G1 X173.469 Y153.467 E6.74261
G1 X173.501 Y153.659 E6.7596
G1 X173.551 Y154.071 E6.79584
G1 X173.58 Y154.483 E6.83189
G1 X173.587 Y154.732 E6.85364
G1 X173.584 Y154.732 E6.85391
G1 X173.588 Y154.903 E6.86884
G1 X173.578 Y155.253 E6.89941
G1 X173.555 Y155.609 E6.93056
G1 X173.521 Y155.937 E6.95935
G1 X173.474 Y156.296 E6.99096
G1 X173.3 Y157.391 E7.08776
G1 X173.279 Y157.631 E7.10879
G1 X173.28 Y157.672 E7.11237
G1 X173.296 Y157.735 E7.11805
G1 X173.321 Y157.806 E7.12462
G1 X173.36 Y157.896 E7.13318
G1 X173.435 Y158.041 E7.14744
G1 X173.589 Y158.3 E7.17374
G1 X173.833 Y158.654 E7.21128
G1 X174.029 Y158.918 E7.23999
G1 X175.051 Y160.218 E7.38436
G1 X175.054 Y160.221 E7.38473
G1 X175.147 Y160.341 E7.39799
G1 X175.471 Y160.783 E7.44584
G1 X175.557 Y160.909 E7.45916
G1 X175.754 Y161.215 E7.49093
G1 X175.882 Y161.434 E7.51308
G1 X176.044 Y161.739 E7.54323
G1 X176.047 Y161.745 E7.54381
G1 X176.185 Y162.062 E7.574
G1 X176.277 Y162.311 E7.59718
G1 X176.45 Y163.034 E7.66208
G1 X176.475 Y163.246 E7.68072
G1 X176.494 Y163.747 E7.72449
G1 X176.433 Y164.245 E7.7683
G1 X176.325 Y164.641 E7.80413
G1 X176.254 Y164.847 E7.82316
G1 X176.053 Y165.307 E7.86698
G1 X175.782 Y165.729 E7.91077
G1 X175.448 Y166.103 E7.95455
G1 X175.231 Y166.291 E7.97962
G1 X175.049 Y166.435 E7.99988
G1 X174.632 Y166.714 E8.04368
G1 X174.027 Y166.974 E8.10118
G1 X173.798 Y167.045 E8.12211
G1 X173.217 Y167.166 E8.17392
G1 X172.986 Y167.192 E8.19422
G1 X172.649 Y167.212 E8.22369
G1 X172.443 Y167.213 E8.24168
G1 X172.175 Y167.203 E8.26509
G1 X171.828 Y167.175 E8.29549
G1 X171.584 Y167.145 E8.31695
G1 X171.13 Y167.07 E8.35713
G1 X170.824 Y167.004 E8.38446
G1 X170.339 Y166.878 E8.42821
G1 X169.994 Y166.773 E8.45969
G1 X169.853 Y166.718 E8.47291
G1 X169.851 Y166.724 E8.47346
G1 X169.504 Y166.6 E8.50563
G1 X169.508 Y166.588 E8.50673
G1 X169.344 Y166.539 E8.52168
G1 X168.881 Y166.341 E8.56564
G1 X168.555 Y166.187 E8.59712
G1 X168.4 Y166.099 E8.61268
G1 X168.396 Y166.106 E8.61339
G1 X167.939 Y165.852 E8.65904
G1 X167.648 Y165.673 E8.68886
G1 X167.488 Y165.568 E8.70557
G1 X167.104 Y165.295 E8.74671
G1 X166.863 Y165.104 E8.77356
G1 X166.52 Y164.81 E8.813
G1 X166.395 Y164.694 E8.82789
G1 X166.271 Y164.572 E8.84307
G1 X165.963 Y164.246 E8.88223
G1 X165.743 Y163.992 E8.91157
G1 X165.632 Y163.853 E8.9271
G1 X165.476 Y163.646 E8.94973
G1 X165.358 Y163.48 E8.96751
G1 X165.218 Y163.269 E8.98962
G1 X165.219 Y163.268 E8.98974
G1 X165.115 Y163.104 E9.0067
G1 X164.991 Y162.892 E9.02814
G1 X164.997 Y162.889 E9.02873
G1 X164.9 Y162.731 E9.04491
G1 X164.642 Y162.206 E9.09599
G1 X164.55 Y161.994 E9.11616
G1 X164.551 Y161.994 E9.11625
G1 X164.503 Y161.882 E9.12689
G1 X164.425 Y161.684 E9.14547
G1 X164.426 Y161.684 E9.14556
G1 X164.38 Y161.568 E9.15645
G1 X164.217 Y161.105 E9.19931
G1 X164.209 Y161.084 E9.20127
G1 X164.02 Y160.529 E9.25246
G1 X163.878 Y160.173 E9.28592
G1 X163.742 Y159.906 E9.31208
G1 X163.676 Y159.797 E9.32321
G1 X163.55 Y159.62 E9.34217
G1 X163.427 Y159.476 E9.35871
G1 X163.355 Y159.406 E9.36748
G1 X163.214 Y159.29 E9.38342
G1 X163.212 Y159.288 E9.38366
G1 X162.963 Y159.138 E9.40904
G1 X162.866 Y159.092 E9.41842
G1 X162.683 Y159.015 E9.43575
G1 X162.544 Y158.964 E9.44868
G1 X162.251 Y158.869 E9.47557
G1 X162.061 Y158.817 E9.49277
G1 X161.847 Y158.764 E9.51202
G1 X161.391 Y158.669 E9.55268
G1 X160.576 Y158.536 E9.62478
G1 X160.377 Y158.51 E9.6423
G1 X160.347 Y158.505 E9.64496
G1 X160.193 Y158.487 E9.6585
G1 X159.772 Y158.439 E9.69549
G1 X159.564 Y158.419 E9.71373
G1 X159.523 Y158.414 E9.71734
G1 X159.065 Y158.372 E9.7575
G1 X159.045 Y158.37 E9.75925
G1 X158.831 Y158.354 E9.77799
G1 X158.562 Y158.334 E9.80154
G1 X158.531 Y158.331 E9.80426
G1 X158.023 Y158.298 E9.8487
G1 X157.46 Y158.267 E9.89793
G1 X156.838 Y158.237 E9.9523
G1 X156.129 Y158.211 E10.01424
G1 X156.126 Y158.211 E10.0145
G1 X155.779 Y158.2 E10.04481
G1 X155.771 Y158.2 E10.04551
G1 X155.426 Y158.19 E10.07565
G1 X155.42 Y158.19 E10.07617
G1 X155.153 Y158.184 E10.09949
G1 X153.638 Y158.16 E10.23178
G1 X153.227 Y158.156 E10.26766
G1 X153.181 Y158.155 E10.27168
G1 X152.765 Y158.153 E10.308
G1 X151.479 Y158.152 E10.42028
G1 X149.121 Y158.176 E10.62616
G1 X148.447 Y158.191 E10.68502
G1 X148.093 Y158.201 E10.71594
G1 X148.052 Y158.203 E10.71952
G1 X146.435 Y158.266 E10.86081
G1 X146.411 Y158.268 E10.86291
G1 X145.604 Y158.314 E10.93348
G1 X145.571 Y158.317 E10.93637
G1 X145.337 Y158.333 E10.95685
G1 X145.334 Y158.333 E10.95711
G1 X144.115 Y158.438 E11.06394
G1 X143.701 Y158.485 E11.10031
G1 X143.697 Y158.485 E11.10066
G1 X143.321 Y158.533 E11.13376
G1 X142.333 Y158.697 E11.2212
G1 X141.778 Y158.825 E11.27093
G1 X141.518 Y158.896 E11.29446
G1 X141.341 Y158.953 E11.31069
G1 X141.119 Y159.037 E11.33142
G1 X140.878 Y159.146 E11.35451
G1 X140.776 Y159.202 E11.36467
G1 X140.61 Y159.31 E11.38196
G1 X140.491 Y159.407 E11.39536
G1 X140.47 Y159.427 E11.39789
G1 X140.313 Y159.598 E11.41816
G1 X140.152 Y159.825 E11.44246
G1 X140.102 Y159.907 E11.45084
G1 X140.082 Y159.942 E11.45436
G1 X140.012 Y160.077 E11.46764
G1 X139.993 Y160.116 E11.47143
G1 X139.871 Y160.405 E11.49882
G1 X139.771 Y160.681 E11.52445
G1 X139.48 Y161.527 E11.60256
G1 X139.415 Y161.696 E11.61837
G1 X139.224 Y162.156 E11.66185
G1 X139.136 Y162.35 E11.68045
G1 X138.967 Y162.69 E11.7136
G1 X138.867 Y162.874 E11.73188
G1 X138.646 Y163.245 E11.76959
G1 X138.344 Y163.687 E11.81632
G1 X138.251 Y163.81 E11.82979
G1 X138.077 Y164.028 E11.85414
G1 X137.959 Y164.167 E11.87006
G1 X137.649 Y164.505 E11.9101
G1 X137.443 Y164.708 E11.93535
G1 X137.219 Y164.913 E11.96186
G1 X137.073 Y165.038 E11.97864
G1 X136.719 Y165.32 E12.01816
G1 X136.44 Y165.522 E12.04823
G1 X136.176 Y165.697 E12.07588
G1 X136.175 Y165.695 E12.07608
G1 X136.003 Y165.806 E12.09395
G1 X135.581 Y166.047 E12.13638
G1 X135.161 Y166.261 E12.17754
G1 X134.861 Y166.399 E12.20637
G1 X134.439 Y166.574 E12.24625
G1 X134.138 Y166.687 E12.27432
G1 X133.813 Y166.797 E12.30428
G1 X133.635 Y166.852 E12.32055
G1 X133.169 Y166.98 E12.36274
G1 X132.834 Y167.058 E12.39277
G1 X132.636 Y167.097 E12.41039
G1 X132.185 Y167.17 E12.45028
G1 X131.845 Y167.207 E12.48014
G1 X131.64 Y167.221 E12.49808
G1 X131.388 Y167.228 E12.52009
G1 X131.13 Y167.225 E12.54261
G1 X130.615 Y167.176 E12.58778
G1 X130.289 Y167.118 E12.61669
G1 X129.804 Y166.991 E12.66046
G1 X129.35 Y166.792 E12.70374
G1 X129.136 Y166.677 E12.72495
G1 X128.714 Y166.405 E12.76878
G1 X128.341 Y166.07 E12.81256
G1 X127.958 Y165.575 E12.8672
G1 X127.842 Y165.39 E12.88626
G1 X127.61 Y164.946 E12.93
G1 X127.452 Y164.47 E12.97379
G1 X127.362 Y163.795 E13.03324
G1 X127.356 Y163.554 E13.05429
G1 X127.383 Y163.054 E13.09801
G1 X127.479 Y162.6 E13.13852
G1 X127.534 Y162.41 E13.15579
G1 X127.739 Y161.884 E13.20508
G1 X127.904 Y161.552 E13.23745
G1 X128.054 Y161.293 E13.26358
G1 X128.05 Y161.291 E13.26397
G1 X128.158 Y161.116 E13.28193
G1 X128.261 Y160.96 E13.29825
G1 X128.631 Y160.44 E13.35397
G1 X129.896 Y158.819 E13.53349
G1 X130.166 Y158.439 E13.57419
G1 X130.294 Y158.243 E13.59462
G1 X130.385 Y158.086 E13.61047
G1 X130.469 Y157.927 E13.62617
G1 X130.513 Y157.827 E13.63571
G1 X130.545 Y157.738 E13.64396
G1 X130.559 Y157.648 E13.65192
G1 X130.558 Y157.589 E13.65707
G1 X130.527 Y157.322 E13.68054
G1 X130.366 Y156.334 E13.76793
G1 X130.367 Y156.334 E13.76802
G1 X130.352 Y156.237 E13.77659
G1 X130.308 Y155.892 E13.80696
G1 X130.287 Y155.673 E13.82616
G1 X130.289 Y155.673 E13.82634
G1 X130.275 Y155.531 E13.8388
G1 X130.258 Y155.222 E13.86581
G1 X130.25 Y154.963 E13.88844
G1 X130.252 Y154.963 E13.88861
G1 X130.247 Y154.798 E13.90303
G1 X130.258 Y154.415 E13.93648
G1 X130.275 Y154.176 E13.9574
G1 X130.298 Y153.939 E13.97819
G1 X130.328 Y153.744 E13.99541
G1 X130.324 Y153.743 E13.99577
G1 X130.361 Y153.506 E14.01671
G1 X130.396 Y153.316 E14.03358
G1 X130.452 Y153.061 E14.05638
G1 X130.454 Y153.062 E14.05657
G1 X130.496 Y152.884 E14.07254
