;FLAVOR:Marlin
;TIME:1887
;Filament used: 1.03425m
;Layer height: 0.3
;MINX:135.85
;MINY:132.994
;MINZ:0.3
;MAXX:164.15
;MAXY:161.251
;MAXZ:51.9
;Generated with Cura_SteamEngine 4.6.0
M140 S80
M105
M190 S80
M104 S230
M105
M109 S230
M82 ;absolute extrusion mode
G28 ; home all axes
 M117 Purge extruder
 G92 E0 ; reset extruder
 G1 Z1.0 F3000 ; move z up little to prevent scratching of surface
 G1 X2 Y20 Z0.3 F5000.0 ; move to start-line position
 G1 X2 Y200.0 Z0.3 F1500.0 E15 ; draw 1st line
 G1 X2 Y200.0 Z0.4 F5000.0 ; move to side a little
 G1 X2 Y20 Z0.4 F1500.0 E30 ; draw 2nd line
 G92 E0 ; reset extruder
 G1 Z1.0 F3000 ; move z up little to prevent scratching of surface
G92 E0
G92 E0
G1 F1500 E-6.5
;LAYER_COUNT:173
;LAYER:0
M107
G1 F600 Z0.8
G0 F3000 X145.358 Y142.452 Z0.8
;TYPE:SKIRT
G1 F600 Z0.3
G1 F1500 E0
G1 F1200 X145.211 Y142.602 E0.022
G1 X145.084 Y142.74 E0.04165
G1 X144.93 Y142.919 E0.06639
G1 X144.799 Y143.082 E0.0883
G1 X144.647 Y143.283 E0.1147
G1 X144.426 Y143.607 E0.15579
G1 X144.332 Y143.762 E0.17479
G1 X144.211 Y143.975 E0.20045
G1 X144.113 Y144.161 E0.22248
G1 X144.015 Y144.362 E0.24591
G1 X143.931 Y144.549 E0.26738
G1 X143.861 Y144.718 E0.28655
G1 X143.86 Y144.721 E0.28688
G1 X143.769 Y144.967 E0.31436
G1 X143.648 Y145.351 E0.35654
G1 X143.588 Y145.58 E0.38134
G1 X143.508 Y145.952 E0.42121
G1 X143.508 Y145.954 E0.42142
G1 X143.472 Y146.177 E0.44508
G1 X143.442 Y146.406 E0.46928
G1 X143.42 Y146.635 E0.49338
G1 X143.407 Y146.837 E0.51459
G1 X143.401 Y147.027 E0.53451
G1 X143.401 Y147.24 E0.55682
G1 X143.408 Y147.447 E0.57852
G1 X143.408 Y147.45 E0.57884
G1 X143.422 Y147.678 E0.60277
G1 X143.445 Y147.906 E0.62678
G1 X143.47 Y148.099 E0.64717
G1 X143.501 Y148.291 E0.66754
G1 X143.545 Y148.52 E0.69197
G1 X143.591 Y148.718 E0.71327
G1 X143.649 Y148.938 E0.73711
G1 X143.778 Y149.345 E0.78184
G1 X143.856 Y149.555 E0.80531
G1 X143.927 Y149.73 E0.8251
G1 X144.013 Y149.92 E0.84695
G1 X144.105 Y150.111 E0.86916
G1 X144.201 Y150.294 E0.89081
G1 X144.325 Y150.511 E0.91699
G1 X144.431 Y150.684 E0.93825
G1 X144.536 Y150.845 E0.95839
G1 X144.663 Y151.026 E0.98155
G1 X144.799 Y151.206 E1.00519
G1 X144.946 Y151.388 E1.0297
G1 X145.057 Y151.516 E1.04745
G1 X145.231 Y151.706 E1.07444
G1 X145.352 Y151.829 E1.09252
G1 X145.524 Y151.994 E1.11749
G1 X145.675 Y152.128 E1.13864
G1 X145.858 Y152.281 E1.16364
G1 X146.003 Y152.395 E1.18296
G1 X146.172 Y152.519 E1.20492
G1 X146.382 Y152.663 E1.2316
G1 X146.527 Y152.755 E1.24959
G1 X146.735 Y152.879 E1.27496
G1 X146.909 Y152.975 E1.29578
G1 X147.1 Y153.073 E1.31827
G1 X147.478 Y153.242 E1.36165
G1 X147.694 Y153.327 E1.38597
G1 X147.912 Y153.405 E1.41023
G1 X148.086 Y153.46 E1.42935
G1 X148.279 Y153.514 E1.45035
G1 X148.51 Y153.573 E1.47532
G1 X148.691 Y153.612 E1.49472
G1 X148.928 Y153.656 E1.51998
G1 X149.129 Y153.686 E1.54127
G1 X149.393 Y153.716 E1.56911
G1 X149.885 Y153.812 E1.62162
G1 X150.022 Y153.862 E1.6369
G1 X150.106 Y153.829 E1.64636
G1 X150.644 Y153.713 E1.70402
G1 X150.905 Y153.68 E1.73158
G1 X151.124 Y153.647 E1.75479
G1 X151.322 Y153.609 E1.77591
G1 X151.566 Y153.555 E1.80209
G1 X151.569 Y153.555 E1.80241
G1 X151.729 Y153.513 E1.81974
G1 X151.966 Y153.444 E1.8456
G1 X152.144 Y153.386 E1.86521
G1 X152.365 Y153.305 E1.88987
G1 X152.54 Y153.235 E1.90962
G1 X152.747 Y153.144 E1.93331
G1 X152.953 Y153.046 E1.95721
G1 X153.124 Y152.957 E1.97741
G1 X153.323 Y152.846 E2.00128
G1 X153.499 Y152.739 E2.02286
G1 X153.658 Y152.636 E2.04271
G1 X154.008 Y152.387 E2.08771
G1 X154.192 Y152.24 E2.11239
G1 X154.373 Y152.086 E2.13728
G1 X154.505 Y151.967 E2.1559
G1 X154.659 Y151.817 E2.17843
G1 X154.833 Y151.637 E2.20466
G1 X154.965 Y151.491 E2.22528
G1 X155.089 Y151.346 E2.24527
G1 X155.223 Y151.176 E2.26794
G1 X155.368 Y150.983 E2.29324
G1 X155.59 Y150.651 E2.33508
G1 X155.696 Y150.474 E2.35669
G1 X155.822 Y150.25 E2.38362
G1 X155.908 Y150.085 E2.40312
G1 X155.999 Y149.892 E2.42547
G1 X156.089 Y149.688 E2.44883
G1 X156.169 Y149.489 E2.4713
G1 X156.241 Y149.292 E2.49328
G1 X156.361 Y148.905 E2.53573
G1 X156.457 Y148.508 E2.57852
G1 X156.458 Y148.502 E2.57916
G1 X156.51 Y148.229 E2.60827
G1 X156.533 Y148.08 E2.62407
G1 X156.562 Y147.84 E2.6494
G1 X156.582 Y147.621 E2.67244
G1 X156.594 Y147.408 E2.69479
G1 X156.599 Y147.194 E2.71721
G1 X156.598 Y146.983 E2.73932
G1 X156.59 Y146.788 E2.75977
G1 X156.572 Y146.534 E2.78645
G1 X156.554 Y146.358 E2.80498
G1 X156.529 Y146.179 E2.82392
G1 X156.486 Y145.925 E2.85091
G1 X156.444 Y145.715 E2.87334
G1 X156.397 Y145.52 E2.89436
G1 X156.287 Y145.137 E2.93611
G1 X156.285 Y145.132 E2.93667
G1 X156.138 Y144.718 E2.9827
G1 X156.047 Y144.5 E3.00745
G1 X155.964 Y144.318 E3.02841
G1 X155.873 Y144.135 E3.04982
G1 X155.765 Y143.932 E3.07391
G1 X155.653 Y143.738 E3.09738
G1 X155.444 Y143.413 E3.13786
G1 X155.296 Y143.205 E3.16461
G1 X155.176 Y143.05 E3.18515
G1 X155.048 Y142.893 E3.20637
G1 X154.874 Y142.694 E3.23406
G1 X154.755 Y142.566 E3.25237
G1 X154.607 Y142.418 E3.2743
G1 X154.466 Y142.285 E3.29461
G1 X154.288 Y142.128 E3.31948
G1 X154.127 Y141.994 E3.34142
G1 X153.955 Y141.861 E3.3642
G1 X153.807 Y141.754 E3.38334
G1 X153.585 Y141.603 E3.41147
G1 X153.421 Y141.5 E3.43176
G1 X153.237 Y141.393 E3.45406
G1 X153.053 Y141.292 E3.47605
G1 X152.862 Y141.197 E3.4984
G1 X152.677 Y141.112 E3.51973
G1 X152.475 Y141.026 E3.54273
G1 X152.27 Y140.947 E3.56574
G1 X152.085 Y140.882 E3.58629
G1 X151.885 Y140.82 E3.60823
G1 X151.651 Y140.753 E3.63373
G1 X151.473 Y140.71 E3.65291
G1 X151.257 Y140.664 E3.67605
G1 X151.05 Y140.627 E3.69808
G1 X150.848 Y140.599 E3.71945
G1 X150.61 Y140.572 E3.74454
G1 X150.406 Y140.557 E3.76597
G1 X150.197 Y140.547 E3.7879
G1 X149.947 Y140.544 E3.81409
G1 X149.778 Y140.548 E3.8318
G1 X149.342 Y140.577 E3.87758
G1 X149.157 Y140.598 E3.89709
G1 X148.904 Y140.636 E3.92389
G1 X148.689 Y140.675 E3.94678
G1 X148.5 Y140.716 E3.96705
G1 X148.299 Y140.767 E3.98877
G1 X148.084 Y140.828 E4.01219
G1 X147.894 Y140.889 E4.03309
G1 X147.684 Y140.964 E4.05646
G1 X147.471 Y141.048 E4.08045
G1 X147.29 Y141.126 E4.10109
G1 X147.089 Y141.221 E4.12439
G1 X146.899 Y141.318 E4.14674
G1 X146.721 Y141.416 E4.16803
G1 X146.356 Y141.641 E4.21295
G1 X146.159 Y141.777 E4.23803
G1 X146.01 Y141.886 E4.25737
G1 X145.836 Y142.023 E4.28057
G1 X145.69 Y142.146 E4.30057
G1 X145.521 Y142.297 E4.32432
G1 X145.358 Y142.452 E4.34788
G0 F3000 X144.87 Y141.95
G1 F1200 X144.722 Y142.1 E4.36996
G1 X144.547 Y142.29 E4.39702
G1 X144.398 Y142.464 E4.42102
G1 X144.236 Y142.665 E4.44807
G1 X144.087 Y142.861 E4.47387
G1 X143.831 Y143.24 E4.52178
G1 X143.719 Y143.423 E4.54426
G1 X143.609 Y143.616 E4.56754
G1 X143.485 Y143.85 E4.59528
G1 X143.384 Y144.06 E4.6197
G1 X143.284 Y144.282 E4.64521
G1 X143.204 Y144.476 E4.66719
G1 X143.203 Y144.479 E4.66752
G1 X143.115 Y144.718 E4.69421
G1 X143.037 Y144.952 E4.72005
G1 X142.98 Y145.142 E4.74083
G1 X142.917 Y145.38 E4.76662
G1 X142.854 Y145.651 E4.79577
G1 X142.819 Y145.827 E4.81457
G1 X142.817 Y145.842 E4.81616
G1 X142.776 Y146.094 E4.84291
G1 X142.747 Y146.317 E4.86647
G1 X142.723 Y146.564 E4.89247
G1 X142.709 Y146.772 E4.91431
G1 X142.701 Y147.026 E4.94094
G1 X142.701 Y147.272 E4.96671
G1 X142.707 Y147.453 E4.98568
G1 X142.724 Y147.73 E5.01476
G1 X142.746 Y147.959 E5.03886
G1 X142.775 Y148.184 E5.06263
G1 X142.815 Y148.428 E5.08853
G1 X142.863 Y148.678 E5.1152
G1 X142.915 Y148.903 E5.1394
G1 X142.966 Y149.095 E5.16021
G1 X143.04 Y149.343 E5.18733
G1 X143.113 Y149.564 E5.21171
G1 X143.205 Y149.81 E5.23923
G1 X143.295 Y150.031 E5.26423
G1 X143.37 Y150.198 E5.28341
G1 X143.49 Y150.445 E5.31218
G1 X143.601 Y150.656 E5.33716
G1 X143.713 Y150.853 E5.3609
G1 X143.831 Y151.046 E5.3846
G1 X143.961 Y151.244 E5.40942
G1 X143.963 Y151.247 E5.40979
G1 X144.105 Y151.449 E5.43566
G1 X144.24 Y151.628 E5.45915
G1 X144.396 Y151.822 E5.48523
G1 X144.54 Y151.988 E5.50826
G1 X144.71 Y152.174 E5.53466
G1 X144.88 Y152.347 E5.56007
G1 X145.053 Y152.512 E5.58512
G1 X145.207 Y152.65 E5.60678
G1 X145.417 Y152.825 E5.63542
G1 X145.568 Y152.944 E5.65556
G1 X145.788 Y153.105 E5.68413
G1 X145.983 Y153.239 E5.70891
G1 X146.153 Y153.347 E5.73002
G1 X146.366 Y153.474 E5.756
G1 X146.602 Y153.604 E5.78423
G1 X146.778 Y153.694 E5.80494
G1 X147.211 Y153.89 E5.85473
G1 X147.427 Y153.974 E5.87901
G1 X147.694 Y154.07 E5.90874
G1 X147.875 Y154.127 E5.92862
G1 X148.118 Y154.196 E5.95509
G1 X148.351 Y154.255 E5.98027
G1 X148.554 Y154.299 E6.00203
G1 X148.568 Y154.301 E6.00351
G1 X148.804 Y154.345 E6.02866
G1 X149.042 Y154.38 E6.05387
G1 X149.313 Y154.411 E6.08244
G1 X149.746 Y154.501 E6.12878
G1 X150.028 Y154.615 E6.16065
G1 X150.289 Y154.505 E6.19032
G1 X150.73 Y154.408 E6.23763
G1 X150.989 Y154.376 E6.26497
G1 X151 Y154.374 E6.26614
G1 X151.233 Y154.339 E6.29083
G1 X151.5 Y154.288 E6.31931
G1 X151.707 Y154.241 E6.34155
G1 X151.935 Y154.182 E6.36622
G1 X152.167 Y154.114 E6.39155
G1 X152.363 Y154.051 E6.41312
G1 X152.622 Y153.956 E6.44202
G1 X152.829 Y153.873 E6.46539
G1 X153.254 Y153.678 E6.51438
G1 X153.474 Y153.564 E6.54034
G1 X153.664 Y153.458 E6.56313
G1 X153.872 Y153.332 E6.58861
G1 X154.056 Y153.212 E6.61163
G1 X154.274 Y153.061 E6.63941
G1 X154.436 Y152.941 E6.66053
G1 X154.624 Y152.791 E6.68573
G1 X154.819 Y152.625 E6.71256
G1 X155.009 Y152.454 E6.73934
G1 X155.158 Y152.309 E6.76112
G1 X155.348 Y152.112 E6.7898
G1 X155.355 Y152.105 E6.79083
G1 X155.464 Y151.985 E6.80782
G1 X155.645 Y151.771 E6.83718
G1 X155.776 Y151.607 E6.85918
G1 X155.939 Y151.388 E6.88778
G1 X156.064 Y151.207 E6.91082
G1 X156.186 Y151.018 E6.93439
G1 X156.303 Y150.824 E6.95813
G1 X156.445 Y150.571 E6.98852
G1 X156.536 Y150.395 E7.00928
G1 X156.629 Y150.198 E7.03211
G1 X156.732 Y149.963 E7.05899
G1 X156.826 Y149.73 E7.08531
G1 X156.909 Y149.502 E7.11073
G1 X156.968 Y149.319 E7.13088
G1 X157.036 Y149.086 E7.15631
G1 X157.096 Y148.852 E7.18162
G1 X157.145 Y148.639 E7.20451
G1 X157.193 Y148.388 E7.23129
G1 X157.23 Y148.149 E7.25663
G1 X157.257 Y147.931 E7.27964
G1 X157.28 Y147.677 E7.30636
G1 X157.294 Y147.429 E7.33238
G1 X157.299 Y147.204 E7.35596
G1 X157.298 Y146.981 E7.37933
G1 X157.288 Y146.744 E7.40418
G1 X157.269 Y146.475 E7.43243
G1 X157.248 Y146.272 E7.45381
G1 X157.213 Y146.024 E7.48005
G1 X157.18 Y145.827 E7.50098
G1 X157.177 Y145.815 E7.50228
G1 X157.12 Y145.531 E7.53263
G1 X157.078 Y145.358 E7.55128
G1 X157.004 Y145.087 E7.58071
G1 X156.95 Y144.911 E7.6
G1 X156.948 Y144.906 E7.60056
G1 X156.868 Y144.671 E7.62657
G1 X156.787 Y144.456 E7.65064
G1 X156.683 Y144.208 E7.67882
G1 X156.601 Y144.028 E7.69954
G1 X156.489 Y143.801 E7.72606
G1 X156.379 Y143.595 E7.75053
G1 X156.252 Y143.376 E7.77705
G1 X156.137 Y143.191 E7.79987
G1 X156.005 Y142.993 E7.8248
G1 X155.864 Y142.795 E7.85027
G1 X155.575 Y142.43 E7.89905
G1 X155.425 Y142.259 E7.92288
G1 X155.255 Y142.076 E7.94905
G1 X155.099 Y141.92 E7.97216
G1 X154.929 Y141.76 E7.99662
G1 X154.745 Y141.598 E8.0223
G1 X154.581 Y141.461 E8.04469
G1 X154.359 Y141.289 E8.07412
G1 X154.186 Y141.164 E8.09648
G1 X154.004 Y141.04 E8.11955
G1 X153.774 Y140.895 E8.14804
G1 X153.583 Y140.784 E8.17118
G1 X153.373 Y140.669 E8.19626
G1 X153.197 Y140.581 E8.21688
G1 X152.956 Y140.47 E8.24468
G1 X152.714 Y140.367 E8.27223
G1 X152.515 Y140.29 E8.29459
G1 X152.312 Y140.22 E8.31709
G1 X152.073 Y140.145 E8.34333
G1 X151.847 Y140.081 E8.36794
G1 X151.618 Y140.026 E8.39261
G1 X151.389 Y139.977 E8.41715
G1 X151.155 Y139.935 E8.44206
G1 X150.92 Y139.902 E8.46692
G1 X150.685 Y139.876 E8.49169
G1 X150.458 Y139.859 E8.51554
G1 X150.205 Y139.847 E8.54208
G1 X149.942 Y139.844 E8.56963
G1 X149.761 Y139.848 E8.5886
G1 X149.272 Y139.881 E8.63995
G1 X149.038 Y139.907 E8.66462
G1 X148.818 Y139.94 E8.68792
G1 X148.546 Y139.99 E8.7169
G1 X148.337 Y140.036 E8.73932
G1 X148.121 Y140.09 E8.76265
G1 X147.872 Y140.161 E8.78977
G1 X147.658 Y140.229 E8.8133
G1 X147.446 Y140.305 E8.83689
G1 X147.209 Y140.399 E8.86361
G1 X147.183 Y140.409 E8.86652
G1 X147.015 Y140.482 E8.88572
G1 X146.795 Y140.586 E8.91121
G1 X146.556 Y140.707 E8.93928
G1 X146.363 Y140.814 E8.9624
G1 X146.177 Y140.926 E8.98514
G1 X145.959 Y141.064 E9.01218
G1 X145.768 Y141.196 E9.0365
G1 X145.578 Y141.335 E9.06116
G1 X145.402 Y141.474 E9.08466
G1 X145.234 Y141.615 E9.10764
G1 X145.031 Y141.796 E9.13613
G1 X144.87 Y141.95 E9.15948
G0 F3000 X144.357 Y141.472
G1 F1200 X144.211 Y141.62 E9.18126
G1 X144.207 Y141.626 E9.18201
G1 X144.003 Y141.848 E9.2136
G1 X143.856 Y142.019 E9.23723
G1 X143.69 Y142.226 E9.26503
G1 X143.525 Y142.444 E9.29367
G1 X143.249 Y142.849 E9.34502
G1 X143.11 Y143.079 E9.37317
G1 X142.976 Y143.314 E9.40152
G1 X142.859 Y143.537 E9.4279
G1 X142.752 Y143.758 E9.45362
G1 X142.644 Y143.998 E9.4812
G1 X142.549 Y144.227 E9.50717
G1 X142.546 Y144.237 E9.50827
G1 X142.449 Y144.5 E9.53764
G1 X142.374 Y144.728 E9.56278
G1 X142.302 Y144.966 E9.58883
G1 X142.238 Y145.21 E9.61526
G1 X142.168 Y145.51 E9.64754
G1 X142.126 Y145.723 E9.67028
G1 X142.126 Y145.729 E9.67091
G1 X142.085 Y145.979 E9.69745
G1 X142.048 Y146.27 E9.72819
G1 X142.026 Y146.493 E9.75166
G1 X142.008 Y146.785 E9.78231
G1 X142.001 Y147.011 E9.806
G1 X142.001 Y147.271 E9.83324
G1 X142.01 Y147.52 E9.85935
G1 X142.025 Y147.77 E9.88559
G1 X142.054 Y148.069 E9.91706
G1 X142.082 Y148.284 E9.93978
G1 X142.125 Y148.547 E9.9677
G1 X142.18 Y148.831 E9.998
G1 X142.233 Y149.061 E10.02273
G1 X142.298 Y149.306 E10.04929
G1 X142.377 Y149.568 E10.07796
G1 X142.454 Y149.801 E10.10367
G1 X142.552 Y150.064 E10.13307
G1 X142.641 Y150.282 E10.15774
G1 X142.747 Y150.519 E10.18494
G1 X142.868 Y150.767 E10.21386
G1 X142.972 Y150.965 E10.23729
G1 X143.111 Y151.209 E10.26671
G1 X143.256 Y151.446 E10.29582
G1 X143.377 Y151.631 E10.31898
G1 X143.391 Y151.65 E10.32145
G1 X143.548 Y151.873 E10.35002
G1 X143.679 Y152.047 E10.37284
G1 X143.862 Y152.274 E10.40339
G1 X144.033 Y152.472 E10.4308
G1 X144.198 Y152.652 E10.45638
G1 X144.375 Y152.833 E10.48291
G1 X144.566 Y153.015 E10.51055
G1 X144.76 Y153.188 E10.53778
G1 X144.969 Y153.363 E10.56634
G1 X145.151 Y153.506 E10.59059
G1 X145.383 Y153.676 E10.62072
G1 X145.583 Y153.813 E10.64612
G1 X145.801 Y153.952 E10.67321
G1 X146.028 Y154.087 E10.70088
G1 X146.246 Y154.208 E10.727
G1 X146.488 Y154.332 E10.75549
G1 X146.739 Y154.448 E10.78446
G1 X146.94 Y154.535 E10.80741
G1 X147.186 Y154.631 E10.83507
G1 X147.459 Y154.729 E10.86546
G1 X147.461 Y154.73 E10.8657
G1 X147.664 Y154.795 E10.88803
G1 X147.957 Y154.878 E10.91993
G1 X148.192 Y154.937 E10.94532
G1 X148.426 Y154.988 E10.97041
G1 X148.441 Y154.989 E10.97198
G1 X148.712 Y155.039 E11.00086
G1 X148.923 Y155.07 E11.0232
G1 X149.233 Y155.106 E11.0559
G1 X149.597 Y155.189 E11.09501
G1 X149.936 Y155.346 E11.13415
G1 X150.03 Y155.417 E11.14649
G1 X150.187 Y155.307 E11.16658
G1 X150.532 Y155.162 E11.20579
G1 X150.817 Y155.102 E11.2363
G1 X151.106 Y155.066 E11.26681
G1 X151.359 Y155.028 E11.29362
G1 X151.621 Y154.977 E11.32158
G1 X151.87 Y154.922 E11.3483
G1 X151.877 Y154.921 E11.34904
G1 X152.092 Y154.865 E11.37232
G1 X152.377 Y154.782 E11.40342
G1 X152.608 Y154.706 E11.42889
G1 X152.862 Y154.614 E11.4572
G1 X153.086 Y154.524 E11.48249
G1 X153.319 Y154.421 E11.50918
G1 X153.572 Y154.302 E11.53847
G1 X153.799 Y154.184 E11.56528
G1 X154.025 Y154.058 E11.59238
G1 X154.219 Y153.94 E11.61617
G1 X154.461 Y153.783 E11.6464
G1 X154.693 Y153.622 E11.67598
G1 X154.861 Y153.497 E11.69792
G1 X155.099 Y153.307 E11.72983
G1 X155.26 Y153.17 E11.75198
G1 X155.476 Y152.975 E11.78246
G1 X155.674 Y152.783 E11.81136
G1 X155.852 Y152.598 E11.83826
G1 X156.027 Y152.405 E11.86555
G1 X156.175 Y152.231 E11.88949
G1 X156.331 Y152.034 E11.91581
G1 X156.509 Y151.795 E11.94703
G1 X156.517 Y151.784 E11.94846
G1 X156.632 Y151.617 E11.9697
G1 X156.773 Y151.4 E11.99682
G1 X156.926 Y151.145 E12.02797
G1 X157.037 Y150.947 E12.05175
G1 X157.157 Y150.718 E12.07884
G1 X157.279 Y150.46 E12.10874
G1 X157.375 Y150.243 E12.1336
G1 X157.472 Y150 E12.16101
G1 X157.567 Y149.742 E12.18982
G1 X157.642 Y149.511 E12.21526
G1 X157.715 Y149.261 E12.24255
G1 X157.778 Y149.013 E12.26936
G1 X157.832 Y148.779 E12.29452
G1 X157.833 Y148.766 E12.29588
G1 X157.888 Y148.479 E12.3265
G1 X157.922 Y148.258 E12.34993
G1 X157.953 Y148.002 E12.37694
