;FLAVOR:Marlin
;TIME:1425
;Filament used: 3.42541m
;Layer height: 0.4
;MINX:129.202
;MINY:125.331
;MINZ:0.4
;MAXX:170.8
;MAXY:166.931
;MAXZ:36.4
;Generated with Cura_SteamEngine 4.6.0
M140 S80
M105
M190 S80
M104 S250
M105
M109 S250
M82 ;absolute extrusion mode
G28 ; home all axes
 M117 Purge extruder
 G92 E0 ; reset extruder
 G1 Z1.0 F3000 ; move z up little to prevent scratching of surface
 G1 X2 Y20 Z0.3 F5000.0 ; move to start-line position
 G1 X2 Y200.0 Z0.3 F1500.0 E15 ; draw 1st line
 G1 X2 Y200.0 Z0.4 F5000.0 ; move to side a little
 G1 X2 Y20 Z0.4 F1500.0 E30 ; draw 2nd line
 G92 E0 ; reset extruder
 G1 Z1.0 F3000 ; move z up little to prevent scratching of surface
G92 E0
G92 E0
G1 F1500 E-2
;LAYER_COUNT:91
;LAYER:0
M107
G0 F900 X160.801 Y160.277 Z0.4
;TYPE:SKIRT
G1 F1500 E0
G1 F1200 X160.355 Y160.611 E0.09831
G1 X159.945 Y160.895 E0.1863
G1 X159.363 Y161.267 E0.30816
G1 X158.742 Y161.635 E0.43552
G1 X158.065 Y161.999 E0.57113
G1 X157.589 Y162.232 E0.66463
G1 X156.907 Y162.535 E0.7963
G1 X156.468 Y162.715 E0.88001
G1 X155.677 Y163.002 E1.02846
G1 X155.19 Y163.157 E1.11863
G1 X154.428 Y163.372 E1.25832
G1 X153.946 Y163.488 E1.34579
G1 X153.161 Y163.648 E1.48713
G1 X152.9 Y163.694 E1.53389
G1 X152.889 Y163.697 E1.5359
G1 X152.722 Y163.723 E1.56572
G1 X151.892 Y163.831 E1.71339
G1 X151.607 Y163.86 E1.76393
G1 X151.581 Y163.863 E1.76855
G1 X151.436 Y163.874 E1.7942
G1 X150.597 Y163.921 E1.94246
G1 X150.097 Y163.932 E2.03069
G1 X149.145 Y163.91 E2.1987
G1 X148.597 Y163.874 E2.29559
G1 X148.061 Y163.827 E2.39052
G1 X147.539 Y163.762 E2.48332
G1 X146.891 Y163.656 E2.59917
G1 X146.16 Y163.512 E2.73062
G1 X145.609 Y163.382 E2.8305
G1 X145.611 Y163.373 E2.83212
G1 X145.463 Y163.346 E2.85867
G1 X144.916 Y163.189 E2.95907
G1 X144.256 Y162.979 E3.08126
G1 X144.153 Y162.937 E3.10089
G1 X144.151 Y162.943 E3.10201
G1 X143.656 Y162.761 E3.19505
G1 X142.985 Y162.49 E3.32273
G1 X142.578 Y162.311 E3.40117
G1 X141.82 Y161.94 E3.55006
G1 X141.352 Y161.689 E3.64376
G1 X140.666 Y161.286 E3.78413
G1 X140.344 Y161.086 E3.851
G1 X140.258 Y161.029 E3.86921
G1 X139.602 Y160.579 E4.00956
G1 X139.199 Y160.28 E4.09809
G1 X138.565 Y159.773 E4.24131
G1 X138.249 Y159.503 E4.31464
G1 X137.866 Y159.149 E4.40666
G1 X137.01 Y158.298 E4.61961
G1 X136.841 Y158.12 E4.66292
G1 X136.69 Y157.951 E4.7029
G1 X136.201 Y157.371 E4.83675
G1 X135.906 Y157.004 E4.91982
G1 X135.622 Y156.628 E5.00295
G1 X135.147 Y155.943 E5.15002
G1 X134.892 Y155.548 E5.23297
G1 X134.542 Y154.956 E5.3543
G1 X134.2 Y154.332 E5.47985
G1 X133.933 Y153.789 E5.5866
G1 X133.632 Y153.123 E5.71555
G1 X133.349 Y152.42 E5.84925
G1 X133.172 Y151.935 E5.94034
G1 X132.939 Y151.206 E6.07536
G1 X132.776 Y150.619 E6.18284
G1 X132.718 Y150.379 E6.2264
G1 X132.699 Y150.265 E6.2468
G1 X132.694 Y150.266 E6.24769
G1 X132.442 Y149.04 E6.46852
G1 X132.385 Y148.693 E6.53056
G1 X132.319 Y148.184 E6.62111
G1 X132.243 Y147.367 E6.76588
G1 X132.217 Y146.93 E6.84311
G1 X132.201 Y146.115 E6.98693
G1 X132.219 Y145.364 E7.11947
G1 X132.25 Y144.796 E7.21983
G1 X132.302 Y144.238 E7.3187
G1 X132.389 Y143.536 E7.4435
G1 X132.482 Y142.973 E7.54417
G1 X132.605 Y142.355 E7.65535
G1 X132.61 Y142.356 E7.65625
G1 X132.629 Y142.24 E7.67698
G1 X132.727 Y141.826 E7.75204
G1 X132.753 Y141.724 E7.77062
G1 X132.869 Y141.309 E7.84664
G1 X133.193 Y140.279 E8.03714
G1 X133.405 Y139.697 E8.14642
G1 X133.584 Y139.25 E8.23137
G1 X133.919 Y138.503 E8.37581
G1 X134.083 Y138.162 E8.44257
G1 X134.127 Y138.075 E8.45977
G1 X134.512 Y137.358 E8.60335
G1 X134.655 Y137.109 E8.65401
G1 X134.769 Y136.918 E8.69326
G1 X135.184 Y136.267 E8.82946
G1 X135.448 Y135.88 E8.91211
G1 X135.943 Y135.213 E9.05866
G1 X136.26 Y134.816 E9.14829
G1 X136.758 Y134.237 E9.28303
G1 X137.104 Y133.863 E9.37292
G1 X137.355 Y133.61 E9.4358
G1 X137.447 Y133.531 E9.45719
G1 X137.442 Y133.526 E9.45844
G1 X138.367 Y132.661 E9.68187
G1 X138.718 Y132.363 E9.76311
G1 X139.202 Y131.985 E9.87145
G1 X139.653 Y131.646 E9.97099
G1 X140.072 Y131.357 E10.0608
G1 X140.638 Y130.995 E10.17933
G1 X141.267 Y130.623 E10.30826
G1 X141.935 Y130.264 E10.44206
G1 X142.414 Y130.031 E10.53603
G1 X143.136 Y129.711 E10.67537
G1 X143.578 Y129.531 E10.75957
G1 X144.322 Y129.262 E10.89914
G1 X144.81 Y129.107 E10.98948
G1 X145.562 Y128.895 E11.12733
G1 X146.053 Y128.776 E11.21646
G1 X146.738 Y128.634 E11.33988
G1 X146.842 Y128.621 E11.35837
G1 X146.841 Y128.615 E11.35945
G1 X147.308 Y128.536 E11.44301
G1 X148.069 Y128.437 E11.5784
G1 X148.601 Y128.387 E11.67268
G1 X149.403 Y128.342 E11.8144
G1 X149.896 Y128.331 E11.9014
G1 X150.855 Y128.353 E12.07064
G1 X151.403 Y128.389 E12.16753
G1 X151.935 Y128.436 E12.26175
G1 X152.509 Y128.509 E12.36384
G1 X153.137 Y128.612 E12.47612
G1 X153.676 Y128.715 E12.57293
G1 X153.675 Y128.722 E12.57418
G1 X153.834 Y128.748 E12.6026
G1 X154.762 Y128.98 E12.77137
G1 X155.085 Y129.075 E12.83077
G1 X155.855 Y129.323 E12.97349
G1 X156.344 Y129.503 E13.06542
G1 X157.017 Y129.776 E13.19356
G1 X157.348 Y129.92 E13.25724
G1 X157.481 Y129.99 E13.28376
G1 X157.485 Y129.983 E13.28518
G1 X158.188 Y130.327 E13.42326
G1 X158.661 Y130.582 E13.51807
G1 X159.05 Y130.812 E13.5978
G1 X160.065 Y131.456 E13.80987
G1 X160.407 Y131.691 E13.88308
G1 X160.696 Y131.902 E13.94622
G1 X160.782 Y131.968 E13.96534
G1 X161.434 Y132.488 E14.11248
G1 X161.81 Y132.813 E14.20016
G1 X162.387 Y133.349 E14.33911
G1 X162.794 Y133.758 E14.44091
G1 X163.168 Y134.154 E14.53701
G1 X163.309 Y134.313 E14.5745
G1 X163.474 Y134.511 E14.61997
G1 X163.779 Y134.868 E14.70281
G1 X164.081 Y135.241 E14.78749
G1 X164.399 Y135.665 E14.88099
G1 X164.833 Y136.291 E15.01538
G1 X165.135 Y136.761 E15.11395
G1 X165.442 Y137.282 E15.22064
G1 X165.799 Y137.933 E15.35163
G1 X166.107 Y138.555 E15.47408
G1 X166.366 Y139.134 E15.58599
G1 X166.623 Y139.768 E15.70669
G1 X166.651 Y139.856 E15.72298
G1 X166.655 Y139.854 E15.72377
G1 X166.778 Y140.183 E15.78574
G1 X166.818 Y140.301 E15.80772
G1 X167.062 Y141.062 E15.94871
G1 X167.218 Y141.623 E16.05145
G1 X167.308 Y142.005 E16.12069
G1 X167.555 Y143.207 E16.33719
G1 X167.616 Y143.579 E16.40369
G1 X167.652 Y143.837 E16.44965
G1 X167.678 Y144.05 E16.48751
G1 X167.752 Y144.843 E16.62803
G1 X167.779 Y145.263 E16.70228
G1 X167.784 Y145.387 E16.72417
G1 X167.8 Y146.144 E16.85776
G1 X167.792 Y146.681 E16.95251
G1 X167.732 Y147.695 E17.13172
G1 X167.691 Y148.089 E17.20161
G1 X167.615 Y148.696 E17.30954
G1 X167.525 Y149.256 E17.40961
G1 X167.404 Y149.866 E17.51933
G1 X167.399 Y149.865 E17.52023
G1 X167.381 Y149.977 E17.54024
G1 X167.272 Y150.443 E17.62467
G1 X167.25 Y150.529 E17.64034
G1 X167.13 Y150.955 E17.71842
G1 X166.811 Y151.973 E17.90663
G1 X166.595 Y152.567 E18.01815
G1 X166.487 Y152.842 E18.07027
G1 X166.405 Y153.039 E18.10792
G1 X166.095 Y153.73 E18.24154
G1 X165.878 Y154.178 E18.32936
G1 X165.491 Y154.9 E18.47389
G1 X165.211 Y155.376 E18.57132
G1 X164.834 Y155.969 E18.6953
G1 X164.544 Y156.395 E18.78622
G1 X164.052 Y157.057 E18.93174
G1 X163.742 Y157.445 E19.01936
G1 X163.236 Y158.033 E19.15622
G1 X163.055 Y158.231 E19.20355
G1 X162.865 Y158.433 E19.25247
G1 X162.484 Y158.813 E19.34741
G1 X161.798 Y159.456 E19.5133
G1 X161.408 Y159.796 E19.60458
G1 X161.259 Y159.919 E19.63867
G1 X160.801 Y160.277 E19.74123
G0 F900 X151.681 Y164.858
G1 F1200 X151.494 Y164.872 E19.77431
G1 X150.627 Y164.921 E19.92752
G1 X150.084 Y164.932 E20.02334
G1 X149.079 Y164.908 E20.2007
G1 X148.511 Y164.87 E20.30114
G1 X147.948 Y164.82 E20.40086
G1 X147.38 Y164.749 E20.50185
G1 X146.703 Y164.638 E20.62289
G1 X145.931 Y164.486 E20.7617
G1 X145.38 Y164.356 E20.86158
G1 X145.381 Y164.35 E20.86266
G1 X145.191 Y164.308 E20.89699
G1 X144.613 Y164.142 E21.00309
G1 X143.953 Y163.932 E21.12528
G1 X143.82 Y163.88 E21.15048
G1 X143.818 Y163.886 E21.15159
G1 X143.281 Y163.689 E21.25251
G1 X142.587 Y163.407 E21.38467
G1 X142.152 Y163.216 E21.46849
G1 X142.057 Y163.171 E21.48704
G1 X141.355 Y162.825 E21.62511
G1 X140.848 Y162.552 E21.72671
G1 X140.139 Y162.137 E21.87165
G1 X139.796 Y161.922 E21.94307
G1 X139.694 Y161.854 E21.9647
G1 X139.015 Y161.388 E22.10999
G1 X138.576 Y161.063 E22.20636
G1 X137.919 Y160.537 E22.35484
G1 X137.574 Y160.241 E22.43504
G1 X137.162 Y159.859 E22.53417
G1 X136.285 Y158.986 E22.75249
G1 X136.116 Y158.808 E22.79579
G1 X135.922 Y158.591 E22.84715
G1 X135.698 Y158.322 E22.90891
G1 X135.424 Y158.001 E22.98336
G1 X135.111 Y157.611 E23.07159
G1 X134.802 Y157.2 E23.16231
G1 X134.31 Y156.491 E23.31457
G1 X134.032 Y156.059 E23.4052
G1 X133.667 Y155.44 E23.53198
G1 X133.305 Y154.776 E23.66541
G1 X133.023 Y154.205 E23.77777
G1 X132.705 Y153.498 E23.91454
G1 X132.411 Y152.767 E24.05355
G1 X132.298 Y152.462 E24.11093
G1 X132.299 Y152.462 E24.11111
G1 X132.22 Y152.242 E24.15235
G1 X131.979 Y151.486 E24.29234
G1 X131.804 Y150.854 E24.40804
G1 X131.746 Y150.614 E24.4516
G1 X131.721 Y150.468 E24.47774
G1 X131.714 Y150.469 E24.47898
G1 X131.456 Y149.205 E24.70659
G1 X131.395 Y148.834 E24.77292
G1 X131.323 Y148.278 E24.87183
G1 X131.245 Y147.433 E25.02155
G1 X131.218 Y146.965 E25.10426
G1 X131.216 Y146.917 E25.11273
G1 X131.201 Y146.301 E25.22144
G1 X131.201 Y146.093 E25.25814
G1 X131.22 Y145.311 E25.39615
G1 X131.253 Y144.716 E25.50128
G1 X131.309 Y144.117 E25.60743
G1 X131.4 Y143.387 E25.73722
G1 X131.502 Y142.778 E25.84616
G1 X131.625 Y142.16 E25.95733
G1 X131.626 Y142.16 E25.9575
G1 X131.656 Y142.012 E25.98415
G1 X131.756 Y141.584 E26.06169
G1 X131.914 Y141.012 E26.16639
G1 X132.252 Y139.94 E26.3647
G1 X132.474 Y139.331 E26.47906
G1 X132.688 Y138.803 E26.57957
G1 X133.017 Y138.07 E26.72132
G1 X133.188 Y137.715 E26.79084
G1 X133.245 Y137.604 E26.81286
G1 X133.645 Y136.86 E26.96189
G1 X133.925 Y136.383 E27.05947
G1 X134.354 Y135.71 E27.20028
G1 X134.644 Y135.286 E27.29091
G1 X135.156 Y134.596 E27.4425
G1 X135.436 Y134.242 E27.52213
G1 X135.5 Y134.166 E27.53966
G1 X136.018 Y133.565 E27.67964
G1 X136.394 Y133.159 E27.77727
G1 X136.645 Y132.906 E27.84015
G1 X136.762 Y132.803 E27.86765
G1 X136.757 Y132.798 E27.8689
G1 X137.711 Y131.906 E28.09932
G1 X137.939 Y131.709 E28.15248
G1 X138.102 Y131.575 E28.18971
G1 X138.6 Y131.186 E28.3012
G1 X139.075 Y130.83 E28.40593
G1 X139.53 Y130.516 E28.50346
G1 X140.126 Y130.136 E28.62817
G1 X140.79 Y129.744 E28.76421
G1 X141.488 Y129.369 E28.904
G1 X142.007 Y129.117 E29.00579
G1 X142.751 Y128.788 E29.14932
G1 X143.149 Y128.624 E29.22526
G1 X144.009 Y128.312 E29.38667
G1 X144.537 Y128.144 E29.48442
G1 X145.314 Y127.926 E29.6268
G1 X145.85 Y127.797 E29.72407
G1 X146.535 Y127.655 E29.84749
G1 X146.669 Y127.636 E29.87137
G1 X146.668 Y127.63 E29.87244
G1 X147.177 Y127.545 E29.96349
G1 X147.966 Y127.442 E30.10387
G1 X148.542 Y127.389 E30.20592
G1 X149.373 Y127.342 E30.35277
G1 X149.908 Y127.331 E30.44718
G1 X150.921 Y127.355 E30.62595
G1 X151.489 Y127.393 E30.72639
G1 X152.047 Y127.442 E30.82521
G1 X152.668 Y127.522 E30.93568
G1 X153.325 Y127.63 E31.05315
G1 X153.864 Y127.733 E31.14996
G1 X153.864 Y127.735 E31.15032
G1 X154.067 Y127.776 E31.18686
G1 X155.042 Y128.02 E31.36418
G1 X155.389 Y128.123 E31.42804
G1 X156.189 Y128.38 E31.57629
G1 X156.719 Y128.575 E31.67592
G1 X157.416 Y128.859 E31.80871
G1 X157.747 Y129.003 E31.87239
G1 X157.919 Y129.092 E31.90656
G1 X157.923 Y129.084 E31.90814
G1 X158.65 Y129.44 E32.05095
G1 X159.167 Y129.719 E32.1546
G1 X159.584 Y129.967 E32.2402
G1 X160.629 Y130.63 E32.45854
G1 X160.995 Y130.882 E32.53694
G1 X161.304 Y131.107 E32.60438
G1 X161.404 Y131.185 E32.62675
G1 X162.079 Y131.725 E32.77926
G1 X162.488 Y132.078 E32.87458
G1 X163.094 Y132.642 E33.02064
G1 X163.521 Y133.071 E33.12743
G1 X163.895 Y133.467 E33.22353
G1 X164.076 Y133.672 E33.27177
G1 X164.555 Y134.237 E33.40246
G1 X164.874 Y134.633 E33.49217
G1 X165.22 Y135.094 E33.59387
G1 X165.668 Y135.741 E33.73271
G1 X165.996 Y136.251 E33.83969
G1 X166.317 Y136.797 E33.95143
G1 X166.694 Y137.487 E34.09016
G1 X167.015 Y138.136 E34.2179
G1 X167.292 Y138.758 E34.33803
G1 X167.549 Y139.392 E34.45872
G1 X167.586 Y139.505 E34.4797
G1 X167.591 Y139.503 E34.48065
G1 X167.721 Y139.852 E34.54636
G1 X167.769 Y139.993 E34.57264
G1 X168.023 Y140.783 E34.71904
G1 X168.191 Y141.39 E34.83016
G1 X168.287 Y141.802 E34.90479
G1 X168.541 Y143.041 E35.12794
G1 X168.607 Y143.441 E35.19946
G1 X168.643 Y143.699 E35.24542
G1 X168.674 Y143.955 E35.29092
G1 X168.75 Y144.777 E35.43656
G1 X168.778 Y145.218 E35.51452
G1 X168.784 Y145.365 E35.54048
G1 X168.8 Y146.148 E35.67865
G1 X168.791 Y146.73 E35.78134
G1 X168.727 Y147.795 E35.96958
G1 X168.684 Y148.212 E36.04354
G1 X168.604 Y148.845 E36.15611
G1 X168.506 Y149.451 E36.26441
G1 X168.385 Y150.061 E36.37413
G1 X168.374 Y150.059 E36.3761
G1 X168.355 Y150.203 E36.40173
G1 X168.243 Y150.685 E36.48903
G1 X168.085 Y151.252 E36.59288
G1 X167.751 Y152.312 E36.78896
G1 X167.526 Y152.933 E36.90549
G1 X167.318 Y153.446 E37.00315
G1 X166.998 Y154.16 E37.1412
G1 X166.761 Y154.649 E37.23707
G1 X166.359 Y155.397 E37.38689
G1 X166.056 Y155.911 E37.49216
G1 X165.664 Y156.526 E37.62083
G1 X165.348 Y156.989 E37.71972
G1 X164.836 Y157.678 E37.87117
G1 X164.502 Y158.094 E37.96529
G1 X163.974 Y158.708 E38.10817
G1 X163.573 Y159.139 E38.21203
G1 X163.17 Y159.54 E38.31233
G1 X162.455 Y160.211 E38.48533
G1 X162.101 Y160.519 E38.56811
G1 X161.874 Y160.708 E38.62023
G1 X161.539 Y160.969 E38.69515
G1 X161.402 Y161.077 E38.72593
G1 X160.934 Y161.427 E38.82903
G1 X160.486 Y161.737 E38.92515
G1 X159.877 Y162.126 E39.05264
G1 X159.389 Y162.418 E39.15298
G1 X159.217 Y162.515 E39.18782
G1 X158.513 Y162.893 E39.32879
G1 X157.997 Y163.145 E39.43011
G1 X157.293 Y163.458 E39.56604
G1 X156.811 Y163.655 E39.6579
G1 X155.99 Y163.952 E39.81194
G1 X155.463 Y164.12 E39.90952
G1 X154.673 Y164.341 E40.05425
G1 X154.149 Y164.467 E40.14934
G1 X153.335 Y164.633 E40.29591
G1 X152.854 Y164.714 E40.38196
G1 X152.129 Y164.81 E40.51099
G1 X151.681 Y164.858 E40.59048
G1 F1500 E38.59048
G0 F900 X141.272 Y158.299
G0 X140.413 Y157.634
G0 X138.848 Y156.128
G0 X137.523 Y154.415
G0 X136.904 Y153.393
G0 X136.413 Y152.422
G0 X135.998 Y151.441
G0 X135.65 Y150.413
G0 X135.182 Y148.295
G0 X135.02 Y146.305
G0 X135.077 Y144.932
G0 X135.32 Y143.291
G0 X138.497 Y130.014
G1 F1500 E40.59048
G1 F1200 X138.989 Y129.676 E40.6958
G1 X139.613 Y129.277 E40.82647
G1 X140.314 Y128.864 E40.97001
G1 X141.04 Y128.475 E41.11533
G1 X141.601 Y128.203 E41.22533
G1 X142.366 Y127.865 E41.37288
G1 X142.796 Y127.689 E41.45485
G1 X142.892 Y127.653 E41.47294
G1 X143.696 Y127.362 E41.6238
G1 X144.265 Y127.182 E41.72909
G1 X145.066 Y126.957 E41.87588
G1 X145.647 Y126.817 E41.98131
G1 X146.332 Y126.675 E42.10474
G1 X146.495 Y126.651 E42.1338
G1 X146.494 Y126.645 E42.13488
G1 X146.828 Y126.587 E42.19469
G1 X147.045 Y126.554 E42.23341
G1 X147.862 Y126.448 E42.37876
G1 X148.484 Y126.39 E42.48898
G1 X149.343 Y126.342 E42.64076
G1 X149.921 Y126.331 E42.74276
G1 X150.987 Y126.357 E42.93089
G1 X151.386 Y126.383 E43.00143
G1 X151.575 Y126.396 E43.03486
G1 X152.159 Y126.448 E43.1383
G1 X152.828 Y126.535 E43.25732
G1 X153.512 Y126.648 E43.37963
G1 X154.051 Y126.751 E43.47645
G1 X154.05 Y126.758 E43.4777
G1 X154.3 Y126.803 E43.52251
G1 X155.322 Y127.06 E43.70844
G1 X155.692 Y127.17 E43.77654
G1 X156.524 Y127.438 E43.93076
G1 X157.093 Y127.648 E44.03776
G1 X157.815 Y127.942 E44.1753
G1 X158.146 Y128.086 E44.23898
G1 X158.357 Y128.193 E44.28072
G1 X158.361 Y128.185 E44.2823
G1 X159.112 Y128.553 E44.42985
G1 X159.673 Y128.857 E44.54243
G1 X160.118 Y129.121 E44.63371
G1 X161.192 Y129.803 E44.85817
G1 X161.582 Y130.072 E44.94176
G1 X161.911 Y130.313 E45.01371
G1 X162.026 Y130.402 E45.03937
G1 X162.725 Y130.961 E45.19728
G1 X163.165 Y131.343 E45.30008
G1 X163.801 Y131.935 E45.45337
G1 X164.248 Y132.385 E45.56528
G1 X164.622 Y132.781 E45.66138
G1 X164.844 Y133.031 E45.72037
G1 X164.99 Y133.206 E45.76057
G1 X165.332 Y133.607 E45.85356
G1 X165.667 Y134.024 E45.94793
G1 X166.041 Y134.523 E46.05795
G1 X166.503 Y135.19 E46.2011
G1 X166.856 Y135.742 E46.3167
G1 X167.191 Y136.312 E46.43335
G1 X167.476 Y136.826 E46.53704
G1 X167.589 Y137.041 E46.57989
G1 X167.923 Y137.717 E46.71292
G1 X168.219 Y138.383 E46.8415
G1 X168.476 Y139.017 E46.9622
G1 X168.522 Y139.154 E46.98769
