;FLAVOR:Marlin
;TIME:3164
;Filament used: 2.94536m
;Layer height: 0.2
;MINX:137.3
;MINY:137.3
;MINZ:0.3
;MAXX:162.7
;MAXY:162.7
;MAXZ:19.9
;Generated with Cura_SteamEngine 4.6.0
M140 S80
M105
M190 S80
M104 S250
M105
M109 S250
M82 ;absolute extrusion mode
G28 ; home all axes
 M117 Purge extruder
 G92 E0 ; reset extruder
 G1 Z1.0 F3000 ; move z up little to prevent scratching of surface
 G1 X2 Y20 Z0.3 F5000.0 ; move to start-line position
 G1 X2 Y200.0 Z0.3 F1500.0 E15 ; draw 1st line
 G1 X2 Y200.0 Z0.4 F5000.0 ; move to side a little
 G1 X2 Y20 Z0.4 F1500.0 E30 ; draw 2nd line
 G92 E0 ; reset extruder
 G1 Z1.0 F3000 ; move z up little to prevent scratching of surface
G92 E0
G92 E0
G1 F1500 E-2
;LAYER_COUNT:99
;LAYER:0
M107
G0 F900 X138.24 Y137.952 Z0.3
;TYPE:SKIRT
G1 F1500 E0
G1 F1200 X138.617 Y137.681 E0.03686
G1 X139.035 Y137.478 E0.07375
G1 X139.481 Y137.35 E0.11059
G1 X140 Y137.3 E0.15199
G1 X160 Y137.3 E1.73984
G1 X160.463 Y137.34 E1.77674
G1 X160.912 Y137.459 E1.81362
G1 X161.334 Y137.652 E1.85046
G1 X161.716 Y137.915 E1.88728
G1 X162.048 Y138.24 E1.92417
G1 X162.319 Y138.617 E1.96103
G1 X162.522 Y139.035 E1.99792
G1 X162.65 Y139.481 E2.03476
G1 X162.7 Y140 E2.07615
G1 X162.7 Y160 E3.66401
G1 X162.66 Y160.463 E3.70091
G1 X162.541 Y160.912 E3.73778
G1 X162.348 Y161.334 E3.77463
G1 X162.085 Y161.716 E3.81145
G1 X161.76 Y162.048 E3.84833
G1 X161.383 Y162.319 E3.88519
G1 X160.965 Y162.522 E3.92209
G1 X160.519 Y162.65 E3.95892
G1 X160 Y162.7 E4.00032
G1 X140 Y162.7 E5.58818
G1 X139.537 Y162.66 E5.62507
G1 X139.088 Y162.541 E5.66195
G1 X138.666 Y162.348 E5.69879
G1 X138.284 Y162.085 E5.73561
G1 X137.952 Y161.76 E5.7725
G1 X137.681 Y161.383 E5.80936
G1 X137.478 Y160.965 E5.84625
G1 X137.35 Y160.519 E5.88309
G1 X137.3 Y160 E5.92449
G1 X137.3 Y140 E7.51234
G1 X137.34 Y139.537 E7.54924
G1 X137.459 Y139.088 E7.58612
G1 X137.652 Y138.666 E7.62296
G1 X137.915 Y138.284 E7.65978
G1 X138.24 Y137.952 E7.69666
G0 F900 X138.509 Y138.522
G1 F1200 X138.824 Y138.26 E7.72919
G1 X139.184 Y138.065 E7.7617
G1 X139.575 Y137.944 E7.79419
G1 X140 Y137.9 E7.82811
G1 X160 Y137.9 E9.41597
G1 X160.407 Y137.94 E9.44844
G1 X160.799 Y138.058 E9.48094
G1 X161.161 Y138.25 E9.51347
G1 X161.478 Y138.509 E9.54597
G1 X161.74 Y138.824 E9.5785
G1 X161.935 Y139.184 E9.61101
G1 X162.056 Y139.575 E9.6435
G1 X162.1 Y140 E9.67742
G1 X162.1 Y160 E11.26528
G1 X162.06 Y160.407 E11.29775
G1 X161.942 Y160.799 E11.33025
G1 X161.75 Y161.161 E11.36278
G1 X161.491 Y161.478 E11.39528
G1 X161.176 Y161.74 E11.42781
G1 X160.816 Y161.935 E11.46031
G1 X160.425 Y162.056 E11.49281
G1 X160 Y162.1 E11.52673
G1 X140 Y162.1 E13.11459
G1 X139.593 Y162.06 E13.14706
G1 X139.201 Y161.942 E13.17956
G1 X138.839 Y161.75 E13.21209
G1 X138.522 Y161.491 E13.24459
G1 X138.26 Y161.176 E13.27712
G1 X138.065 Y160.816 E13.30962
G1 X137.944 Y160.425 E13.34212
G1 X137.9 Y160 E13.37604
G1 X137.9 Y140 E14.9639
G1 X137.94 Y139.593 E14.99636
G1 X138.058 Y139.201 E15.02887
G1 X138.25 Y138.839 E15.0614
G1 X138.509 Y138.522 E15.0939
G0 F900 X139.096 Y138.803
G1 F1200 X139.395 Y138.628 E15.1214
G1 X139.725 Y138.525 E15.14885
G1 X140 Y138.5 E15.17077
G1 X160 Y138.5 E16.75863
G1 X160.344 Y138.54 E16.78612
G1 X160.669 Y138.657 E16.81355
G1 X160.959 Y138.846 E16.84103
G1 X161.197 Y139.096 E16.86843
G1 X161.372 Y139.395 E16.89594
G1 X161.475 Y139.725 E16.92338
G1 X161.5 Y140 E16.94531
G1 X161.5 Y160 E18.53316
G1 X161.46 Y160.344 E18.56066
G1 X161.343 Y160.669 E18.58808
G1 X161.154 Y160.959 E18.61556
G1 X160.904 Y161.197 E18.64297
G1 X160.605 Y161.372 E18.67047
G1 X160.275 Y161.475 E18.69792
G1 X160 Y161.5 E18.71984
G1 X140 Y161.5 E20.3077
G1 X139.656 Y161.46 E20.33519
G1 X139.331 Y161.343 E20.36262
G1 X139.041 Y161.154 E20.3901
G1 X138.803 Y160.904 E20.4175
G1 X138.628 Y160.605 E20.44501
G1 X138.525 Y160.275 E20.47245
G1 X138.5 Y160 E20.49438
G1 X138.5 Y140 E22.08223
G1 X138.54 Y139.656 E22.10973
G1 X138.657 Y139.331 E22.13715
G1 X138.846 Y139.041 E22.16463
G1 X139.096 Y138.803 E22.19204
G0 F900 X139.437 Y139.298
G1 F1200 X139.669 Y139.163 E22.21335
G1 X140 Y139.1 E22.2401
G1 X160 Y139.1 E23.82795
G1 X160.265 Y139.14 E23.84923
G1 X160.506 Y139.256 E23.87047
G1 X160.702 Y139.437 E23.89165
G1 X160.837 Y139.669 E23.91296
G1 X160.9 Y140 E23.93971
G1 X160.9 Y160 E25.52756
G1 X160.86 Y160.265 E25.54884
G1 X160.744 Y160.506 E25.57008
G1 X160.563 Y160.702 E25.59126
G1 X160.331 Y160.837 E25.61257
G1 X160 Y160.9 E25.63932
G1 X140 Y160.9 E27.22717
G1 X139.735 Y160.86 E27.24845
G1 X139.494 Y160.744 E27.26969
G1 X139.298 Y160.563 E27.29087
G1 X139.163 Y160.331 E27.31218
G1 X139.1 Y160 E27.33893
G1 X139.1 Y140 E28.92678
G1 X139.14 Y139.735 E28.94806
G1 X139.256 Y139.494 E28.9693
G1 X139.437 Y139.298 E28.99048
G0 F900 X139.847 Y139.742
G1 F1200 X140 Y139.7 E29.00307
G1 X160 Y139.7 E30.59093
G1 X160.149 Y139.739 E30.60316
G1 X160.258 Y139.847 E30.61534
G1 X160.3 Y140 E30.62794
G1 X160.3 Y160 E32.21579
G1 X160.261 Y160.149 E32.22802
G1 X160.153 Y160.258 E32.2402
G1 X160 Y160.3 E32.2528
G1 X140 Y160.3 E33.84065
G1 X139.851 Y160.261 E33.85288
G1 X139.742 Y160.153 E33.86507
G1 X139.7 Y160 E33.87766
G1 X139.7 Y140 E35.46552
G1 X139.739 Y139.851 E35.47775
G1 X139.847 Y139.742 E35.48993
G1 F1500 E33.48993
;MESH:xyzCalibration_cube.stl
G0 F900 X139.335 Y139.742
G0 X139.335 Y159.7
G0 X140.3 Y159.7
;TYPE:WALL-OUTER
G1 F1500 E35.48993
G1 F1200 X140.3 Y140.3 E36.83575
G1 X159.7 Y140.3 E38.18157
G1 X159.7 Y159.7 E39.5274
G1 X140.3 Y159.7 E40.87322
G0 F900 X140.9 Y159.1
;TYPE:WALL-INNER
G1 F1200 X140.9 Y140.9 E42.1358
G1 X159.1 Y140.9 E43.39837
G1 X159.1 Y159.1 E44.66095
G1 X140.9 Y159.1 E45.92353
G0 F900 X141.5 Y158.5
G1 F1200 X141.5 Y141.5 E47.10285
G1 X158.5 Y141.5 E48.28218
G1 X158.5 Y158.5 E49.46151
G1 X141.5 Y158.5 E50.64084
G0 F900 X142.09 Y157.91
;TYPE:SKIN
G1 F1200 X142.09 Y142.09 E51.73831
G1 X157.91 Y142.09 E52.83578
G1 X157.91 Y157.91 E53.93325
G1 X142.09 Y157.91 E55.03072
G0 F900 X143.244 Y157.669
G1 F1200 X142.329 Y156.754 E55.12049
G0 F900 X142.329 Y155.906
G1 F1200 X144.093 Y157.669 E55.2935
G0 F900 X144.942 Y157.669
G1 F1200 X142.329 Y155.057 E55.54981
G0 F900 X142.329 Y154.209
G1 F1200 X145.79 Y157.669 E55.88931
G0 F900 X146.639 Y157.669
G1 F1200 X142.329 Y153.36 E56.3121
G0 F900 X142.329 Y152.512
G1 F1200 X147.487 Y157.669 E56.81809
G0 F900 X148.336 Y157.669
G1 F1200 X142.329 Y151.663 E57.40737
G0 F900 X142.329 Y150.815
G1 F1200 X149.184 Y157.669 E58.07985
G0 F900 X150.033 Y157.669
G1 F1200 X142.329 Y149.966 E58.83562
G0 F900 X142.329 Y149.118
G1 F1200 X150.881 Y157.669 E59.67458
G0 F900 X151.73 Y157.669
G1 F1200 X142.329 Y148.269 E60.59684
G0 F900 X142.329 Y147.421
G1 F1200 X152.578 Y157.669 E61.60229
G0 F900 X153.427 Y157.669
G1 F1200 X142.329 Y146.572 E62.69104
G0 F900 X142.329 Y145.724
G1 F1200 X154.275 Y157.669 E63.86298
G0 F900 X155.124 Y157.669
G1 F1200 X142.329 Y144.875 E65.11821
G0 F900 X142.329 Y144.027
G1 F1200 X155.972 Y157.669 E66.45664
G0 F900 X156.821 Y157.669
G1 F1200 X142.329 Y143.178 E67.87836
G0 F900 X142.329 Y142.329
G1 F1200 X157.669 Y157.669 E69.38333
G0 F900 X157.669 Y156.821
G1 F1200 X143.178 Y142.329 E70.80505
G0 F900 X144.027 Y142.329
G1 F1200 X157.669 Y155.972 E72.14348
G0 F900 X157.669 Y155.124
G1 F1200 X144.875 Y142.329 E73.39871
G0 F900 X145.724 Y142.329
G1 F1200 X157.669 Y154.275 E74.57065
G0 F900 X157.669 Y153.427
G1 F1200 X146.572 Y142.329 E75.6594
G0 F900 X147.421 Y142.329
G1 F1200 X157.669 Y152.578 E76.66485
G0 F900 X157.669 Y151.73
G1 F1200 X148.269 Y142.329 E77.58711
G0 F900 X149.118 Y142.329
G1 F1200 X157.669 Y150.881 E78.42607
G0 F900 X157.669 Y150.033
G1 F1200 X149.966 Y142.329 E79.18184
G0 F900 X150.815 Y142.329
G1 F1200 X157.669 Y149.184 E79.85432
G0 F900 X157.669 Y148.336
M104 S240
G1 F1200 X151.663 Y142.329 E80.4436
G0 F900 X152.512 Y142.329
G1 F1200 X157.669 Y147.487 E80.94959
G0 F900 X157.669 Y146.639
G1 F1200 X153.36 Y142.329 E81.37238
G0 F900 X154.209 Y142.329
G1 F1200 X157.669 Y145.79 E81.71188
G0 F900 X157.669 Y144.942
G1 F1200 X155.057 Y142.329 E81.96819
G0 F900 X155.906 Y142.329
G1 F1200 X157.669 Y144.093 E82.1412
G0 F900 X157.669 Y143.244
G1 F1200 X156.754 Y142.329 E82.23097
G1 F1500 E80.23097
;MESH:NONMESH
G0 F600 X156.754 Y142.329 Z0.5
G0 F900 X160.665 Y142.329
G0 X160.653 Y160.653
G0 X141.5 Y160.665
G0 X141.5 Y158.5
;TIME_ELAPSED:79.675376
;LAYER:1
M140 S80
M106 S4.4
;TYPE:WALL-INNER
;MESH:xyzCalibration_cube.stl
G1 F1500 E82.23097
G1 F1200 X141.5 Y141.5 E82.99429
G1 X158.5 Y141.5 E83.75761
G1 X158.5 Y158.5 E84.52093
G1 X141.5 Y158.5 E85.28425
G0 F6450 X140.9 Y159.1
G1 F1200 X140.9 Y140.9 E86.10145
G1 X159.1 Y140.9 E86.91865
G1 X159.1 Y159.1 E87.73585
G1 X140.9 Y159.1 E88.55306
G0 F6450 X140.3 Y159.7
;TYPE:WALL-OUTER
G1 F1200 X140.3 Y140.3 E89.42414
G1 X159.7 Y140.3 E90.29522
G1 X159.7 Y159.7 E91.1663
G1 X140.3 Y159.7 E92.03739
G0 F6450 X142.09 Y157.91
;TYPE:SKIN
G1 F1200 X142.09 Y142.09 E92.74772
G1 X157.91 Y142.09 E93.45806
G1 X157.91 Y157.91 E94.1684
G1 X142.09 Y157.91 E94.87873
G1 F1500 E92.87873
G0 F6450 X139.335 Y157.91
G0 X139.335 Y142.775
G0 X142.329 Y142.775
G1 F1500 E94.87873
G1 F1200 X142.775 Y142.329 E94.90706
G0 F6450 X143.623 Y142.329
G1 F1200 X142.329 Y143.623 E94.98922
G0 F6450 X142.329 Y144.472
G1 F1200 X144.472 Y142.329 E95.1253
G0 F6450 X145.321 Y142.329
G1 F1200 X142.329 Y145.321 E95.3153
G0 F6450 X142.329 Y146.169
G1 F1200 X146.169 Y142.329 E95.55914
G0 F6450 X147.018 Y142.329
G1 F1200 X142.329 Y147.018 E95.85689
G0 F6450 X142.329 Y147.866
G1 F1200 X147.866 Y142.329 E96.20848
G0 F6450 X148.715 Y142.329
G1 F1200 X142.329 Y148.715 E96.614
G0 F6450 X142.329 Y149.563
G1 F1200 X149.563 Y142.329 E97.07335
G0 F6450 X150.412 Y142.329
G1 F1200 X142.329 Y150.412 E97.58662
G0 F6450 X142.329 Y151.26
G1 F1200 X151.26 Y142.329 E98.15374
G0 F6450 X152.109 Y142.329
G1 F1200 X142.329 Y152.109 E98.77477
G0 F6450 X142.329 Y152.957
G1 F1200 X152.957 Y142.329 E99.44964
G0 F6450 X153.806 Y142.329
G1 F1200 X142.329 Y153.806 E100.17843
G0 F6450 X142.329 Y154.654
G1 F1200 X154.654 Y142.329 E100.96107
G0 F6450 X155.503 Y142.329
G1 F1200 X142.329 Y155.503 E101.79762
G0 F6450 X142.329 Y156.351
G1 F1200 X156.351 Y142.329 E102.68801
G0 F6450 X157.2 Y142.329
G1 F1200 X142.329 Y157.2 E103.63232
G0 F6450 X142.708 Y157.669
G1 F1200 X157.669 Y142.708 E104.58234
G0 F6450 X157.669 Y143.557
G1 F1200 X143.557 Y157.669 E105.47845
G0 F6450 X144.406 Y157.669
G1 F1200 X157.669 Y144.406 E106.32065
G0 F6450 X157.669 Y145.254
G1 F1200 X145.254 Y157.669 E107.109
G0 F6450 X146.103 Y157.669
G1 F1200 X157.669 Y146.103 E107.84344
G0 F6450 X157.669 Y146.951
G1 F1200 X146.951 Y157.669 E108.52403
G0 F6450 X147.8 Y157.669
G1 F1200 X157.669 Y147.8 E109.15071
G0 F6450 X157.669 Y148.648
G1 F1200 X148.648 Y157.669 E109.72354
G0 F6450 X149.497 Y157.669
G1 F1200 X157.669 Y149.497 E110.24246
G0 F6450 X157.669 Y150.345
G1 F1200 X150.345 Y157.669 E110.70754
G0 F6450 X151.194 Y157.669
G1 F1200 X157.669 Y151.194 E111.1187
G0 F6450 X157.669 Y152.042
G1 F1200 X152.042 Y157.669 E111.47601
G0 F6450 X152.891 Y157.669
G1 F1200 X157.669 Y152.891 E111.77941
G0 F6450 X157.669 Y153.739
G1 F1200 X153.739 Y157.669 E112.02897
G0 F6450 X154.588 Y157.669
G1 F1200 X157.669 Y154.588 E112.22461
G0 F6450 X157.669 Y155.436
G1 F1200 X155.436 Y157.669 E112.36641
G0 F6450 X156.285 Y157.669
G1 F1200 X157.669 Y156.285 E112.45429
G0 F6450 X157.669 Y157.133
G1 F1200 X157.133 Y157.669 E112.48833
G1 F1500 E110.48833
;MESH:NONMESH
G0 F600 X157.133 Y157.669 Z0.7
G0 F6450 X157.133 Y160.665
G0 X141.5 Y160.665
G0 X141.5 Y158.5
;TIME_ELAPSED:118.559167
;LAYER:2
M106 S8.8
;TYPE:WALL-INNER
;MESH:xyzCalibration_cube.stl
G1 F1500 E112.48833
G1 F1200 X141.5 Y141.5 E113.25165
G1 X158.5 Y141.5 E114.01497
G1 X158.5 Y158.5 E114.77829
G1 X141.5 Y158.5 E115.54161
G0 F12000 X140.9 Y159.1
G1 F1200 X140.9 Y140.9 E116.35881
G1 X159.1 Y140.9 E117.17601
G1 X159.1 Y159.1 E117.99321
G1 X140.9 Y159.1 E118.81041
G0 F12000 X140.3 Y159.7
;TYPE:WALL-OUTER
G1 F1200 X140.3 Y140.3 E119.68149
G1 X159.7 Y140.3 E120.55258
G1 X159.7 Y159.7 E121.42366
G1 X140.3 Y159.7 E122.29474
G0 F12000 X142.09 Y157.91
;TYPE:SKIN
G1 F1200 X142.09 Y142.09 E123.00508
G1 X157.91 Y142.09 E123.71542
G1 X157.91 Y157.91 E124.42575
G1 X142.09 Y157.91 E125.13609
G0 F12000 X143.244 Y157.669
G1 F1200 X142.329 Y156.754 E125.19419
G0 F12000 X142.329 Y155.906
G1 F1200 X144.093 Y157.669 E125.30617
G0 F12000 X144.942 Y157.669
G1 F1200 X142.329 Y155.057 E125.47207
G0 F12000 X142.329 Y154.209
G1 F1200 X145.79 Y157.669 E125.69181
G0 F12000 X146.639 Y157.669
G1 F1200 X142.329 Y153.36 E125.96546
G0 F12000 X142.329 Y152.512
G1 F1200 X147.487 Y157.669 E126.29296
G0 F12000 X148.336 Y157.669
G1 F1200 X142.329 Y151.663 E126.67437
G0 F12000 X142.329 Y150.815
G1 F1200 X149.184 Y157.669 E127.10963
G0 F12000 X150.033 Y157.669
G1 F1200 X142.329 Y149.966 E127.59881
G0 F12000 X142.329 Y149.118
G1 F1200 X150.881 Y157.669 E128.14182
G0 F12000 X151.73 Y157.669
G1 F1200 X142.329 Y148.269 E128.73876
G0 F12000 X142.329 Y147.421
G1 F1200 X152.578 Y157.669 E129.38953
G0 F12000 X153.427 Y157.669
G1 F1200 X142.329 Y146.572 E130.09422
G0 F12000 X142.329 Y145.724
G1 F1200 X154.275 Y157.669 E130.85276
G0 F12000 X155.124 Y157.669
G1 F1200 X142.329 Y144.875 E131.66521
G0 F12000 X142.329 Y144.027
G1 F1200 X155.972 Y157.669 E132.53151
G0 F12000 X156.821 Y157.669
G1 F1200 X142.329 Y143.178 E133.45171
G0 F12000 X142.329 Y142.329
G1 F1200 X157.669 Y157.669 E134.4258
G0 F12000 X157.669 Y156.821
G1 F1200 X143.178 Y142.329 E135.34601
G0 F12000 X144.027 Y142.329
G1 F1200 X157.669 Y155.972 E136.21231
G0 F12000 X157.669 Y155.124
G1 F1200 X144.875 Y142.329 E137.02476
G0 F12000 X145.724 Y142.329
G1 F1200 X157.669 Y154.275 E137.78329
G0 F12000 X157.669 Y153.427
G1 F1200 X146.572 Y142.329 E138.48798
G0 F12000 X147.421 Y142.329
G1 F1200 X157.669 Y152.578 E139.13876
G0 F12000 X157.669 Y151.73
G1 F1200 X148.269 Y142.329 E139.73569
G0 F12000 X149.118 Y142.329
G1 F1200 X157.669 Y150.881 E140.27871
G0 F12000 X157.669 Y150.033
G1 F1200 X149.966 Y142.329 E140.76788
G0 F12000 X150.815 Y142.329
G1 F1200 X157.669 Y149.184 E141.20314
G0 F12000 X157.669 Y148.336
G1 F1200 X151.663 Y142.329 E141.58455
G0 F12000 X152.512 Y142.329
G1 F1200 X157.669 Y147.487 E141.91206
G0 F12000 X157.669 Y146.639
G1 F1200 X153.36 Y142.329 E142.18571
G0 F12000 X154.209 Y142.329
G1 F1200 X157.669 Y145.79 E142.40545
G0 F12000 X157.669 Y144.942
G1 F1200 X155.057 Y142.329 E142.57134
G0 F12000 X155.906 Y142.329
G1 F1200 X157.669 Y144.093 E142.68332
G0 F12000 X157.669 Y143.244
G1 F1200 X156.754 Y142.329 E142.74143
G1 F1500 E140.74143
;MESH:NONMESH
G0 F600 X156.754 Y142.329 Z0.9
G0 F12000 X160.665 Y142.329
G0 X160.653 Y160.653
G0 X141.5 Y160.665
G0 X141.5 Y158.5
;TIME_ELAPSED:157.181246
;LAYER:3
M106 S13.2
;TYPE:WALL-INNER
;MESH:xyzCalibration_cube.stl
G1 F1500 E142.74143
G1 F1200 X141.5 Y141.5 E143.50475
G1 X158.5 Y141.5 E144.26807
G1 X158.5 Y158.5 E145.03139
G1 X141.5 Y158.5 E145.79471
G0 F12000 X140.9 Y159.1
G1 F1200 X140.9 Y140.9 E146.61191
G1 X159.1 Y140.9 E147.42911
G1 X159.1 Y159.1 E148.24631
G1 X140.9 Y159.1 E149.06351
G0 F12000 X140.3 Y159.7
;TYPE:WALL-OUTER
G1 F1200 X140.3 Y140.3 E149.9346
G1 X159.7 Y140.3 E150.80568
G1 X159.7 Y159.7 E151.67676
G1 X140.3 Y159.7 E152.54785
G0 F12000 X142.09 Y157.91
;TYPE:SKIN
G1 F1200 X142.09 Y142.09 E153.25818
G1 X157.91 Y142.09 E153.96852
G1 X157.91 Y157.91 E154.67886
G1 X142.09 Y157.91 E155.38919
G1 F1500 E153.38919
G0 F12000 X139.335 Y157.91
G0 X139.335 Y142.775
G0 X142.329 Y142.775
G1 F1500 E155.38919
G1 F1200 X142.775 Y142.329 E155.41751
G0 F12000 X143.623 Y142.329
G1 F1200 X142.329 Y143.623 E155.49968
G0 F12000 X142.329 Y144.472
G1 F1200 X144.472 Y142.329 E155.63576
G0 F12000 X145.321 Y142.329
G1 F1200 X142.329 Y145.321 E155.82575
G0 F12000 X142.329 Y146.169
G1 F1200 X146.169 Y142.329 E156.06959
G0 F12000 X147.018 Y142.329
G1 F1200 X142.329 Y147.018 E156.36734
G0 F12000 X142.329 Y147.866
G1 F1200 X147.866 Y142.329 E156.71894
G0 F12000 X148.715 Y142.329
G1 F1200 X142.329 Y148.715 E157.12445
G0 F12000 X142.329 Y149.563
G1 F1200 X149.563 Y142.329 E157.58381
G0 F12000 X150.412 Y142.329
