;FLAVOR:Marlin
;TIME:4042
;Filament used: 3.83745m
;Layer height: 0.28
;MINX:109.272
;MINY:135.275
;MINZ:0.28
;MAXX:190.725
;MAXY:192.725
;MAXZ:21.84
;Generated with Cura_SteamEngine 4.6.0
M140 S80
M105
M190 S80
M104 S250
M105
M109 S250
M82 ;absolute extrusion mode
G28 ; home all axes
 M117 Purge extruder
 G92 E0 ; reset extruder
 G1 Z1.0 F3000 ; move z up little to prevent scratching of surface
 G1 X2 Y20 Z0.3 F5000.0 ; move to start-line position
 G1 X2 Y200.0 Z0.3 F1500.0 E15 ; draw 1st line
 G1 X2 Y200.0 Z0.4 F5000.0 ; move to side a little
 G1 X2 Y20 Z0.4 F1500.0 E30 ; draw 2nd line
 G92 E0 ; reset extruder
 G1 Z1.0 F3000 ; move z up little to prevent scratching of surface
G92 E0
G92 E0
G1 F1500 E-2
;LAYER_COUNT:78
;LAYER:0
M107
G0 F900 X124.84 Y137.096 Z0.28
;TYPE:SKIRT
G1 F1500 E0
G1 F1200 X125.285 Y137.132 E0.03308
G1 X126.088 Y137.23 E0.09303
G1 X128.79 Y137.519 E0.29439
G1 X131.531 Y137.735 E0.49812
G1 X134.28 Y137.874 E0.70208
G1 X136.989 Y137.934 E0.90287
G1 X139.736 Y137.916 E1.10643
G1 X142.449 Y137.822 E1.30758
G1 X145.221 Y137.648 E1.51339
G1 X147.907 Y137.402 E1.71326
G1 X148.283 Y137.36 E1.74129
G1 X149.18 Y137.279 E1.80803
G1 X149.546 Y137.262 E1.83518
G1 X149.946 Y137.257 E1.86482
G1 X150.684 Y137.271 E1.91952
G1 X150.926 Y137.285 E1.93748
G1 X151.31 Y137.316 E1.96603
G1 X151.871 Y137.368 E2.00777
G1 X153.251 Y137.518 E2.11063
G1 X155.926 Y137.732 E2.30948
G1 X158.7 Y137.874 E2.51531
G1 X161.414 Y137.938 E2.71647
G1 X164.159 Y137.924 E2.91988
G1 X166.872 Y137.833 E3.12102
G1 X169.614 Y137.664 E3.32459
G1 X172.334 Y137.419 E3.52696
G1 X174.948 Y137.115 E3.72196
G1 X175.546 Y137.079 E3.76635
G1 X175.946 Y137.074 E3.79599
G1 X176.683 Y137.088 E3.85062
G1 X177.145 Y137.118 E3.88492
G1 X177.57 Y137.169 E3.91664
G1 X178.611 Y137.337 E3.99478
G1 X179.032 Y137.43 E4.02673
G1 X179.456 Y137.547 E4.05932
G1 X180.292 Y137.808 E4.12421
G1 X180.472 Y137.87 E4.13832
G1 X180.917 Y138.042 E4.17367
G1 X181.42 Y138.262 E4.21435
G1 X181.965 Y138.533 E4.25946
G1 X182.792 Y139.002 E4.32991
G1 X182.944 Y139.094 E4.34307
G1 X183.316 Y139.338 E4.37604
G1 X183.777 Y139.67 E4.41813
G1 X184.084 Y139.908 E4.44692
G1 X184.466 Y140.227 E4.4838
G1 X184.771 Y140.499 E4.51408
G1 X185.088 Y140.809 E4.54693
G1 X185.721 Y141.473 E4.61491
G1 X185.816 Y141.583 E4.62568
G1 X186.087 Y141.913 E4.65732
G1 X186.286 Y142.164 E4.68106
G1 X186.403 Y142.32 E4.69551
G1 X186.659 Y142.682 E4.72836
G1 X186.878 Y143.009 E4.75752
G1 X187.1 Y143.371 E4.78899
G1 X187.38 Y143.864 E4.831
G1 X187.549 Y144.187 E4.85801
G1 X187.789 Y144.691 E4.89938
G1 X187.984 Y145.15 E4.93633
G1 X188.033 Y145.282 E4.94677
G1 X188.291 Y146.016 E5.00442
G1 X188.277 Y146.021 E5.00552
G1 X188.36 Y146.231 E5.02225
G1 X188.579 Y147.023 E5.08314
G1 X188.623 Y147.204 E5.09694
G1 X188.684 Y147.486 E5.11832
G1 X188.758 Y147.927 E5.15146
G1 X188.882 Y148.923 E5.22583
G1 X188.921 Y149.527 E5.27068
G1 X188.926 Y149.945 E5.30166
G1 X188.916 Y150.568 E5.34783
G1 X188.904 Y150.8 E5.36504
G1 X188.856 Y151.354 E5.40625
G1 X188.828 Y151.578 E5.42297
G1 X188.66 Y152.628 E5.50177
G1 X188.57 Y153.032 E5.53244
G1 X188.453 Y153.458 E5.56517
G1 X188.102 Y154.549 E5.6501
G1 X187.958 Y154.918 E5.67945
G1 X187.742 Y155.41 E5.71927
G1 X187.466 Y155.966 E5.76526
G1 X186.9 Y156.953 E5.84957
G1 X186.663 Y157.315 E5.88163
G1 X186.318 Y157.793 E5.92531
G1 X186.092 Y158.084 E5.95262
G1 X185.773 Y158.466 E5.98949
G1 X185.499 Y158.773 E6.01999
G1 X185.177 Y159.102 E6.0541
G1 X184.632 Y159.626 E6.11012
G1 X184.4 Y159.83 E6.13301
G1 X184.083 Y160.091 E6.16344
G1 X183.127 Y160.845 E6.25366
G1 X182.241 Y161.522 E6.33629
G1 X180.132 Y163.232 E6.53748
G1 X178.08 Y164.996 E6.73799
G1 X176.028 Y166.861 E6.94346
G1 X174.072 Y168.745 E7.1447
G1 X172.158 Y170.693 E7.34706
G1 X170.304 Y172.692 E7.54909
G1 X168.478 Y174.775 E7.75435
G1 X166.748 Y176.865 E7.95539
G1 X165.061 Y179.024 E8.15842
G1 X163.445 Y181.22 E8.36046
G1 X161.166 Y184.553 E8.65965
G1 X160.663 Y185.315 E8.7273
G1 X160.318 Y185.793 E8.77098
G1 X160.092 Y186.084 E8.79829
G1 X159.775 Y186.464 E8.83496
G1 X159.5 Y186.771 E8.8655
G1 X159.177 Y187.102 E8.89977
G1 X158.632 Y187.626 E8.95579
G1 X158.4 Y187.83 E8.97868
G1 X158.084 Y188.09 E9.009
G1 X157.826 Y188.294 E9.03338
G1 X157.691 Y188.394 E9.04583
G1 X157.314 Y188.662 E9.0801
G1 X156.983 Y188.883 E9.10959
G1 X156.629 Y189.1 E9.14036
G1 X156.126 Y189.386 E9.18324
G1 X155.815 Y189.548 E9.20922
G1 X155.288 Y189.799 E9.25247
G1 X154.85 Y189.984 E9.28771
G1 X154.718 Y190.033 E9.29814
G1 X153.984 Y190.291 E9.35579
G1 X153.979 Y190.277 E9.35689
G1 X153.77 Y190.359 E9.37353
G1 X152.975 Y190.579 E9.43465
G1 X152.786 Y190.626 E9.44908
G1 X152.335 Y190.718 E9.48319
G1 X152.072 Y190.758 E9.5029
G1 X151.051 Y190.885 E9.57914
G1 X150.454 Y190.921 E9.62346
G1 X150.054 Y190.926 E9.6531
G1 X149.432 Y190.916 E9.6992
G1 X149.2 Y190.904 E9.71641
G1 X148.646 Y190.856 E9.75762
G1 X148.422 Y190.828 E9.77434
G1 X147.372 Y190.66 E9.85314
G1 X146.968 Y190.57 E9.88381
G1 X146.542 Y190.453 E9.91655
G1 X145.451 Y190.102 E10.00147
G1 X145.083 Y189.958 E10.03075
G1 X144.584 Y189.74 E10.0711
G1 X144.032 Y189.465 E10.1168
G1 X143.047 Y188.9 E10.20094
G1 X142.68 Y188.659 E10.23348
G1 X142.212 Y188.321 E10.27625
G1 X141.915 Y188.091 E10.30409
G1 X141.518 Y187.759 E10.34244
G1 X141.226 Y187.497 E10.37151
G1 X140.888 Y187.168 E10.40646
G1 X140.356 Y186.613 E10.46343
G1 X140.169 Y186.398 E10.48454
G1 X139.91 Y186.084 E10.5147
G1 X139.605 Y185.691 E10.55157
G1 X139.332 Y185.305 E10.5866
G1 X138.828 Y184.561 E10.65319
G1 X138.802 Y184.523 E10.6566
G1 X137.923 Y183.186 E10.77516
G1 X136.373 Y180.965 E10.97586
G1 X134.742 Y178.766 E11.17873
G1 X133.036 Y176.599 E11.38309
G1 X131.292 Y174.504 E11.58508
G1 X129.479 Y172.45 E11.78809
G1 X127.625 Y170.464 E11.98942
G1 X125.699 Y168.516 E12.1924
G1 X123.717 Y166.621 E12.3956
G1 X121.681 Y164.782 E12.59889
G1 X119.631 Y163.031 E12.79867
G1 X116.426 Y160.485 E13.10197
G1 X115.927 Y160.101 E13.14863
G1 X115.518 Y159.759 E13.18814
G1 X115.226 Y159.497 E13.21721
G1 X114.888 Y159.167 E13.25221
G1 X114.361 Y158.617 E13.30865
G1 X114.169 Y158.398 E13.33024
G1 X113.91 Y158.084 E13.3604
G1 X113.605 Y157.691 E13.39726
G1 X113.328 Y157.299 E13.43283
G1 X113.115 Y156.98 E13.46125
G1 X112.892 Y156.617 E13.49282
G1 X112.616 Y156.13 E13.5343
G1 X112.447 Y155.806 E13.56138
G1 X112.202 Y155.29 E13.6037
G1 X112.009 Y154.832 E13.64053
G1 X111.965 Y154.713 E13.64993
G1 X111.709 Y153.985 E13.70711
G1 X111.724 Y153.98 E13.70829
G1 X111.641 Y153.77 E13.72502
G1 X111.421 Y152.975 E13.78614
G1 X111.374 Y152.786 E13.80057
G1 X111.282 Y152.335 E13.83468
G1 X111.242 Y152.072 E13.85439
G1 X111.115 Y151.051 E13.93063
G1 X111.087 Y150.661 E13.9596
G1 X111.074 Y150.31 E13.98563
G1 X111.072 Y149.851 E14.01964
G1 X111.082 Y149.47 E14.04789
G1 X111.108 Y149.006 E14.08232
G1 X111.169 Y148.439 E14.12458
G1 X111.34 Y147.372 E14.20465
G1 X111.43 Y146.968 E14.23532
G1 X111.547 Y146.542 E14.26806
G1 X111.905 Y145.431 E14.35455
G1 X112.043 Y145.079 E14.38257
G1 X112.361 Y144.368 E14.44028
G1 X112.534 Y144.034 E14.46815
G1 X113.1 Y143.047 E14.55246
G1 X113.34 Y142.681 E14.58489
G1 X113.695 Y142.19 E14.62979
G1 X113.908 Y141.916 E14.65551
G1 X114.227 Y141.534 E14.69239
G1 X114.501 Y141.227 E14.72288
G1 X114.823 Y140.898 E14.75699
G1 X115.374 Y140.369 E14.81359
G1 X115.602 Y140.169 E14.83606
G1 X115.916 Y139.91 E14.86622
G1 X116.309 Y139.605 E14.90309
G1 X116.689 Y139.337 E14.93754
G1 X117.017 Y139.117 E14.96681
G1 X117.371 Y138.9 E14.99758
G1 X117.874 Y138.614 E15.04045
G1 X118.185 Y138.452 E15.06644
G1 X118.712 Y138.201 E15.10969
G1 X119.15 Y138.016 E15.14492
G1 X119.282 Y137.967 E15.15536
G1 X120.016 Y137.709 E15.21301
G1 X120.021 Y137.723 E15.21411
G1 X120.23 Y137.641 E15.23074
G1 X121.025 Y137.421 E15.29187
G1 X121.214 Y137.374 E15.3063
G1 X121.665 Y137.282 E15.34041
G1 X121.928 Y137.242 E15.36012
G1 X122.949 Y137.115 E15.43636
G1 X123.546 Y137.079 E15.48068
G1 X123.946 Y137.074 E15.51032
G1 X124.568 Y137.084 E15.55641
G1 X124.84 Y137.096 E15.57659
G0 F900 X125.177 Y136.519
G1 F1200 X125.357 Y136.537 E15.58999
G1 X126.103 Y136.628 E15.64568
G1 X128.866 Y136.924 E15.85159
G1 X131.573 Y137.137 E16.0528
G1 X134.288 Y137.274 E16.25424
G1 X136.998 Y137.334 E16.4551
G1 X139.711 Y137.316 E16.65614
G1 X142.463 Y137.221 E16.86018
G1 X145.127 Y137.054 E17.05797
G1 X147.875 Y136.802 E17.26245
G1 X148.227 Y136.763 E17.28869
G1 X149.15 Y136.68 E17.35736
G1 X149.536 Y136.663 E17.38599
G1 X149.956 Y136.658 E17.41712
G1 X150.715 Y136.672 E17.47337
G1 X150.972 Y136.687 E17.49245
G1 X151.373 Y136.719 E17.52225
G1 X151.935 Y136.772 E17.56408
G1 X153.254 Y136.915 E17.66239
G1 X156.005 Y137.136 E17.8669
G1 X158.709 Y137.274 E18.06753
G1 X161.425 Y137.338 E18.26884
G1 X164.136 Y137.324 E18.46972
G1 X166.851 Y137.233 E18.67102
G1 X169.594 Y137.064 E18.87466
G1 X172.284 Y136.821 E19.0748
G1 X174.901 Y136.517 E19.27002
G1 X175.536 Y136.48 E19.31716
G1 X175.956 Y136.475 E19.34828
G1 X176.713 Y136.489 E19.40439
G1 X177.19 Y136.52 E19.43981
G1 X177.663 Y136.576 E19.4751
G1 X178.536 Y136.713 E19.54058
G1 X178.734 Y136.75 E19.55551
G1 X178.981 Y136.802 E19.57421
G1 X179.187 Y136.851 E19.5899
G1 X179.635 Y136.974 E19.62433
G1 X180.471 Y137.235 E19.68922
G1 X180.684 Y137.308 E19.70591
G1 X180.976 Y137.418 E19.72903
G1 X181.157 Y137.492 E19.74352
G1 X181.674 Y137.718 E19.78533
G1 X182.149 Y137.951 E19.82453
G1 X182.261 Y138.012 E19.83398
G1 X183.088 Y138.481 E19.90443
G1 X183.267 Y138.589 E19.91992
G1 X183.666 Y138.85 E19.95525
G1 X184.141 Y139.193 E19.99867
G1 X184.468 Y139.447 E20.02935
G1 X184.862 Y139.776 E20.06738
G1 X185.188 Y140.068 E20.09981
G1 X185.519 Y140.392 E20.13414
G1 X186.166 Y141.071 E20.20363
G1 X186.278 Y141.201 E20.21635
G1 X186.557 Y141.54 E20.24888
G1 X186.756 Y141.791 E20.27262
G1 X186.894 Y141.976 E20.28972
G1 X187.156 Y142.345 E20.32325
G1 X187.387 Y142.692 E20.35414
G1 X187.622 Y143.074 E20.38738
G1 X187.91 Y143.582 E20.43065
G1 X188.09 Y143.928 E20.45955
G1 X188.337 Y144.448 E20.50221
G1 X188.541 Y144.928 E20.54085
G1 X188.599 Y145.083 E20.55312
G1 X188.857 Y145.817 E20.61077
G1 X188.847 Y145.82 E20.61154
G1 X188.938 Y146.071 E20.63133
G1 X189.157 Y146.863 E20.69221
G1 X189.21 Y147.077 E20.70855
G1 X189.271 Y147.359 E20.72993
G1 X189.353 Y147.851 E20.76689
G1 X189.48 Y148.875 E20.84335
G1 X189.517 Y149.396 E20.88205
G1 X189.525 Y149.955 E20.92348
G1 X189.515 Y150.578 E20.96965
G1 X189.501 Y150.852 E20.98998
G1 X189.453 Y151.406 E21.03118
G1 X189.421 Y151.671 E21.05096
G1 X189.284 Y152.548 E21.11674
G1 X189.247 Y152.752 E21.1321
G1 X189.198 Y152.984 E21.14967
G1 X189.149 Y153.187 E21.16515
G1 X189.025 Y153.637 E21.19973
G1 X188.663 Y154.763 E21.28738
G1 X188.508 Y155.157 E21.31875
G1 X188.286 Y155.664 E21.35976
G1 X188.049 Y156.149 E21.39976
G1 X187.988 Y156.262 E21.40928
G1 X187.514 Y157.097 E21.48042
G1 X187.406 Y157.276 E21.49592
G1 X187.265 Y157.496 E21.51528
G1 X187.15 Y157.665 E21.53043
G1 X186.795 Y158.157 E21.57538
G1 X186.553 Y158.468 E21.60458
G1 X186.224 Y158.862 E21.64262
G1 X185.93 Y159.19 E21.67526
G1 X185.594 Y159.534 E21.71089
G1 X185.033 Y160.072 E21.76849
G1 X184.782 Y160.293 E21.79327
G1 X184.454 Y160.561 E21.82465
G1 X183.491 Y161.322 E21.9156
G1 X182.613 Y161.993 E21.99749
G1 X180.513 Y163.695 E22.19779
G1 X178.488 Y165.436 E22.39567
G1 X176.442 Y167.297 E22.60061
G1 X174.493 Y169.174 E22.80112
G1 X172.602 Y171.098 E23.00102
G1 X170.737 Y173.108 E23.2042
G1 X168.933 Y175.166 E23.40699
G1 X167.207 Y177.251 E23.60756
G1 X165.545 Y179.379 E23.80764
G1 X163.933 Y181.569 E24.00914
G1 X161.671 Y184.876 E24.30603
G1 X161.15 Y185.664 E24.37603
G1 X160.795 Y186.157 E24.42104
G1 X160.553 Y186.468 E24.45024
G1 X160.226 Y186.859 E24.48801
G1 X160.063 Y187.045 E24.50634
G1 X159.931 Y187.188 E24.52076
G1 X159.594 Y187.534 E24.55655
G1 X159.033 Y188.072 E24.61415
G1 X158.782 Y188.293 E24.63893
G1 X158.456 Y188.56 E24.67015
G1 X158.198 Y188.764 E24.69452
G1 X158.039 Y188.883 E24.70924
G1 X157.65 Y189.159 E24.74458
G1 X157.3 Y189.392 E24.77574
G1 X156.926 Y189.622 E24.80827
G1 X156.407 Y189.916 E24.85247
G1 X156.074 Y190.089 E24.88028
G1 X155.53 Y190.348 E24.92493
G1 X155.072 Y190.541 E24.96175
G1 X154.917 Y190.599 E24.97402
G1 X154.183 Y190.857 E25.03167
G1 X154.18 Y190.847 E25.03244
G1 X153.93 Y190.938 E25.05216
G1 X153.135 Y191.158 E25.11328
G1 X152.912 Y191.212 E25.13028
G1 X152.632 Y191.272 E25.1515
G1 X152.149 Y191.353 E25.18779
G1 X151.097 Y191.483 E25.26634
G1 X150.464 Y191.52 E25.31332
G1 X150.044 Y191.525 E25.34445
G1 X149.422 Y191.515 E25.39054
G1 X149.148 Y191.501 E25.41087
G1 X148.594 Y191.453 E25.45208
G1 X148.329 Y191.421 E25.47186
G1 X147.452 Y191.284 E25.53763
G1 X147.248 Y191.247 E25.55299
G1 X147.016 Y191.198 E25.57056
G1 X146.813 Y191.149 E25.58604
G1 X146.363 Y191.025 E25.62063
G1 X145.237 Y190.663 E25.70827
G1 X144.843 Y190.508 E25.73964
G1 X144.331 Y190.284 E25.78105
G1 X144.116 Y190.184 E25.79862
G1 X143.735 Y189.986 E25.83044
G1 X142.902 Y189.513 E25.90142
G1 X142.724 Y189.406 E25.91681
G1 X142.504 Y189.265 E25.93617
G1 X142.329 Y189.146 E25.95186
G1 X141.849 Y188.799 E25.99574
G1 X141.531 Y188.552 E26.02558
G1 X141.122 Y188.21 E26.06509
G1 X140.808 Y187.928 E26.09636
G1 X140.457 Y187.585 E26.13273
G1 X139.908 Y187.011 E26.19158
G1 X139.706 Y186.78 E26.21432
G1 X139.44 Y186.456 E26.24538
G1 X139.236 Y186.198 E26.26976
G1 X139.116 Y186.038 E26.28458
G1 X138.835 Y185.641 E26.32062
G1 X138.301 Y184.852 E26.39121
G1 X137.446 Y183.551 E26.50657
G1 X135.875 Y181.301 E26.70992
G1 X134.26 Y179.124 E26.91077
G1 X132.58 Y176.988 E27.11214
G1 X130.839 Y174.898 E27.3137
G1 X129.049 Y172.869 E27.5142
G1 X127.167 Y170.853 E27.71856
G1 X125.281 Y168.947 E27.91725
G1 X123.307 Y167.059 E28.11966
G1 X121.294 Y165.24 E28.3207
G1 X119.232 Y163.48 E28.52158
G1 X116.099 Y160.991 E28.81808
G1 X115.543 Y160.562 E28.87012
G1 X115.122 Y160.21 E28.91078
G1 X114.808 Y159.928 E28.94206
G1 X114.457 Y159.584 E28.97847
G1 X113.912 Y159.016 E29.0368
G1 X113.706 Y158.78 E29.06002
G1 X113.44 Y158.456 E29.09108
G1 X113.236 Y158.198 E29.11545
G1 X113.116 Y158.038 E29.13027
G1 X112.83 Y157.634 E29.16695
G1 X112.607 Y157.298 E29.19683
G1 X112.37 Y156.913 E29.23033
G1 X112.087 Y156.412 E29.27297
G1 X111.906 Y156.065 E29.30197
G1 X111.653 Y155.531 E29.34576
G1 X111.452 Y155.053 E29.38418
G1 X111.399 Y154.912 E29.39534
G1 X111.143 Y154.184 E29.45252
G1 X111.153 Y154.18 E29.45332
G1 X111.062 Y153.93 E29.47304
G1 X110.842 Y153.135 E29.53416
G1 X110.788 Y152.912 E29.55116
G1 X110.728 Y152.632 E29.57238
G1 X110.647 Y152.149 E29.60867
G1 X110.517 Y151.097 E29.68722
G1 X110.487 Y150.685 E29.71783
G1 X110.474 Y150.315 E29.74526
G1 X110.472 Y149.837 E29.78068
G1 X110.483 Y149.44 E29.81011
G1 X110.511 Y148.951 E29.8464
G1 X110.557 Y148.482 E29.88132
G1 X110.576 Y148.346 E29.8915
G1 X110.716 Y147.451 E29.95862
G1 X110.753 Y147.248 E29.97391
G1 X110.802 Y147.016 E29.99148
G1 X110.851 Y146.813 E30.00696
G1 X110.975 Y146.363 E30.04155
G1 X111.306 Y145.32 E30.12263
G1 X111.493 Y144.839 E30.16087
G1 X111.817 Y144.115 E30.21965
G1 X112.012 Y143.738 E30.2511
G1 X112.486 Y142.903 E30.32225
G1 X112.594 Y142.724 E30.33774
G1 X112.735 Y142.504 E30.3571
G1 X112.853 Y142.331 E30.37262
G1 X113.218 Y141.826 E30.41879
G1 X113.447 Y141.532 E30.4464
G1 X113.776 Y141.138 E30.48444
G1 X114.07 Y140.81 E30.51708
G1 X114.406 Y140.466 E30.55271
G1 X114.974 Y139.921 E30.61104
G1 X115.22 Y139.706 E30.63525
G1 X115.544 Y139.44 E30.66631
G1 X115.802 Y139.236 E30.69068
G1 X115.962 Y139.116 E30.7055
G1 X116.352 Y138.84 E30.74091
G1 X116.7 Y138.608 E30.7719
G1 X117.074 Y138.378 E30.80443
G1 X117.593 Y138.084 E30.84863
G1 X117.926 Y137.911 E30.87644
G1 X118.47 Y137.652 E30.92109
G1 X118.928 Y137.459 E30.95791
G1 X119.083 Y137.401 E30.97018
G1 X119.817 Y137.143 E31.02783
G1 X119.82 Y137.153 E31.0286
G1 X120.07 Y137.062 E31.04832
G1 X120.865 Y136.842 E31.10944
G1 X121.088 Y136.788 E31.12644
G1 X121.368 Y136.728 E31.14766
G1 X121.851 Y136.647 E31.18395
G1 X122.903 Y136.517 E31.2625
G1 X123.536 Y136.48 E31.30948
G1 X123.956 Y136.475 E31.34061
G1 X124.578 Y136.485 E31.3867
