;FLAVOR:Marlin
;TIME:6245
;Filament used: 6.47076m
;Layer height: 0.2
;MINX:97.075
;MINY:86.92
;MINZ:0.25
;MAXX:202.925
;MAXY:212.763
;MAXZ:30.05
;TARGET_MACHINE.NAME:Artillery Sidewinder X1
;Generated with Cura_SteamEngine 5.6.0
M140 S90
M105
M190 S90
M104 S240
M105
M109 S240
M82 ;absolute extrusion mode
G28 ; home all axese
M420 S1 ; enable bed mesh
M117 Purge extruder
G92 E0 ; reset extruder
G1 Z1.0 F3000 ; move z up little to prevent scratching of surface
G1 X2 Y20 Z0.3 F5000.0 ; move to start-line position
G1 X2 Y200.0 Z0.3 F1500.0 E15 ; dra 1st line
G1 X2.5 Y200.0 Z0.5 F5000.0 ; move to side a little
G1 X2 Y20 Z0.4 F1500.0 E30 ; draw 2nd line
G92 E0 ; reset extruder
G1 Z1.0 F3000 ; move z up little to prevent scratching of surface
G92 E0
G92 E0
G1 F1200 E-1
;LAYER_COUNT:150
;LAYER:0
M106 S51
M204 S500
M205 X30 Y30
G0 F6000 X97.844 Y87.886 Z0.25
M204 S2000
M205 X8 Y8
;TYPE:SKIRT
G1 F1200 E0
G1 X98.173 Y87.573 E0.03221
G1 X98.503 Y87.339 E0.06091
G1 X98.815 Y87.177 E0.08585
G1 X98.989 Y87.11 E0.09908
G1 X99.488 Y86.977 E0.13571
G1 X99.584 Y86.959 E0.14264
G1 X100 Y86.92 E0.17228
G1 X200.134 Y86.926 E7.27555
G1 X200.445 Y86.963 E7.29776
G1 X200.813 Y87.045 E7.32451
G1 X200.903 Y87.073 E7.33119
G1 X201.251 Y87.219 E7.35797
G1 X201.602 Y87.415 E7.38648
G1 X201.889 Y87.627 E7.41179
G1 X201.959 Y87.689 E7.41843
G1 X202.272 Y88.018 E7.45064
G1 X202.506 Y88.348 E7.47934
G1 X202.668 Y88.66 E7.50428
G1 X202.735 Y88.834 E7.5175
G1 X202.868 Y89.333 E7.55414
G1 X202.886 Y89.429 E7.56107
G1 X202.925 Y89.845 E7.5907
G1 X202.919 Y129.979 E10.43772
G1 X202.894 Y130.219 E10.45483
G1 X202.814 Y130.603 E10.48266
G1 X202.704 Y130.931 E10.5072
G1 X202.532 Y131.29 E10.53544
G1 X202.316 Y131.624 E10.56365
G1 X202.07 Y131.915 E10.59068
G1 X163.484 Y170.501 E14.46167
G1 X163.135 Y170.786 E14.49363
G1 X162.791 Y171.001 E14.52241
G1 X162.479 Y171.143 E14.54673
G1 X162.084 Y171.272 E14.5762
G1 X161.774 Y171.329 E14.59856
G1 X161.507 Y171.351 E14.61757
G1 X161.48 Y171.633 E14.63766
G1 X161.4 Y172.017 E14.66549
G1 X161.29 Y172.345 E14.69003
G1 X161.118 Y172.704 E14.71827
G1 X160.902 Y173.038 E14.74648
G1 X160.656 Y173.329 E14.77351
G1 X122.07 Y211.915 E18.6445
G1 X121.721 Y212.2 E18.67646
G1 X121.453 Y212.373 E18.69909
G1 X121.315 Y212.448 E18.71023
G1 X120.969 Y212.587 E18.73668
G1 X120.503 Y212.714 E18.77095
G1 X120.188 Y212.757 E18.7935
G1 X120.028 Y212.763 E18.80486
G1 X119.628 Y212.732 E18.83332
G1 X119.237 Y212.652 E18.86163
G1 X118.936 Y212.557 E18.88402
G1 X118.645 Y212.426 E18.90666
G1 X118.565 Y212.381 E18.91317
G1 X118.231 Y212.156 E18.94173
G1 X117.988 Y211.948 E18.96443
G1 X117.712 Y211.651 E18.99319
G1 X117.526 Y211.389 E19.01598
G1 X117.368 Y211.094 E19.03972
G1 X117.237 Y210.775 E19.06418
G1 X117.164 Y210.532 E19.08218
G1 X117.13 Y210.369 E19.09399
G1 X117.075 Y209.845 E19.13137
G1 X117.075 Y192.77 E20.34263
G1 X99.866 Y192.764 E21.56339
G1 X99.555 Y192.727 E21.58561
G1 X99.187 Y192.645 E21.61236
G1 X99.097 Y192.617 E21.61904
G1 X98.749 Y192.471 E21.64581
G1 X98.398 Y192.275 E21.67433
G1 X98.111 Y192.063 E21.69964
G1 X98.041 Y192.001 E21.70628
G1 X97.728 Y191.672 E21.73849
G1 X97.494 Y191.342 E21.76719
G1 X97.332 Y191.03 E21.79212
G1 X97.265 Y190.856 E21.80535
G1 X97.132 Y190.357 E21.84198
G1 X97.114 Y190.261 E21.84891
G1 X97.075 Y189.845 E21.87855
G1 X97.081 Y89.711 E28.98182
G1 X97.118 Y89.4 E29.00404
G1 X97.2 Y89.032 E29.03078
G1 X97.228 Y88.942 E29.03747
G1 X97.374 Y88.594 E29.06424
G1 X97.57 Y88.243 E29.09276
G1 X97.782 Y87.956 E29.11807
G1 X97.844 Y87.886 E29.1247
M204 S500
M205 X30 Y30
G0 F6000 X98.298 Y88.351
M204 S2000
M205 X8 Y8
G1 F1200 X98.558 Y88.097 E29.15049
G1 X98.81 Y87.912 E29.17266
G1 X99.049 Y87.784 E29.1919
G1 X99.223 Y87.717 E29.20512
G1 X99.651 Y87.606 E29.23649
G1 X100 Y87.57 E29.26138
G1 X200.067 Y87.573 E36.35989
G1 X200.307 Y87.598 E36.37701
G1 X200.62 Y87.666 E36.39973
G1 X200.71 Y87.694 E36.40642
G1 X200.934 Y87.787 E36.42362
G1 X201.285 Y87.983 E36.45214
G1 X201.494 Y88.143 E36.47081
G1 X201.748 Y88.403 E36.4966
G1 X201.933 Y88.655 E36.51877
G1 X202.061 Y88.894 E36.53801
G1 X202.128 Y89.068 E36.55123
G1 X202.239 Y89.496 E36.5826
G1 X202.275 Y89.845 E36.60749
G1 X202.272 Y129.912 E39.44975
G1 X202.247 Y130.152 E39.46686
G1 X202.179 Y130.465 E39.48958
G1 X202.114 Y130.658 E39.50403
G1 X201.981 Y130.945 E39.52647
G1 X201.817 Y131.207 E39.5484
G1 X201.61 Y131.455 E39.57131
G1 X163.024 Y170.041 E43.4423
G1 X162.782 Y170.24 E43.46452
G1 X162.514 Y170.413 E43.48715
G1 X162.27 Y170.528 E43.50628
G1 X161.958 Y170.634 E43.52966
G1 X161.721 Y170.681 E43.5468
G1 X161.414 Y170.706 E43.56865
G1 X160.861 Y170.706 E43.60788
G1 X160.858 Y171.326 E43.65186
G1 X160.833 Y171.566 E43.66898
G1 X160.765 Y171.879 E43.6917
G1 X160.7 Y172.072 E43.70614
G1 X160.567 Y172.359 E43.72858
G1 X160.403 Y172.621 E43.75051
G1 X160.196 Y172.869 E43.77343
G1 X121.61 Y211.455 E47.64441
G1 X121.368 Y211.654 E47.66664
G1 X121.1 Y211.827 E47.68926
G1 X121.014 Y211.872 E47.69615
G1 X120.792 Y211.962 E47.71314
G1 X120.408 Y212.071 E47.74146
G1 X120.164 Y212.107 E47.75895
G1 X120.004 Y212.113 E47.77031
G1 X119.758 Y212.095 E47.78781
G1 X119.367 Y212.015 E47.81612
G1 X119.139 Y211.94 E47.83315
G1 X118.922 Y211.838 E47.85016
G1 X118.654 Y211.662 E47.8729
G1 X118.411 Y211.454 E47.89559
G1 X118.193 Y211.214 E47.91859
G1 X118.064 Y211.024 E47.93488
G1 X117.967 Y210.841 E47.94958
G1 X117.86 Y210.588 E47.96906
G1 X117.787 Y210.345 E47.98706
G1 X117.769 Y210.249 E47.99399
G1 X117.725 Y209.845 E48.02282
G1 X117.725 Y192.12 E49.28019
G1 X99.933 Y192.117 E50.54231
G1 X99.693 Y192.092 E50.55943
G1 X99.38 Y192.024 E50.58215
G1 X99.29 Y191.996 E50.58883
G1 X99.066 Y191.903 E50.60604
G1 X98.715 Y191.707 E50.63456
G1 X98.506 Y191.547 E50.65323
G1 X98.252 Y191.287 E50.67901
G1 X98.067 Y191.035 E50.70119
G1 X97.939 Y190.796 E50.72042
G1 X97.872 Y190.622 E50.73365
G1 X97.761 Y190.194 E50.76501
G1 X97.725 Y189.845 E50.7899
G1 X97.728 Y89.778 E57.88842
G1 X97.753 Y89.538 E57.90554
G1 X97.821 Y89.225 E57.92826
G1 X97.849 Y89.135 E57.93494
G1 X97.942 Y88.911 E57.95215
G1 X98.138 Y88.56 E57.98067
G1 X98.298 Y88.351 E57.99934
M204 S500
M205 X30 Y30
G0 F6000 X98.76 Y88.808
M204 S2000
M205 X8 Y8
G1 F1200 X98.952 Y88.614 E58.0187
G1 X99.132 Y88.477 E58.03475
G1 X99.283 Y88.391 E58.04707
G1 X99.457 Y88.324 E58.0603
G1 X99.726 Y88.252 E58.08005
G1 X100 Y88.22 E58.09962
G1 X200 Y88.22 E65.19339
G1 X200.24 Y88.245 E65.2105
G1 X200.473 Y88.299 E65.22747
G1 X200.624 Y88.358 E65.23897
G1 X200.906 Y88.511 E65.26173
G1 X201.037 Y88.605 E65.27317
G1 X201.231 Y88.797 E65.29253
G1 X201.368 Y88.977 E65.30858
G1 X201.454 Y89.128 E65.3209
G1 X201.521 Y89.302 E65.33413
G1 X201.593 Y89.571 E65.35388
G1 X201.625 Y89.845 E65.37345
G1 X201.625 Y129.845 E68.21096
G1 X201.6 Y130.085 E68.22808
G1 X201.546 Y130.318 E68.24504
G1 X201.503 Y130.437 E68.25402
G1 X201.394 Y130.667 E68.27207
G1 X201.314 Y130.795 E68.28278
G1 X201.15 Y130.995 E68.30113
G1 X162.564 Y169.581 E72.17211
G1 X162.374 Y169.734 E72.18942
G1 X162.17 Y169.861 E72.20646
G1 X162.054 Y169.915 E72.21554
G1 X161.813 Y170 E72.23367
G1 X161.664 Y170.034 E72.24451
G1 X161.414 Y170.056 E72.26231
G1 X160.211 Y170.056 E72.34765
G1 X160.211 Y171.259 E72.43299
G1 X160.186 Y171.499 E72.45011
G1 X160.132 Y171.732 E72.46707
G1 X160.089 Y171.851 E72.47605
G1 X159.98 Y172.081 E72.4941
G1 X159.9 Y172.209 E72.50481
G1 X159.736 Y172.409 E72.52316
G1 X121.15 Y210.995 E76.39414
G1 X120.96 Y211.148 E76.41145
G1 X120.756 Y211.275 E76.42849
G1 X120.608 Y211.339 E76.43993
G1 X120.3 Y211.43 E76.46272
G1 X120.14 Y211.457 E76.47423
G1 X119.98 Y211.463 E76.48558
G1 X119.818 Y211.448 E76.49712
G1 X119.505 Y211.38 E76.51985
G1 X119.354 Y211.327 E76.5312
G1 X119.211 Y211.256 E76.54252
G1 X119.077 Y211.168 E76.5539
G1 X118.834 Y210.96 E76.57659
G1 X118.725 Y210.84 E76.58809
G1 X118.633 Y210.709 E76.59944
G1 X118.566 Y210.588 E76.60925
G1 X118.459 Y210.335 E76.62874
G1 X118.414 Y210.172 E76.64074
G1 X118.375 Y209.845 E76.6641
G1 X118.375 Y191.47 E77.96758
G1 X100 Y191.47 E79.27105
G1 X99.76 Y191.445 E79.28817
G1 X99.527 Y191.391 E79.30514
G1 X99.376 Y191.332 E79.31664
G1 X99.094 Y191.179 E79.3394
G1 X98.963 Y191.085 E79.35084
G1 X98.769 Y190.893 E79.3702
G1 X98.632 Y190.713 E79.38624
G1 X98.546 Y190.562 E79.39857
G1 X98.479 Y190.388 E79.4118
G1 X98.407 Y190.119 E79.43155
G1 X98.375 Y189.845 E79.45112
G1 X98.375 Y89.845 E86.54488
G1 X98.4 Y89.605 E86.562
G1 X98.454 Y89.372 E86.57897
G1 X98.513 Y89.221 E86.59047
G1 X98.666 Y88.939 E86.61323
G1 X98.76 Y88.808 E86.62466
M204 S500
M205 X30 Y30
G0 F6000 X99.714 Y89.69
M204 S2000
M205 X8 Y8
G1 F1200 X99.823 Y89.572 E86.63606
G1 X100 Y89.52 E86.64915
G1 X200 Y89.52 E93.74291
G1 X200.155 Y89.559 E93.75425
G1 X200.273 Y89.668 E93.76564
G1 X200.325 Y89.845 E93.77873
G1 X200.325 Y129.845 E96.61623
G1 X200.286 Y130 E96.62757
G1 X200.23 Y130.075 E96.63421
G1 X161.644 Y168.661 E100.5052
G1 X161.506 Y168.743 E100.51658
G1 X161.414 Y168.756 E100.52318
G1 X158.911 Y168.756 E100.70073
G1 X158.911 Y171.259 E100.87829
G1 X158.872 Y171.414 E100.88963
G1 X158.816 Y171.489 E100.89627
G1 X120.23 Y210.075 E104.76725
G1 X120.092 Y210.157 E104.77864
G1 X119.932 Y210.163 E104.79
G1 X119.789 Y210.092 E104.80132
G1 X119.697 Y209.961 E104.81268
G1 X119.675 Y209.845 E104.82105
G1 X119.675 Y190.17 E106.21675
G1 X100 Y190.17 E107.61245
G1 X99.845 Y190.131 E107.62379
G1 X99.727 Y190.022 E107.63518
G1 X99.675 Y189.845 E107.64827
G1 X99.675 Y89.845 E114.74203
G1 X99.714 Y89.69 E114.75337
M204 S500
M205 X30 Y30
G0 F6000 X99.237 Y89.249
M204 S2000
M205 X8 Y8
G1 F1200 X99.346 Y89.131 E114.76477
G1 X99.526 Y88.994 E114.78081
G1 X99.64 Y88.948 E114.78953
G1 X99.817 Y88.896 E114.80262
G1 X100 Y88.87 E114.81573
G1 X200 Y88.87 E121.90949
G1 X200.159 Y88.89 E121.92086
G1 X200.314 Y88.929 E121.9322
G1 X200.596 Y89.082 E121.95496
G1 X200.714 Y89.191 E121.96635
G1 X200.851 Y89.371 E121.9824
G1 X200.897 Y89.485 E121.99112
G1 X200.949 Y89.662 E122.00421
G1 X200.975 Y89.845 E122.01732
G1 X200.975 Y129.845 E124.85483
G1 X200.955 Y130.004 E124.86619
G1 X200.916 Y130.159 E124.87753
G1 X200.807 Y130.389 E124.89559
G1 X200.69 Y130.535 E124.90886
G1 X162.104 Y169.121 E128.77984
G1 X161.976 Y169.22 E128.79132
G1 X161.838 Y169.302 E128.80271
G1 X161.597 Y169.387 E128.82084
G1 X161.414 Y169.406 E128.83389
G1 X159.561 Y169.406 E128.96534
G1 X159.561 Y171.259 E129.09678
G1 X159.541 Y171.418 E129.10815
G1 X159.502 Y171.573 E129.11949
G1 X159.393 Y171.803 E129.13755
G1 X159.276 Y171.949 E129.15082
G1 X120.69 Y210.535 E133.0218
G1 X120.562 Y210.634 E133.03328
G1 X120.424 Y210.716 E133.04467
G1 X120.116 Y210.807 E133.06745
G1 X119.956 Y210.813 E133.07881
G1 X119.643 Y210.745 E133.10153
G1 X119.5 Y210.674 E133.11286
G1 X119.257 Y210.466 E133.13555
G1 X119.165 Y210.335 E133.1469
G1 X119.058 Y210.082 E133.16639
G1 X119.025 Y209.845 E133.18336
G1 X119.025 Y190.82 E134.53295
G1 X100 Y190.82 E135.88254
G1 X99.841 Y190.8 E135.89391
G1 X99.686 Y190.761 E135.90525
G1 X99.404 Y190.608 E135.928
G1 X99.286 Y190.499 E135.9394
G1 X99.149 Y190.319 E135.95545
G1 X99.103 Y190.205 E135.96417
G1 X99.051 Y190.028 E135.97725
G1 X99.025 Y189.845 E135.99037
G1 X99.025 Y89.845 E143.08413
G1 X99.045 Y89.686 E143.0955
G1 X99.084 Y89.531 E143.10683
G1 X99.237 Y89.249 E143.12959
M204 S500
M205 X30 Y30
;MESH:acceleration_test_piece.stl
G0 F6000 X100.326 Y90.171
M205 X4 Y4
;TYPE:WALL-OUTER
G1 F1200 X100.325 Y189.52 E150.17718
G1 X120.026 Y189.52 E151.57472
G1 X120.08 Y189.529 E151.5786
G1 X120.15 Y189.556 E151.58392
G1 X120.223 Y189.608 E151.59028
G1 X120.286 Y189.688 E151.59751
G1 X120.314 Y189.758 E151.60285
G1 X120.324 Y189.814 E151.60689
G1 X120.326 Y209.058 E152.97201
G1 X158.261 Y171.123 E156.77769
G1 X158.265 Y168.374 E156.9727
G1 X158.304 Y168.267 E156.98077
G1 X158.342 Y168.215 E156.98534
G1 X158.392 Y168.169 E156.99016
G1 X158.468 Y168.127 E156.99632
G1 X158.553 Y168.107 E157.00252
G1 X161.278 Y168.105 E157.19582
G1 X199.675 Y129.709 E161.0478
G1 X199.675 Y90.17 E163.8526
G1 X100.326 Y90.171 E170.90018
M205 X30 Y30
G0 F6000 X100.976 Y90.821
M205 X4 Y4
;TYPE:WALL-INNER
G1 F1200 X100.975 Y188.87 E177.85555
G1 X120.076 Y188.872 E179.21053
G1 X120.21 Y188.892 E179.22014
G1 X120.295 Y188.915 E179.22638
G1 X120.45 Y188.979 E179.23828
G1 X120.556 Y189.043 E179.24706
G1 X120.708 Y189.173 E179.26125
G1 X120.784 Y189.264 E179.26966
G1 X120.888 Y189.44 E179.28416
G1 X120.941 Y189.585 E179.29511
G1 X120.972 Y189.753 E179.30723
G1 X120.976 Y207.489 E180.56538
G1 X157.611 Y170.854 E184.24064
G1 X157.615 Y168.335 E184.41933
G1 X157.638 Y168.202 E184.42891
G1 X157.696 Y168.031 E184.44172
G1 X157.742 Y167.941 E184.44889
G1 X157.856 Y167.783 E184.46271
G1 X157.937 Y167.702 E184.47083
G1 X158.04 Y167.622 E184.48009
G1 X158.182 Y167.543 E184.49161
G1 X158.266 Y167.509 E184.49804
G1 X158.413 Y167.471 E184.50881
G1 X158.586 Y167.455 E184.52114
G1 X161.009 Y167.455 E184.69302
G1 X199.025 Y129.44 E188.50677
G1 X199.025 Y90.82 E191.24638
G1 X100.976 Y90.821 E198.20175
M205 X30 Y30
G1 F1200 E197.20175
;MESH:NONMESH
G0 F600 X100.976 Y90.821 Z0.45
G0 F6000 X100.326 Y90.171
;TIME_ELAPSED:145.200905
;LAYER:1
M205 X4 Y4
;TYPE:WALL-OUTER
;MESH:acceleration_test_piece.stl
G1 F1200 E198.20175
G1 X100.325 Y189.52 E203.57133
G1 X120.026 Y189.52 E204.63613
G1 X120.08 Y189.529 E204.63909
G1 X120.15 Y189.556 E204.64314
G1 X120.223 Y189.608 E204.64798
G1 X120.286 Y189.688 E204.65349
G1 X120.314 Y189.758 E204.65756
G1 X120.324 Y189.814 E204.66064
G1 X120.326 Y209.058 E205.70073
G1 X158.261 Y171.123 E208.60029
G1 X158.265 Y168.374 E208.74887
G1 X158.304 Y168.267 E208.75503
G1 X158.342 Y168.215 E208.75851
G1 X158.392 Y168.169 E208.76218
G1 X158.468 Y168.127 E208.76687
G1 X158.553 Y168.107 E208.77159
G1 X161.278 Y168.105 E208.91887
G1 X199.675 Y129.709 E211.85371
G1 X199.675 Y90.17 E213.9907
G1 X100.326 Y90.171 E219.36029
M205 X30 Y30
G0 F6000 X100.976 Y90.821
M205 X4 Y4
;TYPE:WALL-INNER
G1 F1200 X100.975 Y188.87 E224.65961
G1 X120.076 Y188.872 E225.69198
G1 X120.21 Y188.892 E225.6993
G1 X120.295 Y188.915 E225.70406
G1 X120.45 Y188.979 E225.71312
G1 X120.556 Y189.043 E225.71982
G1 X120.708 Y189.173 E225.73063
G1 X120.784 Y189.264 E225.73704
G1 X120.888 Y189.44 E225.74808
G1 X120.941 Y189.585 E225.75643
G1 X120.972 Y189.753 E225.76566
G1 X120.976 Y207.489 E226.72425
G1 X157.611 Y170.854 E229.52445
G1 X157.615 Y168.335 E229.6606
G1 X157.638 Y168.202 E229.66789
G1 X157.696 Y168.031 E229.67765
G1 X157.742 Y167.941 E229.68311
G1 X157.856 Y167.783 E229.69364
G1 X157.937 Y167.702 E229.69983
G1 X158.04 Y167.622 E229.70688
G1 X158.182 Y167.543 E229.71567
G1 X158.266 Y167.509 E229.72056
G1 X158.413 Y167.471 E229.72877
G1 X158.586 Y167.455 E229.73816
G1 X161.009 Y167.455 E229.86912
G1 X199.025 Y129.44 E232.77483
G1 X199.025 Y90.82 E234.86216
G1 X100.976 Y90.821 E240.16148
M205 X30 Y30
G1 F1200 E239.16148
;MESH:NONMESH
G0 F600 X100.976 Y90.821 Z0.65
G0 F6000 X100.325 Y90.17
;TIME_ELAPSED:184.750570
;LAYER:2
M205 X4 Y4
;TYPE:WALL-OUTER
;MESH:acceleration_test_piece.stl
G1 F1200 E240.16148
G1 X100.325 Y113.138 E241.40285
G1 X100.499 Y113.138 E241.41225
G1 X100.738 Y113.241 E241.42632
G1 X100.789 Y113.312 E241.43104
G1 X100.825 Y113.439 E241.43818
G1 X100.82 Y114.046 E241.47099
G1 X100.8 Y114.114 E241.47482
G1 X100.775 Y114.161 E241.47769
G1 X100.704 Y114.241 E241.48348
G1 X100.5 Y114.312 E241.49515
G1 X100.325 Y114.312 E241.50461
G1 X100.325 Y115.75 E241.58233
G1 X100.501 Y115.751 E241.59184
G1 X100.704 Y115.822 E241.60346
G1 X100.775 Y115.902 E241.60925
G1 X100.8 Y115.949 E241.61212
G1 X100.823 Y116.034 E241.61688
G1 X100.822 Y116.612 E241.64812
G1 X100.794 Y116.703 E241.65327
G1 X100.748 Y116.774 E241.65784
G1 X100.501 Y116.888 E241.67254
G1 X100.325 Y116.889 E241.68206
G1 X100.325 Y189.52 E245.6076
G1 X120.026 Y189.52 E246.67239
G1 X120.08 Y189.529 E246.67535
G1 X120.15 Y189.556 E246.6794
G1 X120.223 Y189.608 E246.68425
G1 X120.286 Y189.688 E246.68975
G1 X120.314 Y189.758 E246.69383
G1 X120.324 Y189.814 E246.6969
G1 X120.326 Y209.058 E247.73699
G1 X158.261 Y171.123 E250.63656
G1 X158.265 Y168.374 E250.78513
