;FLAVOR:Marlin
;TIME:242
;Filament used: 0.156604m
;Layer height: 0.2
;MINX:39.335
;MINY:40.25
;MINZ:0.2
;MAXX:259.75
;MAXY:260.665
;MAXZ:0.2
;LINEARADVANCEPROCESSED
;Generated with Cura_SteamEngine 4.6.0
M140 S80
M105
M190 S80
M104 S240
M105
M109 S240
M82 ;absolute extrusion mode
G28 ; home all axes
M420 S1 ; enable bed mesh
M117 Purge extruder
G92 E0 ; reset extruder
G1 Z1.0 F3000 ; move z up little to prevent scratching of surface
G1 X2 Y20 Z0.3 F5000.0 ; move to start-line position
G1 X2 Y200.0 Z0.3 F1500.0 E15 ; draw 1st line
G1 X2 Y200.0 Z0.4 F5000.0 ; move to side a little
G1 X2 Y20 Z0.4 F1500.0 E30 ; draw 2nd line
G92 E0 ; reset extruder
G1 Z1.0 F3000 ; move z up little to prevent scratching of surface
G92 E0
G92 E0
G1 F1500 E-2
;LAYER_COUNT:1
M900 K0.200000 T0 ;added by LinearAdvanceSettingPlugin
;LAYER:0
M107
;MESH:20mmsquar.stl(1)
G0 F1800 X40.75 Y140.75 Z0.2
;TYPE:WALL-INNER
G1 F1500 E0
G1 F1200 X59.25 Y140.75 E0.72299
G1 X59.25 Y159.25 E1.44598
G1 X40.75 Y159.25 E2.16898
G1 X40.75 Y140.75 E2.89197
G0 F1800 X40.25 Y140.25
;TYPE:WALL-OUTER
G1 F1200 X59.75 Y140.25 E3.65404
G1 X59.75 Y159.75 E4.41611
G1 X40.25 Y159.75 E5.17819
G1 X40.25 Y140.25 E5.94026
G0 F1800 X41.24 Y141.24
;TYPE:SKIN
G1 F1200 X58.76 Y141.24 E6.62495
G1 X58.76 Y158.76 E7.30965
G1 X41.24 Y158.76 E7.99434
G1 X41.24 Y141.24 E8.67903
G1 F1500 E6.67903
G0 F1800 X39.335 Y141.24
G0 X39.347 Y160.653
G0 X49.74 Y160.665
G0 X49.74 Y150.26
G1 F1500 E8.67903
G1 F1200 X49.74 Y149.74 E8.69935
G1 X50.26 Y149.74 E8.71968
G1 X50.26 Y150.26 E8.74
G1 X49.74 Y150.26 E8.76032
G0 F1800 X49.24 Y150.76
G1 F1200 X49.24 Y149.24 E8.81972
G1 X50.76 Y149.24 E8.87913
G1 X50.76 Y150.76 E8.93853
G1 X49.24 Y150.76 E8.99793
G0 F1800 X48.74 Y151.26
G1 F1200 X48.74 Y148.74 E9.09641
G1 X51.26 Y148.74 E9.1949
G1 X51.26 Y151.26 E9.29338
G1 X48.74 Y151.26 E9.39186
G0 F1800 X48.24 Y151.76
G1 F1200 X48.24 Y148.24 E9.52943
G1 X51.76 Y148.24 E9.66699
G1 X51.76 Y151.76 E9.80456
G1 X48.24 Y151.76 E9.94212
G0 F1800 X47.74 Y152.26
G1 F1200 X47.74 Y147.74 E10.11876
G1 X52.26 Y147.74 E10.29541
G1 X52.26 Y152.26 E10.47205
G1 X47.74 Y152.26 E10.6487
G0 F1800 X47.24 Y152.76
G1 F1200 X47.24 Y147.24 E10.86442
G1 X52.76 Y147.24 E11.08015
G1 X52.76 Y152.76 E11.29587
G1 X47.24 Y152.76 E11.5116
G0 F1800 X46.74 Y153.26
G1 F1200 X46.74 Y146.74 E11.7664
G1 X53.26 Y146.74 E12.02121
G1 X53.26 Y153.26 E12.27602
G1 X46.74 Y153.26 E12.53082
G0 F1800 X46.24 Y153.76
G1 F1200 X46.24 Y146.24 E12.82471
G1 X53.76 Y146.24 E13.1186
G1 X53.76 Y153.76 E13.41248
G1 X46.24 Y153.76 E13.70637
G0 F1800 X45.74 Y154.26
G1 F1200 X45.74 Y145.74 E14.03934
G1 X54.26 Y145.74 E14.3723
G1 X54.26 Y154.26 E14.70527
G1 X45.74 Y154.26 E15.03824
G0 F1800 X45.24 Y154.76
G1 F1200 X45.24 Y145.24 E15.41029
G1 X54.76 Y145.24 E15.78233
G1 X54.76 Y154.76 E16.15438
G1 X45.24 Y154.76 E16.52643
G0 F1800 X44.74 Y155.26
G1 F1200 X44.74 Y144.74 E16.93756
G1 X55.26 Y144.74 E17.34869
G1 X55.26 Y155.26 E17.75981
G1 X44.74 Y155.26 E18.17094
G0 F1800 X44.24 Y155.76
G1 F1200 X44.24 Y144.24 E18.62115
G1 X55.76 Y144.24 E19.07136
G1 X55.76 Y155.76 E19.52157
G1 X44.24 Y155.76 E19.97178
G0 F1800 X43.74 Y156.26
G1 F1200 X43.74 Y143.74 E20.46107
G1 X56.26 Y143.74 E20.95036
G1 X56.26 Y156.26 E21.43965
G1 X43.74 Y156.26 E21.92894
G0 F1800 X43.24 Y156.76
G1 F1200 X43.24 Y143.24 E22.45731
G1 X56.76 Y143.24 E22.98568
G1 X56.76 Y156.76 E23.51405
G1 X43.24 Y156.76 E24.04242
G0 F1800 X42.74 Y157.26
G1 F1200 X42.74 Y142.74 E24.60987
G1 X57.26 Y142.74 E25.17732
G1 X57.26 Y157.26 E25.74477
G1 X42.74 Y157.26 E26.31223
G0 F1800 X42.24 Y157.76
G1 F1200 X42.24 Y142.24 E26.91876
G1 X57.76 Y142.24 E27.52529
G1 X57.76 Y157.76 E28.13182
G1 X42.24 Y157.76 E28.73835
G0 F1800 X41.74 Y158.26
G1 F1200 X41.74 Y141.74 E29.38397
G1 X58.26 Y141.74 E30.02958
G1 X58.26 Y158.26 E30.67519
G1 X41.74 Y158.26 E31.3208
G1 F1500 E29.3208
;MESH:20mmsquar.stl
G0 F1800 X41.74 Y160.665
G0 X60.653 Y160.653
G0 X139.335 Y159.25
G0 X140.75 Y159.25
;TYPE:WALL-INNER
G1 F1500 E31.3208
G1 F1200 X140.75 Y140.75 E32.0438
G1 X159.25 Y140.75 E32.76679
G1 X159.25 Y159.25 E33.48978
G1 X140.75 Y159.25 E34.21277
G0 F1800 X140.25 Y159.75
;TYPE:WALL-OUTER
G1 F1200 X140.25 Y140.25 E34.97484
G1 X159.75 Y140.25 E35.73692
G1 X159.75 Y159.75 E36.49899
G1 X140.25 Y159.75 E37.26106
G0 F1800 X141.24 Y158.76
;TYPE:SKIN
G1 F1200 X141.24 Y141.24 E37.94576
G1 X158.76 Y141.24 E38.63045
G1 X158.76 Y158.76 E39.31514
G1 X141.24 Y158.76 E39.99984
G0 F1800 X149.74 Y150.26
G1 F1200 X149.74 Y149.74 E40.02016
G1 X150.26 Y149.74 E40.04048
G1 X150.26 Y150.26 E40.0608
G1 X149.74 Y150.26 E40.08112
G0 F1800 X149.24 Y150.76
G1 F1200 X149.24 Y149.24 E40.14053
G1 X150.76 Y149.24 E40.19993
G1 X150.76 Y150.76 E40.25933
G1 X149.24 Y150.76 E40.31873
G0 F1800 X148.74 Y151.26
G1 F1200 X148.74 Y148.74 E40.41722
G1 X151.26 Y148.74 E40.5157
G1 X151.26 Y151.26 E40.61418
G1 X148.74 Y151.26 E40.71267
G0 F1800 X148.24 Y151.76
G1 F1200 X148.24 Y148.24 E40.85023
G1 X151.76 Y148.24 E40.98779
G1 X151.76 Y151.76 E41.12536
G1 X148.24 Y151.76 E41.26292
G0 F1800 X147.74 Y152.26
G1 F1200 X147.74 Y147.74 E41.43957
G1 X152.26 Y147.74 E41.61621
G1 X152.26 Y152.26 E41.79286
G1 X147.74 Y152.26 E41.9695
G0 F1800 X147.24 Y152.76
G1 F1200 X147.24 Y147.24 E42.18523
G1 X152.76 Y147.24 E42.40095
G1 X152.76 Y152.76 E42.61668
G1 X147.24 Y152.76 E42.8324
G0 F1800 X146.74 Y153.26
G1 F1200 X146.74 Y146.74 E43.08721
G1 X153.26 Y146.74 E43.34201
G1 X153.26 Y153.26 E43.59682
G1 X146.74 Y153.26 E43.85163
G0 F1800 X146.24 Y153.76
G1 F1200 X146.24 Y146.24 E44.14551
G1 X153.76 Y146.24 E44.4394
G1 X153.76 Y153.76 E44.73329
G1 X146.24 Y153.76 E45.02717
G0 F1800 X145.74 Y154.26
G1 F1200 X145.74 Y145.74 E45.36014
G1 X154.26 Y145.74 E45.69311
G1 X154.26 Y154.26 E46.02607
G1 X145.74 Y154.26 E46.35904
G0 F1800 X145.24 Y154.76
G1 F1200 X145.24 Y145.24 E46.73109
G1 X154.76 Y145.24 E47.10314
G1 X154.76 Y154.76 E47.47518
G1 X145.24 Y154.76 E47.84723
G0 F1800 X144.74 Y155.26
G1 F1200 X144.74 Y144.74 E48.25836
G1 X155.26 Y144.74 E48.66949
G1 X155.26 Y155.26 E49.08062
G1 X144.74 Y155.26 E49.49175
G0 F1800 X144.24 Y155.76
G1 F1200 X144.24 Y144.24 E49.94196
G1 X155.76 Y144.24 E50.39216
G1 X155.76 Y155.76 E50.84237
G1 X144.24 Y155.76 E51.29258
G0 F1800 X143.74 Y156.26
G1 F1200 X143.74 Y143.74 E51.78187
G1 X156.26 Y143.74 E52.27116
G1 X156.26 Y156.26 E52.76045
G1 X143.74 Y156.26 E53.24974
G0 F1800 X143.24 Y156.76
G1 F1200 X143.24 Y143.24 E53.77811
G1 X156.76 Y143.24 E54.30648
G1 X156.76 Y156.76 E54.83485
G1 X143.24 Y156.76 E55.36322
G0 F1800 X142.74 Y157.26
G1 F1200 X142.74 Y142.74 E55.93068
G1 X157.26 Y142.74 E56.49813
G1 X157.26 Y157.26 E57.06558
G1 X142.74 Y157.26 E57.63303
G0 F1800 X142.24 Y157.76
G1 F1200 X142.24 Y142.24 E58.23956
G1 X157.76 Y142.24 E58.84609
G1 X157.76 Y157.76 E59.45262
G1 X142.24 Y157.76 E60.05916
G0 F1800 X141.74 Y158.26
G1 F1200 X141.74 Y141.74 E60.70477
G1 X158.26 Y141.74 E61.35038
G1 X158.26 Y158.26 E61.99599
G1 X141.74 Y158.26 E62.64161
G1 F1500 E60.64161
;MESH:20mmsquar.stl(2)
G0 F1800 X141.74 Y160.665
G0 X160.653 Y160.653
G0 X239.335 Y159.25
G0 X240.75 Y159.25
;TYPE:WALL-INNER
G1 F1500 E62.64161
G1 F1200 X240.75 Y140.75 E63.3646
G1 X259.25 Y140.75 E64.08759
G1 X259.25 Y159.25 E64.81058
G1 X240.75 Y159.25 E65.53357
G0 F1800 X240.25 Y159.75
;TYPE:WALL-OUTER
G1 F1200 X240.25 Y140.25 E66.29565
G1 X259.75 Y140.25 E67.05772
G1 X259.75 Y159.75 E67.81979
G1 X240.25 Y159.75 E68.58187
G0 F1800 X241.24 Y158.76
;TYPE:SKIN
G1 F1200 X241.24 Y141.24 E69.26656
G1 X258.76 Y141.24 E69.95125
G1 X258.76 Y158.76 E70.63595
G1 X241.24 Y158.76 E71.32064
G0 F1800 X249.74 Y150.26
G1 F1200 X249.74 Y149.74 E71.34096
G1 X250.26 Y149.74 E71.36128
G1 X250.26 Y150.26 E71.3816
G1 X249.74 Y150.26 E71.40193
G0 F1800 X249.24 Y150.76
G1 F1200 X249.24 Y149.24 E71.46133
G1 X250.76 Y149.24 E71.52073
G1 X250.76 Y150.76 E71.58013
G1 X249.24 Y150.76 E71.63954
G0 F1800 X248.74 Y151.26
G1 F1200 X248.74 Y148.74 E71.73802
G1 X251.26 Y148.74 E71.8365
G1 X251.26 Y151.26 E71.93499
G1 X248.74 Y151.26 E72.03347
G0 F1800 X248.24 Y151.76
G1 F1200 X248.24 Y148.24 E72.17103
G1 X251.76 Y148.24 E72.3086
G1 X251.76 Y151.76 E72.44616
G1 X248.24 Y151.76 E72.58373
G0 F1800 X247.74 Y152.26
G1 F1200 X247.74 Y147.74 E72.76037
G1 X252.26 Y147.74 E72.93701
G1 X252.26 Y152.26 E73.11366
G1 X247.74 Y152.26 E73.2903
G0 F1800 X247.24 Y152.76
G1 F1200 X247.24 Y147.24 E73.50603
G1 X252.76 Y147.24 E73.72175
G1 X252.76 Y152.76 E73.93748
G1 X247.24 Y152.76 E74.15321
G0 F1800 X246.74 Y153.26
G1 F1200 X246.74 Y146.74 E74.40801
G1 X253.26 Y146.74 E74.66282
G1 X253.26 Y153.26 E74.91762
G1 X246.74 Y153.26 E75.17243
G0 F1800 X246.24 Y153.76
G1 F1200 X246.24 Y146.24 E75.46632
G1 X253.76 Y146.24 E75.7602
G1 X253.76 Y153.76 E76.05409
G1 X246.24 Y153.76 E76.34797
G0 F1800 X245.74 Y154.26
G1 F1200 X245.74 Y145.74 E76.68094
G1 X254.26 Y145.74 E77.01391
G1 X254.26 Y154.26 E77.34688
G1 X245.74 Y154.26 E77.67984
G0 F1800 X245.24 Y154.76
G1 F1200 X245.24 Y145.24 E78.05189
G1 X254.76 Y145.24 E78.42394
G1 X254.76 Y154.76 E78.79599
G1 X245.24 Y154.76 E79.16804
G0 F1800 X244.74 Y155.26
G1 F1200 X244.74 Y144.74 E79.57916
G1 X255.26 Y144.74 E79.99029
G1 X255.26 Y155.26 E80.40142
G1 X244.74 Y155.26 E80.81255
G0 F1800 X244.24 Y155.76
G1 F1200 X244.24 Y144.24 E81.26276
G1 X255.76 Y144.24 E81.71297
G1 X255.76 Y155.76 E82.16318
G1 X244.24 Y155.76 E82.61339
G0 F1800 X243.74 Y156.26
G1 F1200 X243.74 Y143.74 E83.10268
G1 X256.26 Y143.74 E83.59197
G1 X256.26 Y156.26 E84.08126
G1 X243.74 Y156.26 E84.57055
G0 F1800 X243.24 Y156.76
G1 F1200 X243.24 Y143.24 E85.09892
G1 X256.76 Y143.24 E85.62729
G1 X256.76 Y156.76 E86.15566
G1 X243.24 Y156.76 E86.68403
G0 F1800 X242.74 Y157.26
G1 F1200 X242.74 Y142.74 E87.25148
G1 X257.26 Y142.74 E87.81893
G1 X257.26 Y157.26 E88.38638
G1 X242.74 Y157.26 E88.95383
G0 F1800 X242.24 Y157.76
G1 F1200 X242.24 Y142.24 E89.56036
G1 X257.76 Y142.24 E90.1669
G1 X257.76 Y157.76 E90.77343
G1 X242.24 Y157.76 E91.37996
G0 F1800 X241.74 Y158.26
G1 F1200 X241.74 Y141.74 E92.02557
G1 X258.26 Y141.74 E92.67118
G1 X258.26 Y158.26 E93.3168
G1 X241.74 Y158.26 E93.96241
G1 F1500 E91.96241
;MESH:20mmsquar.stl(3)
G0 F1800 X239.335 Y158.26
G0 X159.25 Y239.335
G0 X159.25 Y240.75
;TYPE:WALL-INNER
G1 F1500 E93.96241
G1 F1200 X159.25 Y259.25 E94.6854
G1 X140.75 Y259.25 E95.40839
G1 X140.75 Y240.75 E96.13139
G1 X159.25 Y240.75 E96.85438
G0 F1800 X159.75 Y240.25
;TYPE:WALL-OUTER
G1 F1200 X159.75 Y259.75 E97.61645
G1 X140.25 Y259.75 E98.37852
G1 X140.25 Y240.25 E99.1406
G1 X159.75 Y240.25 E99.90267
G0 F1800 X158.76 Y241.24
;TYPE:SKIN
G1 F1200 X158.76 Y258.76 E100.58736
G1 X141.24 Y258.76 E101.27206
G1 X141.24 Y241.24 E101.95675
G1 X158.76 Y241.24 E102.64144
G1 F1500 E100.64144
G0 F1800 X158.76 Y239.335
G0 X160.653 Y239.347
G0 X160.653 Y260.653
G0 X149.74 Y260.665
G0 X149.74 Y250.26
G1 F1500 E102.64144
G1 F1200 X149.74 Y249.74 E102.66176
G1 X150.26 Y249.74 E102.68209
G1 X150.26 Y250.26 E102.70241
G1 X149.74 Y250.26 E102.72273
G0 F1800 X149.24 Y250.76
G1 F1200 X149.24 Y249.24 E102.78213
G1 X150.76 Y249.24 E102.84153
G1 X150.76 Y250.76 E102.90094
G1 X149.24 Y250.76 E102.96034
G0 F1800 X148.74 Y251.26
G1 F1200 X148.74 Y248.74 E103.05882
G1 X151.26 Y248.74 E103.15731
G1 X151.26 Y251.26 E103.25579
G1 X148.74 Y251.26 E103.35427
G0 F1800 X148.24 Y251.76
G1 F1200 X148.24 Y248.24 E103.49184
G1 X151.76 Y248.24 E103.6294
G1 X151.76 Y251.76 E103.76696
G1 X148.24 Y251.76 E103.90453
G0 F1800 X147.74 Y252.26
G1 F1200 X147.74 Y247.74 E104.08117
G1 X152.26 Y247.74 E104.25782
G1 X152.26 Y252.26 E104.43446
G1 X147.74 Y252.26 E104.61111
G0 F1800 X147.24 Y252.76
G1 F1200 X147.24 Y247.24 E104.82683
G1 X152.76 Y247.24 E105.04256
G1 X152.76 Y252.76 E105.25828
G1 X147.24 Y252.76 E105.47401
G0 F1800 X146.74 Y253.26
G1 F1200 X146.74 Y246.74 E105.72881
G1 X153.26 Y246.74 E105.98362
G1 X153.26 Y253.26 E106.23843
G1 X146.74 Y253.26 E106.49323
G0 F1800 X146.24 Y253.76
G1 F1200 X146.24 Y246.24 E106.78712
G1 X153.76 Y246.24 E107.081
G1 X153.76 Y253.76 E107.37489
G1 X146.24 Y253.76 E107.66878
G0 F1800 X145.74 Y254.26
G1 F1200 X145.74 Y245.74 E108.00175
G1 X154.26 Y245.74 E108.33471
G1 X154.26 Y254.26 E108.66768
G1 X145.74 Y254.26 E109.00065
G0 F1800 X145.24 Y254.76
G1 F1200 X145.24 Y245.24 E109.37269
G1 X154.76 Y245.24 E109.74474
G1 X154.76 Y254.76 E110.11679
G1 X145.24 Y254.76 E110.48884
G0 F1800 X144.74 Y255.26
G1 F1200 X144.74 Y244.74 E110.89997
G1 X155.26 Y244.74 E111.3111
G1 X155.26 Y255.26 E111.72222
G1 X144.74 Y255.26 E112.13335
G0 F1800 X144.24 Y255.76
G1 F1200 X144.24 Y244.24 E112.58356
G1 X155.76 Y244.24 E113.03377
G1 X155.76 Y255.76 E113.48398
G1 X144.24 Y255.76 E113.93419
G0 F1800 X143.74 Y256.26
G1 F1200 X143.74 Y243.74 E114.42348
G1 X156.26 Y243.74 E114.91277
G1 X156.26 Y256.26 E115.40206
G1 X143.74 Y256.26 E115.89135
G0 F1800 X143.24 Y256.76
G1 F1200 X143.24 Y243.24 E116.41972
G1 X156.76 Y243.24 E116.94809
G1 X156.76 Y256.76 E117.47646
G1 X143.24 Y256.76 E118.00483
G0 F1800 X142.74 Y257.26
G1 F1200 X142.74 Y242.74 E118.57228
G1 X157.26 Y242.74 E119.13973
G1 X157.26 Y257.26 E119.70718
G1 X142.74 Y257.26 E120.27464
G0 F1800 X142.24 Y257.76
G1 F1200 X142.24 Y242.24 E120.88117
G1 X157.76 Y242.24 E121.4877
G1 X157.76 Y257.76 E122.09423
G1 X142.24 Y257.76 E122.70076
G0 F1800 X141.74 Y258.26
G1 F1200 X141.74 Y241.74 E123.34637
G1 X158.26 Y241.74 E123.99199
G1 X158.26 Y258.26 E124.6376
G1 X141.74 Y258.26 E125.28321
G1 F1500 E123.28321
;MESH:20mmsquar.stl(4)
G0 F1800 X139.335 Y258.26
G0 X139.347 Y139.347
G0 X140.75 Y60.665
G0 X140.75 Y59.25
;TYPE:WALL-INNER
G1 F1500 E125.28321
G1 F1200 X140.75 Y40.75 E126.0062
G1 X159.25 Y40.75 E126.7292
G1 X159.25 Y59.25 E127.45219
G1 X140.75 Y59.25 E128.17518
G0 F1800 X140.25 Y59.75
;TYPE:WALL-OUTER
G1 F1200 X140.25 Y40.25 E128.93725
G1 X159.75 Y40.25 E129.69933
G1 X159.75 Y59.75 E130.4614
G1 X140.25 Y59.75 E131.22347
G0 F1800 X141.24 Y58.76
;TYPE:SKIN
G1 F1200 X141.24 Y41.24 E131.90817
G1 X158.76 Y41.24 E132.59286
G1 X158.76 Y58.76 E133.27755
G1 X141.24 Y58.76 E133.96225
G0 F1800 X149.74 Y50.26
G1 F1200 X149.74 Y49.74 E133.98257
G1 X150.26 Y49.74 E134.00289
G1 X150.26 Y50.26 E134.02321
G1 X149.74 Y50.26 E134.04353
G0 F1800 X149.24 Y50.76
G1 F1200 X149.24 Y49.24 E134.10294
G1 X150.76 Y49.24 E134.16234
G1 X150.76 Y50.76 E134.22174
G1 X149.24 Y50.76 E134.28114
G0 F1800 X148.74 Y51.26
G1 F1200 X148.74 Y48.74 E134.37963
G1 X151.26 Y48.74 E134.47811
G1 X151.26 Y51.26 E134.57659
G1 X148.74 Y51.26 E134.67508
G0 F1800 X148.24 Y51.76
G1 F1200 X148.24 Y48.24 E134.81264
G1 X151.76 Y48.24 E134.9502
G1 X151.76 Y51.76 E135.08777
G1 X148.24 Y51.76 E135.22533
G0 F1800 X147.74 Y52.26
G1 F1200 X147.74 Y47.74 E135.40198
G1 X152.26 Y47.74 E135.57862
G1 X152.26 Y52.26 E135.75527
G1 X147.74 Y52.26 E135.93191
G0 F1800 X147.24 Y52.76
G1 F1200 X147.24 Y47.24 E136.14764
G1 X152.76 Y47.24 E136.36336
G1 X152.76 Y52.76 E136.57909
G1 X147.24 Y52.76 E136.79481
G0 F1800 X146.74 Y53.26
G1 F1200 X146.74 Y46.74 E137.04962
G1 X153.26 Y46.74 E137.30442
G1 X153.26 Y53.26 E137.55923
G1 X146.74 Y53.26 E137.81403
G0 F1800 X146.24 Y53.76
G1 F1200 X146.24 Y46.24 E138.10792
G1 X153.76 Y46.24 E138.40181
G1 X153.76 Y53.76 E138.69569
G1 X146.24 Y53.76 E138.98958
G0 F1800 X145.74 Y54.26
G1 F1200 X145.74 Y45.74 E139.32255
G1 X154.26 Y45.74 E139.65552
G1 X154.26 Y54.26 E139.98848
G1 X145.74 Y54.26 E140.32145
G0 F1800 X145.24 Y54.76
G1 F1200 X145.24 Y45.24 E140.6935
G1 X154.76 Y45.24 E141.06555
G1 X154.76 Y54.76 E141.43759
G1 X145.24 Y54.76 E141.80964
G0 F1800 X144.74 Y55.26
G1 F1200 X144.74 Y44.74 E142.22077
G1 X155.26 Y44.74 E142.6319
G1 X155.26 Y55.26 E143.04303
G1 X144.74 Y55.26 E143.45416
G0 F1800 X144.24 Y55.76
G1 F1200 X144.24 Y44.24 E143.90436
G1 X155.76 Y44.24 E144.35457
G1 X155.76 Y55.76 E144.80478
G1 X144.24 Y55.76 E145.25499
G0 F1800 X143.74 Y56.26
G1 F1200 X143.74 Y43.74 E145.74428
G1 X156.26 Y43.74 E146.23357
G1 X156.26 Y56.26 E146.72286
G1 X143.74 Y56.26 E147.21215
G0 F1800 X143.24 Y56.76
G1 F1200 X143.24 Y43.24 E147.74052
G1 X156.76 Y43.24 E148.26889
G1 X156.76 Y56.76 E148.79726
G1 X143.24 Y56.76 E149.32563
G0 F1800 X142.74 Y57.26
G1 F1200 X142.74 Y42.74 E149.89308
