;FLAVOR:Marlin
;TIME:9983
;Filament used: 9.97446m
;Layer height: 0.28
;MINX:73.405
;MINY:68.86
;MINZ:0.3
;MAXX:226.638
;MAXY:231.139
;MAXZ:31.94
;Generated with Cura_SteamEngine 4.6.0
M140 S80
M105
M190 S80
M104 S230
M105
M109 S230
M82 ;absolute extrusion mode
G28 ; home all axes
 M117 Purge extruder
 G92 E0 ; reset extruder
 G1 Z1.0 F3000 ; move z up little to prevent scratching of surface
 G1 X2 Y20 Z0.3 F5000.0 ; move to start-line position
 G1 X2 Y200.0 Z0.3 F1500.0 E15 ; draw 1st line
 G1 X2 Y200.0 Z0.4 F5000.0 ; move to side a little
 G1 X2 Y20 Z0.4 F1500.0 E30 ; draw 2nd line
 G92 E0 ; reset extruder
 G1 Z1.0 F3000 ; move z up little to prevent scratching of surface
G92 E0
G92 E0
G1 F1500 E-6.5
;LAYER_COUNT:114
;LAYER:0
M107
G0 F6000 X95.252 Y89.244 Z0.3
;TYPE:SKIRT
G1 F1500 E0
G1 F1200 X95.702 Y88.811 E0.03427
G1 X99.363 Y85.549 E0.30337
G1 X99.843 Y85.152 E0.33755
G1 X103.742 Y82.18 E0.6066
G1 X104.253 Y81.821 E0.64087
G1 X108.369 Y79.156 E0.90997
G1 X108.903 Y78.839 E0.94405
G1 X113.211 Y76.495 E1.2132
G1 X113.213 Y76.5 E1.21349
G1 X113.341 Y76.425 E1.22164
G1 X113.773 Y76.215 E1.248
G1 X118.246 Y74.211 E1.51698
G1 X118.823 Y73.979 E1.55111
G1 X123.438 Y72.322 E1.82021
G1 X124.031 Y72.134 E1.85435
G1 X128.756 Y70.835 E2.12327
G1 X129.363 Y70.7 E2.1574
G1 X129.362 Y70.694 E2.15773
G1 X134.177 Y69.759 E2.42691
G1 X134.796 Y69.664 E2.46128
G1 X139.666 Y69.102 E2.73032
G1 X140.287 Y69.054 E2.7645
G1 X145.186 Y68.866 E3.03355
G1 X145.498 Y68.86 E3.05067
G1 X205.496 Y68.86 E6.34332
G1 X206.302 Y68.9 E6.38761
G1 X206.77 Y68.96 E6.4135
G1 X210.789 Y69.597 E6.63681
G1 X211.579 Y69.763 E6.68111
G1 X212.348 Y70.006 E6.72537
G1 X213.21 Y70.384 E6.77703
G1 X216.835 Y72.231 E7.0003
G1 X217.535 Y72.633 E7.0446
G1 X218.192 Y73.101 E7.08887
G1 X218.896 Y73.728 E7.1406
G1 X221.77 Y76.602 E7.36366
G1 X222.311 Y77.2 E7.40791
G1 X222.791 Y77.849 E7.45221
G1 X223.267 Y78.663 E7.50396
G1 X225.114 Y82.288 E7.72723
G1 X225.444 Y83.024 E7.7715
G1 X225.7 Y83.789 E7.81577
G1 X225.9 Y84.708 E7.86738
G1 X226.537 Y88.723 E8.09048
G1 X226.624 Y89.525 E8.13475
G1 X226.638 Y89.998 E8.16072
G1 X226.638 Y191.999 E13.75845
G1 X226.598 Y192.805 E13.80274
G1 X226.538 Y193.274 E13.82869
G1 X225.901 Y197.292 E14.05195
G1 X225.735 Y198.081 E14.0962
G1 X225.492 Y198.85 E14.14045
G1 X225.114 Y199.712 E14.19211
G1 X223.267 Y203.337 E14.41538
G1 X222.865 Y204.037 E14.45968
G1 X222.397 Y204.694 E14.50395
G1 X221.77 Y205.398 E14.55568
G1 X218.896 Y208.272 E14.77874
G1 X218.298 Y208.813 E14.82299
G1 X217.649 Y209.293 E14.86729
G1 X216.835 Y209.769 E14.91904
G1 X213.21 Y211.616 E15.14231
G1 X212.474 Y211.946 E15.18658
G1 X211.709 Y212.202 E15.23085
G1 X210.79 Y212.403 E15.28248
G1 X206.772 Y213.04 E15.50573
G1 X205.97 Y213.126 E15.55
G1 X205.497 Y213.14 E15.57597
G1 X158.638 Y213.14 E18.14755
G1 X158.638 Y223 E18.68866
G1 X158.598 Y223.806 E18.73295
G1 X158.478 Y224.604 E18.77724
G1 X158.281 Y225.386 E18.82149
G1 X158.006 Y226.144 E18.86574
G1 X157.658 Y226.872 E18.91003
G1 X157.24 Y227.562 E18.9543
G1 X156.755 Y228.207 E18.99859
G1 X156.209 Y228.8 E19.04282
G1 X155.607 Y229.337 E19.0871
G1 X154.954 Y229.812 E19.13141
G1 X154.258 Y230.219 E19.17566
G1 X153.525 Y230.556 E19.21993
G1 X152.762 Y230.819 E19.26422
G1 X151.977 Y231.004 E19.30848
G1 X151.178 Y231.112 E19.35273
G1 X150.371 Y231.139 E19.39704
G1 X149.566 Y231.087 E19.44131
G1 X148.771 Y230.955 E19.48554
G1 X147.714 Y230.649 E19.54593
G1 X107.714 Y216.09 E21.88198
G1 X106.97 Y215.777 E21.92628
G1 X106.262 Y215.392 E21.9705
G1 X105.594 Y214.938 E22.01483
G1 X104.975 Y214.421 E22.05909
G1 X104.411 Y213.845 E22.10333
G1 X103.906 Y213.216 E22.1476
G1 X103.465 Y212.54 E22.19189
G1 X103.094 Y211.824 E22.23615
G1 X102.796 Y211.074 E22.28044
G1 X102.573 Y210.299 E22.32469
G1 X102.428 Y209.505 E22.36899
G1 X102.358 Y208.441 E22.42751
G1 X102.358 Y203 E22.7261
G1 X102.398 Y202.194 E22.77039
G1 X102.518 Y201.396 E22.81468
G1 X102.715 Y200.614 E22.85893
G1 X102.99 Y199.856 E22.90319
G1 X103.203 Y199.409 E22.93036
G1 X99.843 Y196.848 E23.16221
G1 X99.363 Y196.451 E23.19639
G1 X95.702 Y193.189 E23.46549
G1 X95.252 Y192.756 E23.49976
G1 X91.853 Y189.224 E23.76877
G1 X91.438 Y188.759 E23.80297
G1 X88.318 Y184.976 E24.07208
G1 X87.94 Y184.479 E24.10635
G1 X85.12 Y180.469 E24.37538
G1 X84.782 Y179.948 E24.40947
G1 X82.277 Y175.736 E24.67841
G1 X81.977 Y175.185 E24.71284
G1 X79.802 Y170.789 E24.982
G1 X79.549 Y170.223 E25.01602
G1 X77.716 Y165.677 E25.28502
G1 X77.504 Y165.088 E25.31937
G1 X76.025 Y160.413 E25.58847
G1 X75.861 Y159.815 E25.6225
G1 X74.743 Y155.043 E25.89147
G1 X74.631 Y154.428 E25.92578
G1 X74.624 Y154.429 E25.92617
G1 X73.875 Y149.582 E26.19532
G1 X73.804 Y148.962 E26.22957
G1 X73.429 Y144.075 E26.49855
G1 X73.405 Y143.452 E26.53277
G1 X73.405 Y138.55 E26.80179
G1 X73.429 Y137.927 E26.836
G1 X73.804 Y133.038 E27.10509
G1 X73.875 Y132.418 E27.13934
G1 X74.624 Y127.571 E27.4085
G1 X74.635 Y127.573 E27.40911
G1 X74.743 Y126.957 E27.44343
G1 X75.861 Y122.185 E27.71241
G1 X76.025 Y121.587 E27.74644
G1 X77.504 Y116.912 E28.01553
G1 X77.716 Y116.323 E28.04988
G1 X79.549 Y111.777 E28.31888
G1 X79.802 Y111.211 E28.35291
G1 X81.977 Y106.815 E28.62207
G1 X82.277 Y106.264 E28.6565
G1 X84.782 Y102.052 E28.92544
G1 X85.12 Y101.531 E28.95952
G1 X87.94 Y97.521 E29.22856
G1 X88.32 Y97.021 E29.26302
G1 X88.788 Y96.454 E29.30337
G1 X88.797 Y96.444 E29.30411
G1 X91.437 Y93.242 E29.53185
G1 X91.853 Y92.776 E29.56614
G1 X95.252 Y89.244 E29.83515
G0 F6000 X95.569 Y89.549
G1 F1200 X95.995 Y89.139 E29.86759
G1 X99.656 Y85.877 E30.13669
G1 X100.11 Y85.502 E30.16901
G1 X104.009 Y82.53 E30.43805
G1 X104.492 Y82.191 E30.47044
G1 X108.608 Y79.526 E30.73953
G1 X109.113 Y79.225 E30.7718
G1 X113.421 Y76.881 E31.04095
G1 X113.428 Y76.894 E31.04176
G1 X113.953 Y76.617 E31.07433
G1 X118.426 Y74.613 E31.34332
G1 X118.972 Y74.393 E31.37562
G1 X123.587 Y72.736 E31.64472
G1 X124.148 Y72.558 E31.67702
G1 X128.873 Y71.259 E31.94595
G1 X129.447 Y71.132 E31.97821
G1 X129.446 Y71.126 E31.97854
G1 X134.261 Y70.191 E32.24772
G1 X134.846 Y70.101 E32.2802
G1 X139.716 Y69.539 E32.54924
G1 X140.304 Y69.494 E32.5816
G1 X145.203 Y69.306 E32.85065
G1 X145.498 Y69.3 E32.86685
G1 X205.496 Y69.3 E36.15949
G1 X206.28 Y69.34 E36.20257
G1 X206.701 Y69.395 E36.22587
G1 X210.72 Y70.032 E36.44919
G1 X211.488 Y70.194 E36.49226
G1 X212.235 Y70.434 E36.53532
G1 X213.011 Y70.776 E36.58186
G1 X216.636 Y72.623 E36.80513
G1 X217.316 Y73.015 E36.8482
G1 X217.952 Y73.473 E36.89122
G1 X218.585 Y74.039 E36.93782
G1 X221.459 Y76.913 E37.16087
G1 X221.985 Y77.496 E37.20396
G1 X222.448 Y78.128 E37.24696
G1 X222.875 Y78.862 E37.29356
G1 X224.722 Y82.487 E37.51683
G1 X225.042 Y83.204 E37.55992
G1 X225.287 Y83.949 E37.60296
G1 X225.466 Y84.776 E37.64939
G1 X226.103 Y88.791 E37.87249
G1 X226.186 Y89.572 E37.91559
G1 X226.198 Y89.998 E37.93898
G1 X226.198 Y191.999 E43.53672
G1 X226.158 Y192.783 E43.5798
G1 X226.103 Y193.205 E43.60315
G1 X225.466 Y197.223 E43.82641
G1 X225.304 Y197.99 E43.86943
G1 X225.064 Y198.738 E43.91254
G1 X224.722 Y199.513 E43.95903
G1 X222.875 Y203.138 E44.1823
G1 X222.483 Y203.818 E44.22538
G1 X222.025 Y204.454 E44.26839
G1 X221.459 Y205.087 E44.31499
G1 X218.585 Y207.961 E44.53804
G1 X218.002 Y208.487 E44.58113
G1 X217.37 Y208.95 E44.62413
G1 X216.636 Y209.377 E44.67073
G1 X213.011 Y211.224 E44.894
G1 X212.294 Y211.544 E44.93709
G1 X211.549 Y211.789 E44.98013
G1 X210.721 Y211.968 E45.02662
G1 X206.703 Y212.605 E45.24988
G1 X205.922 Y212.688 E45.29298
G1 X205.497 Y212.7 E45.31632
G1 X158.198 Y212.7 E47.91205
G1 X158.198 Y223 E48.4773
G1 X158.158 Y223.784 E48.52038
G1 X158.039 Y224.559 E48.56341
G1 X157.841 Y225.318 E48.60646
G1 X157.567 Y226.053 E48.64951
G1 X157.219 Y226.757 E48.69261
G1 X156.802 Y227.421 E48.73564
G1 X156.319 Y228.04 E48.77873
G1 X155.776 Y228.606 E48.82177
G1 X155.178 Y229.114 E48.86483
G1 X154.532 Y229.559 E48.90788
G1 X153.843 Y229.935 E48.95096
G1 X153.12 Y230.24 E48.99402
G1 X152.37 Y230.469 E49.03705
G1 X151.6 Y230.621 E49.08013
G1 X150.819 Y230.693 E49.12317
G1 X150.034 Y230.686 E49.16625
G1 X149.255 Y230.599 E49.20927
G1 X148.488 Y230.433 E49.25233
G1 X147.864 Y230.236 E49.28825
G1 X107.864 Y215.677 E51.6243
G1 X107.142 Y215.371 E51.66733
G1 X106.454 Y214.994 E51.71039
G1 X105.808 Y214.548 E51.75347
G1 X105.211 Y214.039 E51.79652
G1 X104.669 Y213.472 E51.83957
G1 X104.187 Y212.853 E51.88262
G1 X103.771 Y212.187 E51.92572
G1 X103.425 Y211.483 E51.96877
G1 X103.152 Y210.748 E52.01179
G1 X102.955 Y209.988 E52.05488
G1 X102.837 Y209.213 E52.0979
G1 X102.798 Y208.441 E52.14032
G1 X102.798 Y203 E52.43892
G1 X102.838 Y202.216 E52.482
G1 X102.957 Y201.441 E52.52503
G1 X103.155 Y200.682 E52.56808
G1 X103.429 Y199.947 E52.61113
G1 X103.759 Y199.279 E52.65202
G1 X100.11 Y196.498 E52.9038
G1 X99.656 Y196.123 E52.93611
G1 X95.995 Y192.861 E53.20521
G1 X95.569 Y192.451 E53.23766
G1 X92.17 Y188.919 E53.50667
G1 X91.778 Y188.479 E53.53901
G1 X88.658 Y184.696 E53.80811
G1 X88.3 Y184.226 E53.84054
G1 X85.48 Y180.216 E54.10957
G1 X85.16 Y179.723 E54.14183
G1 X82.655 Y175.511 E54.41077
G1 X82.372 Y174.99 E54.44331
G1 X80.197 Y170.594 E54.71247
G1 X79.957 Y170.058 E54.7447
G1 X78.124 Y165.512 E55.0137
G1 X77.924 Y164.956 E55.04612
G1 X76.445 Y160.281 E55.31522
G1 X76.289 Y159.714 E55.34749
G1 X75.171 Y154.942 E55.61646
G1 X75.066 Y154.361 E55.64887
G1 X75.059 Y154.362 E55.64925
G1 X74.31 Y149.515 E55.91841
G1 X74.243 Y148.928 E55.95083
G1 X73.868 Y144.041 E56.21982
G1 X73.845 Y143.452 E56.25217
G1 X73.845 Y138.55 E56.52118
G1 X73.868 Y137.961 E56.55353
G1 X74.243 Y133.072 E56.82262
G1 X74.31 Y132.485 E56.85505
G1 X75.059 Y127.638 E57.1242
G1 X75.061 Y127.638 E57.12431
G1 X75.069 Y127.571 E57.12802
G1 X75.171 Y127.058 E57.15672
G1 X76.289 Y122.286 E57.4257
G1 X76.445 Y121.719 E57.45797
G1 X77.924 Y117.044 E57.72706
G1 X78.124 Y116.488 E57.75949
G1 X79.957 Y111.942 E58.02849
G1 X80.197 Y111.406 E58.06072
G1 X82.372 Y107.01 E58.32988
G1 X82.655 Y106.489 E58.36242
G1 X85.16 Y102.277 E58.63136
G1 X85.48 Y101.784 E58.66361
G1 X88.3 Y97.774 E58.93265
G1 X88.66 Y97.301 E58.96527
G1 X89.128 Y96.734 E59.00562
G1 X89.137 Y96.724 E59.00635
G1 X91.777 Y93.522 E59.2341
G1 X92.17 Y93.081 E59.26652
G1 X95.569 Y89.549 E59.53553
G0 F6000 X95.886 Y89.854
G1 F1200 X96.287 Y89.468 E59.56608
G1 X99.948 Y86.206 E59.83517
G1 X100.377 Y85.852 E59.8657
G1 X104.276 Y82.88 E60.13474
G1 X104.731 Y82.56 E60.16527
G1 X108.847 Y79.895 E60.43437
G1 X109.323 Y79.612 E60.46476
G1 X113.631 Y77.268 E60.73391
G1 X113.634 Y77.273 E60.73423
G1 X114.133 Y77.019 E60.76496
G1 X118.606 Y75.015 E61.03394
G1 X119.121 Y74.807 E61.06442
G1 X123.736 Y73.15 E61.33352
G1 X124.264 Y72.983 E61.36391
G1 X128.989 Y71.684 E61.63284
G1 X129.531 Y71.565 E61.66329
G1 X129.53 Y71.558 E61.66368
G1 X134.345 Y70.623 E61.93286
G1 X134.897 Y70.538 E61.96351
G1 X139.767 Y69.976 E62.23254
G1 X140.321 Y69.933 E62.26304
G1 X145.22 Y69.745 E62.53209
G1 X145.498 Y69.74 E62.54735
G1 X205.496 Y69.74 E65.83999
G1 X206.633 Y69.83 E65.90258
G1 X210.652 Y70.467 E66.1259
G1 X211.397 Y70.625 E66.16769
G1 X212.121 Y70.861 E66.20948
G1 X212.811 Y71.168 E66.25093
G1 X216.436 Y73.015 E66.4742
G1 X217.096 Y73.396 E66.51602
G1 X217.712 Y73.844 E66.55782
G1 X218.274 Y74.35 E66.59932
G1 X221.148 Y77.224 E66.82238
G1 X221.657 Y77.791 E66.86419
G1 X222.105 Y78.407 E66.90599
G1 X222.483 Y79.062 E66.94749
G1 X224.33 Y82.687 E67.17077
G1 X224.64 Y83.383 E67.21258
G1 X224.875 Y84.108 E67.2544
G1 X225.031 Y84.845 E67.29575
G1 X225.668 Y88.86 E67.51884
G1 X225.758 Y89.998 E67.58149
G1 X225.758 Y191.999 E73.17923
G1 X225.668 Y193.136 E73.24182
G1 X225.031 Y197.154 E73.46508
G1 X224.873 Y197.899 E73.50687
G1 X224.637 Y198.623 E73.54866
G1 X224.33 Y199.313 E73.59011
G1 X222.483 Y202.938 E73.81338
G1 X222.102 Y203.598 E73.8552
G1 X221.654 Y204.214 E73.897
G1 X221.148 Y204.776 E73.9385
G1 X218.274 Y207.65 E74.16156
G1 X217.707 Y208.159 E74.20337
G1 X217.091 Y208.607 E74.24517
G1 X216.436 Y208.985 E74.28667
G1 X212.811 Y210.832 E74.50995
G1 X212.115 Y211.142 E74.55176
G1 X211.39 Y211.377 E74.59359
G1 X210.652 Y211.533 E74.63498
G1 X206.634 Y212.17 E74.85824
G1 X205.497 Y212.26 E74.92083
G1 X157.758 Y212.26 E77.54071
G1 X157.758 Y223 E78.13011
G1 X157.718 Y223.761 E78.17194
G1 X157.599 Y224.513 E78.21372
G1 X157.401 Y225.249 E78.25555
G1 X157.127 Y225.96 E78.29736
G1 X156.781 Y226.638 E78.33913
G1 X156.365 Y227.277 E78.38098
G1 X155.884 Y227.868 E78.4228
G1 X155.344 Y228.406 E78.46463
G1 X154.751 Y228.884 E78.50643
G1 X154.111 Y229.297 E78.54823
G1 X153.432 Y229.641 E78.59
G1 X152.719 Y229.912 E78.63186
G1 X151.983 Y230.107 E78.67365
G1 X151.23 Y230.223 E78.71546
G1 X150.469 Y230.26 E78.75727
G1 X149.709 Y230.217 E78.79905
G1 X148.957 Y230.094 E78.84086
G1 X148.015 Y229.822 E78.89467
G1 X108.015 Y215.263 E81.23072
G1 X107.314 Y214.965 E81.27253
G1 X106.647 Y214.596 E81.31436
G1 X106.024 Y214.158 E81.35615
G1 X105.449 Y213.658 E81.39797
G1 X104.93 Y213.1 E81.43979
G1 X104.473 Y212.491 E81.48158
G1 X104.081 Y211.837 E81.52342
G1 X103.761 Y211.146 E81.56521
G1 X103.514 Y210.425 E81.60704
G1 X103.345 Y209.683 E81.6488
G1 X103.254 Y208.926 E81.69064
G1 X103.238 Y208.441 E81.71727
G1 X103.238 Y203 E82.01587
G1 X103.278 Y202.239 E82.05769
G1 X103.397 Y201.487 E82.09947
G1 X103.595 Y200.751 E82.1413
G1 X103.869 Y200.04 E82.18312
G1 X104.215 Y199.362 E82.22489
G1 X104.342 Y199.167 E82.23766
G1 X104.276 Y199.12 E82.24211
G1 X100.377 Y196.148 E82.51116
G1 X99.948 Y195.794 E82.54168
G1 X96.287 Y192.532 E82.81078
G1 X95.886 Y192.146 E82.84132
G1 X92.487 Y188.614 E83.11033
G1 X92.117 Y188.199 E83.14084
G1 X88.997 Y184.416 E83.40995
G1 X88.659 Y183.973 E83.44053
G1 X85.839 Y179.963 E83.70957
G1 X85.538 Y179.498 E83.73996
G1 X83.033 Y175.286 E84.00891
G1 X82.766 Y174.795 E84.03958
G1 X80.591 Y170.399 E84.30874
G1 X80.365 Y169.894 E84.3391
G1 X78.532 Y165.348 E84.6081
G1 X78.343 Y164.823 E84.63872
G1 X76.864 Y160.148 E84.90782
G1 X76.717 Y159.614 E84.93821
G1 X75.599 Y154.842 E85.20719
G1 X75.501 Y154.294 E85.23774
G1 X75.494 Y154.295 E85.23813
G1 X74.745 Y149.448 E85.50728
G1 X74.681 Y148.894 E85.53789
G1 X74.306 Y144.007 E85.80687
G1 X74.285 Y143.452 E85.83735
G1 X74.285 Y138.55 E86.10637
G1 X74.306 Y137.995 E86.13685
G1 X74.681 Y133.106 E86.40594
G1 X74.745 Y132.552 E86.43655
G1 X75.494 Y127.705 E86.7057
G1 X75.505 Y127.707 E86.70632
G1 X75.599 Y127.158 E86.73688
G1 X76.717 Y122.386 E87.00586
G1 X76.864 Y121.852 E87.03625
G1 X78.343 Y117.177 E87.30535
G1 X78.532 Y116.652 E87.33597
G1 X80.365 Y112.106 E87.60497
G1 X80.591 Y111.601 E87.63533
G1 X82.766 Y107.205 E87.90449
G1 X83.033 Y106.714 E87.93516
G1 X85.538 Y102.502 E88.20411
G1 X85.839 Y102.037 E88.2345
G1 X88.659 Y98.027 E88.50354
G1 X88.999 Y97.582 E88.53427
G1 X92.116 Y93.802 E88.80315
G1 X92.487 Y93.386 E88.83374
G1 X95.886 Y89.854 E89.10275
G0 F6000 X96.203 Y90.159
G1 F1200 X96.58 Y89.796 E89.13147
G1 X100.241 Y86.534 E89.40056
G1 X100.644 Y86.202 E89.42922
G1 X104.543 Y83.23 E89.69827
G1 X104.97 Y82.929 E89.72694
G1 X109.086 Y80.264 E89.99603
G1 X109.533 Y79.998 E90.02458
G1 X113.841 Y77.654 E90.29373
G1 X113.843 Y77.657 E90.29393
G1 X113.906 Y77.619 E90.29797
G1 X114.313 Y77.42 E90.32283
G1 X118.786 Y75.416 E90.59181
G1 X119.269 Y75.221 E90.6204
G1 X123.884 Y73.564 E90.8895
G1 X124.381 Y73.407 E90.9181
G1 X129.106 Y72.108 E91.18703
G1 X129.615 Y71.997 E91.21562
G1 X129.614 Y71.99 E91.216
G1 X134.429 Y71.055 E91.48518
G1 X134.947 Y70.975 E91.51395
G1 X139.817 Y70.413 E91.78298
G1 X140.337 Y70.373 E91.8116
G1 X145.236 Y70.185 E92.08066
G1 X145.498 Y70.18 E92.09504
G1 X205.496 Y70.18 E95.38768
G1 X206.564 Y70.264 E95.44647
G1 X210.583 Y70.901 E95.66979
G1 X211.305 Y71.056 E95.71031
G1 X212.006 Y71.288 E95.75083
G1 X212.611 Y71.56 E95.78724
G1 X216.236 Y73.407 E96.01051
G1 X216.875 Y73.778 E96.05106
G1 X217.47 Y74.215 E96.09157
G1 X217.962 Y74.662 E96.12805
G1 X220.836 Y77.536 E96.35111
G1 X221.33 Y78.085 E96.39164
G1 X221.76 Y78.685 E96.43215
G1 X222.091 Y79.262 E96.46865
G1 X223.938 Y82.887 E96.69192
G1 X224.237 Y83.562 E96.73244
G1 X224.461 Y84.265 E96.77293
