;FLAVOR:Marlin
;TIME:6222
;Filament used: 13.8546m
;Layer height: 0.3
;MINX:95.35
;MINY:49.611
;MINZ:0.3
;MAXX:204.65
;MAXY:195.652
;MAXZ:53.4
;Generated with Cura_SteamEngine 4.6.0
M140 S80
M105
M190 S80
M104 S230
M105
M109 S230
M82 ;absolute extrusion mode
G28 ; home all axes
 M117 Purge extruder
 G92 E0 ; reset extruder
 G1 Z1.0 F3000 ; move z up little to prevent scratching of surface
 G1 X2 Y20 Z0.3 F5000.0 ; move to start-line position
 G1 X2 Y200.0 Z0.3 F1500.0 E15 ; draw 1st line
 G1 X2 Y200.0 Z0.4 F5000.0 ; move to side a little
 G1 X2 Y20 Z0.4 F1500.0 E30 ; draw 2nd line
 G92 E0 ; reset extruder
 G1 Z1.0 F3000 ; move z up little to prevent scratching of surface
G92 E0
G92 E0
G1 F1500 E-6.5
;LAYER_COUNT:178
;LAYER:0
M107
G0 F6000 X164.958 Y127.162 Z0.3
;TYPE:SKIRT
G1 F1500 E0
G1 F1200 X164.273 Y128.438 E0.12644
G1 X164.272 Y128.438 E0.12653
G1 X162.97 Y130.915 E0.37085
G1 X162.971 Y130.915 E0.37093
G1 X162.935 Y130.984 E0.37773
G1 X162.242 Y132.359 E0.51216
G1 X161.444 Y133.968 E0.66897
G1 X160.289 Y136.378 E0.9023
G1 X159.297 Y138.523 E1.10863
G1 X158.326 Y140.694 E1.31627
G1 X157.602 Y142.363 E1.47511
G1 X156.621 Y144.708 E1.69704
G1 X156.236 Y145.665 E1.7871
G1 X155.088 Y148.648 E2.06616
G1 X155.086 Y148.658 E2.06705
G1 X154.697 Y149.712 E2.16514
G1 X154.686 Y149.739 E2.16768
G1 X154.537 Y150.057 E2.19835
G1 X154.425 Y150.266 E2.21905
G1 X154.158 Y150.686 E2.2625
G1 X154.076 Y150.796 E2.27448
G1 X153.858 Y151.062 E2.3045
G1 X153.639 Y151.3 E2.33274
G1 X153.431 Y151.504 E2.35818
G1 X153.028 Y151.865 E2.40542
G1 X152.663 Y152.149 E2.44579
G1 X152.491 Y152.265 E2.46391
G1 X152.127 Y152.479 E2.50077
G1 X152.018 Y152.534 E2.51143
G1 X151.841 Y152.617 E2.5285
G1 X151.654 Y152.698 E2.54629
G1 X151.002 Y152.904 E2.60599
G1 X150.785 Y152.949 E2.62534
G1 X150.12 Y153.019 E2.68372
G1 X149.893 Y153.02 E2.70354
G1 X149.181 Y152.947 E2.76603
G1 X148.979 Y152.904 E2.78406
G1 X148.482 Y152.757 E2.82931
G1 X148.22 Y152.644 E2.85422
G1 X148.017 Y152.546 E2.8739
G1 X147.661 Y152.347 E2.90951
G1 X147.437 Y152.203 E2.93276
G1 X147.254 Y152.076 E2.95221
G1 X147.076 Y151.944 E2.97155
G1 X146.722 Y151.642 E3.01218
G1 X146.361 Y151.287 E3.05639
G1 X146.201 Y151.118 E3.0767
G1 X145.947 Y150.815 E3.11122
G1 X145.617 Y150.336 E3.16201
G1 X145.503 Y150.135 E3.18218
G1 X145.315 Y149.746 E3.2199
G1 X145.272 Y149.638 E3.23005
G1 X144.99 Y148.891 E3.29976
G1 X144.974 Y148.845 E3.30402
G1 X144.568 Y147.72 E3.40844
G1 X143.68 Y145.451 E3.62117
G1 X143.681 Y145.451 E3.62126
G1 X143.33 Y144.587 E3.70268
G1 X142.342 Y142.242 E3.92485
G1 X141.355 Y139.979 E4.1404
G1 X140.375 Y137.803 E4.34876
G1 X139.642 Y136.228 E4.50043
G1 X139.641 Y136.228 E4.50052
G1 X138.66 Y134.179 E4.69886
G1 X138.397 Y133.646 E4.75075
G1 X137.62 Y132.085 E4.90299
G1 X136.655 Y130.195 E5.08826
G1 X136.231 Y129.388 E5.16785
G1 X135.554 Y128.114 E5.29381
G1 X134.547 Y126.261 E5.47794
G1 X133.978 Y125.24 E5.57999
G1 X133.303 Y124.044 E5.69989
G1 X132.648 Y122.903 E5.81476
G1 X132.246 Y122.213 E5.88448
G1 X131.607 Y121.131 E5.99419
G1 X131.092 Y120.273 E6.08156
G1 X130.47 Y119.25 E6.18609
G1 X129.821 Y118.198 E6.29401
G1 X129.067 Y116.993 E6.41811
G1 X129.066 Y116.993 E6.4182
G1 X128.106 Y115.494 E6.57361
G1 X127.279 Y114.226 E6.70579
G1 X126.073 Y112.42 E6.89539
G1 X124.843 Y110.638 E7.08443
G1 X123.224 Y108.367 E7.32794
G1 X121.589 Y106.205 E7.56459
G1 X120.73 Y105.132 E7.6846
G1 X120.673 Y105.048 E7.69346
G1 X119.831 Y103.995 E7.81117
G1 X119.312 Y103.306 E7.88649
G1 X118.584 Y102.309 E7.99427
G1 X118.441 Y102.11 E8.01566
G1 X118.032 Y101.52 E8.07834
G1 X118.03 Y101.517 E8.07866
G1 X117.824 Y101.165 E8.11426
G1 X117.499 Y100.519 E8.1774
G1 X117.5 Y100.519 E8.17749
G1 X117.32 Y100.174 E8.21146
G1 X116.256 Y98.043 E8.41942
G1 X115.994 Y97.469 E8.47451
G1 X115.588 Y96.445 E8.57068
G1 X115.333 Y95.732 E8.63679
G1 X115.084 Y94.906 E8.71211
G1 X114.897 Y94.215 E8.77461
G1 X114.854 Y94.034 E8.79086
G1 X114.667 Y93.142 E8.87043
G1 X114.548 Y92.479 E8.92924
G1 X114.519 Y92.288 E8.9461
G1 X114.406 Y91.338 E9.02963
G1 X114.334 Y90.52 E9.10133
G1 X114.302 Y89.598 E9.18187
G1 X114.298 Y88.911 E9.24185
G1 X114.302 Y88.724 E9.25818
G1 X114.35 Y87.82 E9.33722
G1 X114.425 Y86.943 E9.41407
G1 X114.547 Y86.069 E9.49112
G1 X114.659 Y85.401 E9.55025
G1 X114.662 Y85.401 E9.55051
G1 X114.697 Y85.205 E9.5679
G1 X114.932 Y84.189 E9.65894
G1 X115.118 Y83.483 E9.72269
G1 X115.372 Y82.681 E9.79613
G1 X115.414 Y82.578 E9.80585
G1 X115.409 Y82.576 E9.80632
G1 X115.626 Y81.957 E9.86358
G1 X115.629 Y81.958 E9.86386
G1 X115.695 Y81.773 E9.88101
G1 X116.04 Y80.951 E9.95884
G1 X116.338 Y80.293 E10.02191
G1 X116.42 Y80.126 E10.03815
G1 X116.771 Y79.453 E10.10442
G1 X116.853 Y79.3 E10.11958
G1 X117.166 Y78.741 E10.17551
G1 X117.261 Y78.583 E10.19161
G1 X117.712 Y77.874 E10.26497
G1 X118.105 Y77.293 E10.32621
G1 X118.224 Y77.129 E10.3439
G1 X118.861 Y76.301 E10.43511
G1 X119.184 Y75.901 E10.48
G1 X119.317 Y75.746 E10.49783
G1 X120.077 Y74.916 E10.59609
G1 X120.393 Y74.588 E10.63585
G1 X120.536 Y74.449 E10.65326
G1 X121.357 Y73.693 E10.7507
G1 X121.743 Y73.356 E10.79544
G1 X121.89 Y73.235 E10.81206
G1 X122.608 Y72.679 E10.89135
G1 X123.134 Y72.295 E10.94821
G1 X123.294 Y72.185 E10.96516
G1 X124.228 Y71.585 E11.06208
G1 X124.656 Y71.325 E11.1058
G1 X124.823 Y71.23 E11.12258
G1 X125.641 Y70.796 E11.20342
G1 X126.216 Y70.512 E11.25942
G1 X126.395 Y70.431 E11.27657
G1 X127.377 Y70.017 E11.36961
G1 X127.838 Y69.836 E11.41285
G1 X128.025 Y69.769 E11.4302
G1 X129.063 Y69.432 E11.52548
G1 X129.785 Y69.224 E11.59108
G1 X130.657 Y69.021 E11.66925
G1 X132.21 Y68.703 E11.80765
G1 X133.128 Y68.53 E11.88921
G1 X133.762 Y68.401 E11.9457
G1 X134.095 Y68.351 E11.9751
G1 X134.27 Y68.336 E11.99043
G1 X134.566 Y68.321 E12.01631
G1 X135.388 Y68.298 E12.0881
G1 X164.34 Y68.298 E14.61584
G1 X165.491 Y68.318 E14.71635
G1 X166.132 Y68.355 E14.7724
G1 X166.785 Y68.458 E14.83012
G1 X167.154 Y68.554 E14.86341
G1 X169.599 Y69.159 E15.08331
G1 X170.162 Y69.291 E15.1338
G1 X170.342 Y69.339 E15.15007
G1 X171.185 Y69.589 E15.22684
G1 X171.942 Y69.837 E15.29638
G1 X172.049 Y69.877 E15.30636
G1 X172.709 Y70.135 E15.36823
G1 X172.889 Y70.208 E15.38519
G1 X173.491 Y70.464 E15.4423
G1 X173.659 Y70.541 E15.45843
G1 X174.431 Y70.922 E15.5336
G1 X175.062 Y71.255 E15.59589
G1 X175.061 Y71.257 E15.59609
G1 X175.248 Y71.36 E15.61472
G1 X175.998 Y71.817 E15.6914
G1 X176.033 Y71.839 E15.69501
G1 X176.818 Y72.357 E15.77713
G1 X177.501 Y72.86 E15.85118
G1 X178.3 Y73.495 E15.94029
G1 X178.797 Y73.936 E15.9983
G1 X179.496 Y74.585 E16.08158
G1 X179.582 Y74.672 E16.09226
G1 X180.004 Y75.113 E16.14555
G1 X180.074 Y75.187 E16.15444
G1 X180.778 Y75.974 E16.24664
G1 X181.059 Y76.319 E16.28548
G1 X181.239 Y76.549 E16.31098
G1 X181.858 Y77.377 E16.40124
G1 X182.294 Y78.029 E16.46972
G1 X182.831 Y78.891 E16.55839
G1 X183.102 Y79.381 E16.60728
G1 X183.101 Y79.381 E16.60736
G1 X183.155 Y79.479 E16.61713
G1 X183.506 Y80.154 E16.68356
G1 X183.54 Y80.22 E16.69004
G1 X183.611 Y80.369 E16.70445
G1 X183.857 Y80.915 E16.75674
G1 X183.945 Y81.117 E16.77597
G1 X183.963 Y81.158 E16.77988
G1 X184.318 Y82.03 E16.86208
G1 X184.577 Y82.778 E16.93119
G1 X184.876 Y83.746 E17.01965
G1 X185.059 Y84.479 E17.08561
G1 X185.259 Y85.38 E17.16619
G1 X185.283 Y85.512 E17.1779
G1 X185.398 Y86.227 E17.24113
G1 X185.495 Y86.932 E17.30326
G1 X185.516 Y87.125 E17.32021
G1 X185.573 Y87.847 E17.38344
G1 X185.585 Y88.027 E17.39919
G1 X185.622 Y88.884 E17.47408
G1 X185.615 Y89.729 E17.54786
G1 X185.59 Y90.463 E17.61198
G1 X185.578 Y90.658 E17.62904
G1 X185.51 Y91.392 E17.6934
G1 X185.495 Y91.537 E17.70613
G1 X185.412 Y92.224 E17.76654
G1 X185.383 Y92.415 E17.78341
G1 X185.255 Y93.127 E17.84657
G1 X185.213 Y93.342 E17.8657
G1 X185.088 Y93.937 E17.91878
G1 X185.087 Y93.937 E17.91886
G1 X185.04 Y94.144 E17.9374
G1 X184.816 Y94.969 E18.01203
G1 X184.604 Y95.673 E18.07623
G1 X184.535 Y95.851 E18.09289
G1 X184.542 Y95.854 E18.09356
G1 X184.281 Y96.57 E18.16009
G1 X184.28 Y96.57 E18.16018
G1 X184.244 Y96.67 E18.16946
G1 X183.859 Y97.614 E18.25847
G1 X183.655 Y98.055 E18.30089
G1 X183.046 Y99.443 E18.43323
G1 X182.944 Y99.634 E18.45213
G1 X182.46 Y100.72 E18.55594
G1 X182.182 Y101.224 E18.60619
G1 X182.031 Y101.449 E18.62985
G1 X181.901 Y101.635 E18.64966
G1 X181.484 Y102.212 E18.71182
G1 X181.476 Y102.224 E18.71308
G1 X180.534 Y103.515 E18.85261
G1 X180.038 Y104.17 E18.92434
G1 X179.143 Y105.296 E19.04992
G1 X178.776 Y105.747 E19.10069
G1 X177.122 Y107.901 E19.33779
G1 X174.885 Y111.024 E19.67319
G1 X174.071 Y112.21 E19.79878
G1 X172.903 Y113.949 E19.98168
G1 X171.546 Y116.035 E20.19894
G1 X170.457 Y117.75 E20.37631
G1 X169.89 Y118.665 E20.4703
G1 X169.121 Y119.922 E20.59895
G1 X168.462 Y121.016 E20.71046
G1 X168.044 Y121.72 E20.78194
G1 X167.422 Y122.782 E20.88939
G1 X166.897 Y123.692 E20.98112
G1 X166.26 Y124.813 E21.09369
G1 X164.958 Y127.162 E21.32817
G1 F1500 E14.82817
G0 F6000 X180.046 Y99.612
G0 X181.482 Y96.375
G0 X182.031 Y94.935
G0 X182.456 Y93.45
G0 X182.752 Y91.934
G0 X182.915 Y90.4
G0 X182.947 Y88.858
G0 X182.847 Y87.318
G0 X182.613 Y85.79
G0 X182.25 Y84.289
G0 X181.76 Y82.826
G0 X181.145 Y81.411
G0 X180.41 Y80.052
G0 X179.562 Y78.763
G0 X178.607 Y77.549
G0 X177.55 Y76.424
G0 X176.62 Y75.59
G0 X166.172 Y67.656
G1 F1500 E21.32817
G1 F1200 X166.962 Y67.78 E21.39799
G1 X167.372 Y67.887 E21.43498
G1 X169.768 Y68.48 E21.65048
G1 X170.321 Y68.61 E21.70008
G1 X170.539 Y68.667 E21.71975
G1 X171.396 Y68.922 E21.79782
G1 X172.177 Y69.178 E21.86957
G1 X172.304 Y69.225 E21.8814
G1 X172.964 Y69.483 E21.94327
G1 X173.163 Y69.564 E21.96203
G1 X173.765 Y69.82 E22.01914
G1 X173.968 Y69.913 E22.03863
G1 X174.757 Y70.303 E22.11548
G1 X175.388 Y70.636 E22.17777
G1 X175.387 Y70.638 E22.17796
G1 X175.611 Y70.761 E22.20028
G1 X176.371 Y71.224 E22.27797
G1 X177.232 Y71.793 E22.36808
G1 X177.931 Y72.307 E22.44383
G1 X178.655 Y72.879 E22.52439
G1 X178.763 Y72.971 E22.53677
G1 X179.272 Y73.421 E22.59609
G1 X179.983 Y74.082 E22.68085
G1 X180.088 Y74.188 E22.69387
G1 X180.51 Y74.629 E22.74717
G1 X180.624 Y74.751 E22.76174
G1 X181.32 Y75.531 E22.85301
G1 X181.61 Y75.888 E22.89317
G1 X181.823 Y76.16 E22.92333
G1 X182.365 Y76.879 E23.00195
G1 X182.44 Y76.987 E23.01343
G1 X182.885 Y77.653 E23.08336
G1 X183.443 Y78.552 E23.17574
G1 X183.696 Y79.009 E23.22134
G1 X183.776 Y79.157 E23.23603
G1 X184.163 Y79.902 E23.30933
G1 X184.25 Y80.081 E23.32671
G1 X184.609 Y80.888 E23.40382
G1 X184.929 Y81.663 E23.47702
G1 X184.979 Y81.8 E23.48976
G1 X185.244 Y82.567 E23.56061
G1 X185.516 Y83.432 E23.63977
G1 X185.554 Y83.575 E23.65269
G1 X185.742 Y84.324 E23.72011
G1 X185.945 Y85.241 E23.80211
G1 X185.974 Y85.401 E23.81631
G1 X186.091 Y86.132 E23.88095
G1 X186.188 Y86.837 E23.94308
G1 X186.213 Y87.07 E23.96354
G1 X186.27 Y87.792 E24.02677
G1 X186.284 Y87.992 E24.04427
G1 X186.318 Y88.693 E24.10555
G1 X186.322 Y88.889 E24.12266
G1 X186.315 Y89.753 E24.1981
G1 X186.29 Y90.487 E24.26222
G1 X186.275 Y90.723 E24.28287
G1 X186.207 Y91.457 E24.34723
G1 X186.19 Y91.621 E24.36162
G1 X186.107 Y92.308 E24.42204
G1 X186.072 Y92.539 E24.44244
G1 X185.898 Y93.486 E24.5265
G1 X185.773 Y94.081 E24.57958
G1 X185.771 Y94.081 E24.57976
G1 X185.716 Y94.326 E24.60168
G1 X185.486 Y95.171 E24.67814
G1 X185.274 Y95.875 E24.74233
G1 X185.192 Y96.091 E24.7625
G1 X185.2 Y96.094 E24.76325
G1 X184.939 Y96.81 E24.82978
G1 X184.938 Y96.809 E24.82991
G1 X184.894 Y96.928 E24.84099
G1 X184.495 Y97.908 E24.93337
G1 X184.264 Y98.408 E24.98145
G1 X183.687 Y99.724 E25.10691
G1 X183.574 Y99.94 E25.12819
G1 X183.099 Y101.005 E25.23001
G1 X182.763 Y101.614 E25.29073
G1 X182.469 Y102.045 E25.33628
G1 X182.052 Y102.622 E25.39844
G1 X181.093 Y103.936 E25.54046
G1 X180.586 Y104.606 E25.61382
G1 X179.713 Y105.702 E25.73616
G1 X179.686 Y105.738 E25.74009
G1 X179.314 Y106.195 E25.79153
G1 X177.693 Y108.305 E26.02384
G1 X175.449 Y111.44 E26.36044
G1 X174.648 Y112.606 E26.48395
G1 X173.457 Y114.38 E26.6705
G1 X172.133 Y116.416 E26.88254
G1 X171.048 Y118.125 E27.05928
G1 X170.487 Y119.031 E27.15232
G1 X169.718 Y120.288 E27.28097
G1 X169.05 Y121.396 E27.39393
G1 X168.658 Y122.057 E27.46103
G1 X168.026 Y123.136 E27.5702
G1 X167.504 Y124.041 E27.66142
G1 X166.851 Y125.19 E27.7768
G1 X165.548 Y127.541 E28.01148
G1 X164.889 Y128.769 E28.13316
G1 X163.556 Y131.307 E28.38345
G1 X162.865 Y132.678 E28.51749
G1 X162.075 Y134.27 E28.67266
G1 X160.924 Y136.672 E28.90521
G1 X159.932 Y138.817 E29.11154
G1 X158.965 Y140.98 E29.3184
G1 X158.245 Y142.641 E29.47645
G1 X157.267 Y144.978 E29.69764
G1 X156.889 Y145.916 E29.78593
G1 X155.75 Y148.878 E30.063
G1 X155.743 Y148.899 E30.06493
G1 X155.346 Y149.976 E30.16515
G1 X155.335 Y150.003 E30.16769
G1 X155.154 Y150.388 E30.20484
G1 X155.042 Y150.597 E30.22554
G1 X154.719 Y151.105 E30.2781
G1 X154.637 Y151.215 E30.29008
G1 X154.389 Y151.518 E30.32426
G1 X154.15 Y151.779 E30.35516
G1 X153.897 Y152.025 E30.38597
G1 X153.495 Y152.386 E30.43314
G1 X153.055 Y152.73 E30.4819
G1 X152.883 Y152.846 E30.50002
G1 X152.442 Y153.104 E30.54463
G1 X152.333 Y153.159 E30.55528
G1 X152.119 Y153.259 E30.57591
G1 X151.932 Y153.34 E30.5937
G1 X151.144 Y153.59 E30.66588
G1 X150.927 Y153.635 E30.68523
G1 X150.123 Y153.719 E30.7558
G1 X149.896 Y153.72 E30.77562
G1 X149.328 Y153.683 E30.82532
G1 X149.035 Y153.631 E30.8513
G1 X148.833 Y153.588 E30.86933
G1 X148.286 Y153.431 E30.91902
G1 X147.915 Y153.274 E30.95419
G1 X147.712 Y153.176 E30.97387
G1 X147.283 Y152.936 E31.01679
G1 X147.059 Y152.792 E31.04004
G1 X146.837 Y152.638 E31.06363
G1 X146.659 Y152.506 E31.08297
G1 X146.231 Y152.141 E31.13209
G1 X145.87 Y151.786 E31.17629
G1 X145.677 Y151.581 E31.20087
G1 X145.564 Y151.45 E31.21598
G1 X145.408 Y151.261 E31.23737
G1 X145.008 Y150.681 E31.29889
G1 X144.894 Y150.48 E31.31906
G1 X144.666 Y150.01 E31.36467
G1 X144.617 Y149.885 E31.37639
G1 X144.318 Y149.082 E31.4512
G1 X144.315 Y149.083 E31.45148
G1 X143.893 Y147.914 E31.55999
G1 X143.047 Y145.753 E31.7626
G1 X142.664 Y144.809 E31.85155
G1 X141.681 Y142.475 E32.07266
G1 X140.734 Y140.304 E32.27945
G1 X140.733 Y140.304 E32.27954
G1 X139.736 Y138.091 E32.49145
G1 X138.991 Y136.49 E32.64563
G1 X138.029 Y134.481 E32.8401
G1 X137.776 Y133.968 E32.89004
G1 X137.775 Y133.968 E32.89013
G1 X136.993 Y132.397 E33.04334
G1 X136.052 Y130.554 E33.22401
G1 X135.611 Y129.714 E33.30684
G1 X134.936 Y128.443 E33.43249
G1 X133.933 Y126.598 E33.61583
G1 X133.934 Y126.598 E33.61592
G1 X133.379 Y125.601 E33.71555
G1 X133.378 Y125.601 E33.71563
G1 X132.693 Y124.388 E33.83726
G1 X132.055 Y123.275 E33.94926
G1 X132.054 Y123.275 E33.94935
G1 X131.641 Y122.566 E34.02099
G1 X131.004 Y121.487 E34.13039
G1 X130.492 Y120.633 E34.21732
G1 X129.885 Y119.634 E34.31938
G1 X129.884 Y119.634 E34.31947
G1 X129.225 Y118.565 E34.42911
G1 X128.476 Y117.369 E34.55231
G1 X127.518 Y115.873 E34.70741
G1 X126.717 Y114.645 E34.83542
G1 X125.491 Y112.809 E35.02817
G1 X124.273 Y111.045 E35.21533
G1 X122.672 Y108.799 E35.45614
G1 X121.014 Y106.606 E35.69617
G1 X120.184 Y105.57 E35.81207
G1 X120.117 Y105.472 E35.82243
G1 X119.272 Y104.416 E35.94051
G1 X118.718 Y103.679 E36.02101
G1 X118.019 Y102.722 E36.12448
G1 X118.008 Y102.708 E36.12603
G1 X117.866 Y102.509 E36.14738
G1 X117.449 Y101.909 E36.21117
G1 X117.447 Y101.906 E36.21149
G1 X117.199 Y101.479 E36.2546
G1 X116.694 Y100.487 E36.35178
G1 X115.621 Y98.339 E36.56142
G1 X115.436 Y97.942 E36.59966
G1 X115.344 Y97.728 E36.62
G1 X114.93 Y96.685 E36.71797
G1 X114.734 Y96.148 E36.76788
G1 X114.664 Y95.935 E36.78745
G1 X114.409 Y95.089 E36.8646
G1 X114.222 Y94.398 E36.9271
G1 X114.169 Y94.179 E36.94677
G1 X113.978 Y93.265 E37.02829
G1 X113.859 Y92.602 E37.0871
G1 X113.824 Y92.372 E37.10742
G1 X113.709 Y91.404 E37.19252
G1 X113.65 Y90.776 E37.2476
G1 X113.635 Y90.545 E37.26781
G1 X113.602 Y89.602 E37.35019
G1 X113.598 Y88.915 E37.41017
G1 X113.603 Y88.689 E37.42991
G1 X113.652 Y87.772 E37.51008
G1 X113.655 Y87.726 E37.51411
G1 X113.707 Y87.076 E37.57104
G1 X113.732 Y86.848 E37.59106
G1 X113.844 Y86.033 E37.66289
G1 X113.969 Y85.285 E37.7291
G1 X113.974 Y85.286 E37.72954
G1 X114.015 Y85.049 E37.75054
