;FLAVOR:Marlin
;TIME:5133
;Filament used: 4.92147m
;Layer height: 0.28
;MINX:68.277
;MINY:116.976
;MINZ:0.3
;MAXX:232.014
;MAXY:183.025
;MAXZ:20.74
;Generated with Cura_SteamEngine 4.6.0
M140 S80
M105
M190 S80
M104 S230
M105
M109 S230
M82 ;absolute extrusion mode
G28 ; home all axes
 M117 Purge extruder
 G92 E0 ; reset extruder
 G1 Z1.0 F3000 ; move z up little to prevent scratching of surface
 G1 X2 Y20 Z0.3 F5000.0 ; move to start-line position
 G1 X2 Y200.0 Z0.3 F1500.0 E15 ; draw 1st line
 G1 X2 Y200.0 Z0.4 F5000.0 ; move to side a little
 G1 X2 Y20 Z0.4 F1500.0 E30 ; draw 2nd line
 G92 E0 ; reset extruder
 G1 Z1.0 F3000 ; move z up little to prevent scratching of surface
G92 E0
G92 E0
G1 F1500 E-6.5
;LAYER_COUNT:74
;LAYER:0
M107
G0 F6000 X73.177 Y118.523 Z0.3
;TYPE:SKIRT
G1 F1500 E0
G1 F1200 X73.766 Y118.209 E0.03663
G1 X74.272 Y117.966 E0.06744
G1 X75.016 Y117.654 E0.11171
G1 X75.787 Y117.416 E0.15599
G1 X76.577 Y117.256 E0.20023
G1 X77.38 Y117.175 E0.24452
G1 X77.796 Y117.164 E0.26736
G1 X90.898 Y117.164 E0.98638
G1 X91.704 Y117.204 E1.03067
G1 X92.236 Y117.275 E1.06013
G1 X92.416 Y117.305 E1.07014
G1 X93.259 Y117.492 E1.11753
G1 X93.888 Y117.666 E1.15334
G1 X94.656 Y117.914 E1.19763
G1 X95.077 Y118.087 E1.22261
G1 X95.691 Y118.359 E1.25947
G1 X96.719 Y118.898 E1.32317
G1 X97.26 Y119.233 E1.35809
G1 X97.688 Y119.517 E1.38628
G1 X98.324 Y120.006 E1.4303
G1 X98.873 Y120.473 E1.46986
G1 X99.707 Y121.292 E1.53401
G1 X100.166 Y121.813 E1.57211
G1 X100.468 Y122.177 E1.59807
G1 X100.486 Y122.2 E1.59967
G1 X100.909 Y122.793 E1.63965
G1 X101.304 Y123.403 E1.67953
G1 X101.708 Y124.101 E1.72379
G1 X101.953 Y124.62 E1.75528
G1 X102.078 Y124.911 E1.77266
G1 X102.082 Y124.92 E1.7732
G1 X102.738 Y126.45 E1.86456
G1 X102.8 Y126.578 E1.87237
G1 X102.807 Y126.589 E1.87308
G1 X103.54 Y128.101 E1.9653
G1 X104.415 Y129.711 E2.06586
G1 X105.42 Y131.367 E2.17216
G1 X105.436 Y131.389 E2.17366
G1 X106.367 Y132.782 E2.26561
G1 X106.445 Y132.889 E2.27287
G1 X106.458 Y132.904 E2.27396
G1 X107.46 Y134.265 E2.36671
G1 X107.547 Y134.373 E2.37432
G1 X107.552 Y134.379 E2.37475
G1 X108.59 Y135.661 E2.46528
G1 X109.823 Y137.049 E2.56716
G1 X109.912 Y137.14 E2.57415
G1 X111.072 Y138.331 E2.66539
G1 X111.182 Y138.433 E2.67362
G1 X111.196 Y138.446 E2.67467
G1 X112.404 Y139.578 E2.76552
G1 X112.492 Y139.653 E2.77187
G1 X112.525 Y139.683 E2.77431
G1 X113.788 Y140.762 E2.86548
G1 X113.901 Y140.85 E2.87334
G1 X113.922 Y140.867 E2.87482
G1 X115.246 Y141.897 E2.96688
G1 X116.748 Y142.959 E3.06783
G1 X118.267 Y143.931 E3.1668
G1 X118.396 Y144.006 E3.17499
G1 X119.859 Y144.85 E3.26768
G1 X121.489 Y145.694 E3.36841
G1 X121.618 Y145.754 E3.37622
G1 X121.625 Y145.758 E3.37666
G1 X123.149 Y146.459 E3.46872
G1 X124.812 Y147.136 E3.56726
G1 X126.56 Y147.755 E3.66902
G1 X126.681 Y147.792 E3.67597
G1 X128.291 Y148.279 E3.76828
G1 X128.424 Y148.313 E3.77581
G1 X128.462 Y148.325 E3.778
G1 X130.051 Y148.728 E3.86796
G1 X131.869 Y149.102 E3.96982
G1 X133.64 Y149.382 E4.06822
G1 X133.8 Y149.4 E4.07705
G1 X133.813 Y149.402 E4.07778
G1 X135.481 Y149.588 E4.16988
G1 X135.611 Y149.597 E4.17703
G1 X137.298 Y149.707 E4.26981
G1 X137.47 Y149.711 E4.27925
G1 X137.47 Y149.712 E4.27931
G1 X139.095 Y149.743 E4.3685
G1 X139.247 Y149.739 E4.37685
G1 X139.264 Y149.738 E4.37778
G1 X140.939 Y149.696 E4.46973
G1 X141.057 Y149.688 E4.47622
G1 X141.084 Y149.684 E4.47772
G1 X142.742 Y149.566 E4.56894
G1 X142.89 Y149.548 E4.57712
G1 X142.905 Y149.546 E4.57795
G1 X144.563 Y149.351 E4.66957
G1 X144.696 Y149.329 E4.67697
G1 X144.719 Y149.324 E4.67826
G1 X146.379 Y149.052 E4.77058
G1 X148.157 Y148.675 E4.87032
G1 X148.283 Y148.642 E4.87747
G1 X148.296 Y148.638 E4.87821
G1 X149.93 Y148.212 E4.97088
G1 X150.042 Y148.177 E4.97732
G1 X150.065 Y148.169 E4.97866
G1 X151.782 Y147.632 E5.07739
G1 X151.807 Y147.622 E5.07887
G1 X153.387 Y147.053 E5.17103
G1 X155.209 Y146.289 E5.27945
G1 X156.724 Y145.581 E5.37123
G1 X158.33 Y144.737 E5.47079
G1 X158.449 Y144.667 E5.47837
G1 X158.464 Y144.658 E5.47933
G1 X159.908 Y143.813 E5.57114
G1 X161.454 Y142.811 E5.67225
G1 X162.928 Y141.755 E5.77176
G1 X164.354 Y140.632 E5.87137
G1 X164.473 Y140.529 E5.88001
G1 X164.478 Y140.524 E5.88039
G1 X165.75 Y139.425 E5.97265
G1 X167.059 Y138.185 E6.0716
G1 X167.167 Y138.073 E6.08014
G1 X167.169 Y138.071 E6.08029
G1 X168.409 Y136.777 E6.17865
G1 X168.431 Y136.748 E6.18065
G1 X169.528 Y135.5 E6.27183
G1 X169.637 Y135.367 E6.28127
G1 X170.673 Y134.071 E6.37232
G1 X171.762 Y132.573 E6.47396
G1 X171.848 Y132.444 E6.48247
G1 X172.753 Y131.071 E6.57271
G1 X172.836 Y130.932 E6.5816
G1 X172.839 Y130.927 E6.58192
G1 X173.697 Y129.484 E6.67405
G1 X174.549 Y127.893 E6.7731
G1 X175.333 Y126.253 E6.87285
G1 X175.404 Y126.09 E6.88261
G1 X176.119 Y124.394 E6.98362
G1 X176.469 Y123.667 E7.0279
G1 X176.477 Y123.653 E7.02878
G1 X176.958 Y122.77 E7.08396
G1 X177.378 Y122.082 E7.1282
G1 X177.898 Y121.399 E7.17531
G1 X178.553 Y120.626 E7.23091
G1 X179.104 Y120.037 E7.27518
G1 X179.739 Y119.484 E7.32139
G1 X180.542 Y118.854 E7.3774
G1 X181.2 Y118.388 E7.42165
G1 X181.902 Y117.989 E7.46596
G1 X182.639 Y117.662 E7.51021
G1 X183.405 Y117.41 E7.55446
G1 X184.193 Y117.235 E7.59876
G1 X184.994 Y117.138 E7.64304
G1 X185.416 Y117.119 E7.66622
G1 X193.422 Y116.976 E8.10566
G1 X195.262 Y116.999 E8.20664
G1 X195.758 Y117.02 E8.23389
G1 X197.592 Y117.155 E8.33481
G1 X198.086 Y117.207 E8.36207
G1 X199.91 Y117.454 E8.46308
G1 X200.409 Y117.537 E8.49084
G1 X202.215 Y117.897 E8.5919
G1 X202.211 Y117.916 E8.59297
G1 X202.699 Y118.008 E8.62022
G1 X204.478 Y118.477 E8.72119
G1 X204.956 Y118.619 E8.74855
G1 X206.703 Y119.196 E8.84952
G1 X207.173 Y119.367 E8.87697
G1 X208.883 Y120.051 E8.97804
G1 X209.338 Y120.25 E9.0053
G1 X210.999 Y121.035 E9.10612
G1 X211.445 Y121.262 E9.13358
G1 X213.059 Y122.15 E9.23468
G1 X213.487 Y122.403 E9.26196
G1 X215.041 Y123.386 E9.36287
G1 X215.455 Y123.666 E9.3903
G1 X216.946 Y124.743 E9.49124
G1 X217.344 Y125.05 E9.51883
G1 X218.767 Y126.218 E9.61986
G1 X219.143 Y126.546 E9.64724
G1 X220.492 Y127.799 E9.74828
G1 X220.486 Y127.806 E9.74879
G1 X220.846 Y128.147 E9.776
G1 X222.115 Y129.479 E9.87696
G1 X222.449 Y129.853 E9.90448
G1 X223.634 Y131.261 E10.00547
G1 X223.944 Y131.653 E10.0329
G1 X225.04 Y133.131 E10.13388
G1 X225.323 Y133.537 E10.16104
G1 X226.328 Y135.08 E10.2621
G1 X226.588 Y135.509 E10.28963
G1 X227.495 Y137.109 E10.39056
G1 X227.727 Y137.548 E10.41781
G1 X228.535 Y139.201 E10.51878
G1 X228.74 Y139.654 E10.54607
G1 X229.446 Y141.354 E10.64709
G1 X229.617 Y141.83 E10.67485
G1 X229.624 Y141.828 E10.67525
G1 X230.223 Y143.569 E10.77629
G1 X230.212 Y143.573 E10.77693
G1 X230.372 Y144.046 E10.80433
G1 X230.862 Y145.817 E10.90517
G1 X230.97 Y146.296 E10.93212
G1 X230.978 Y146.294 E10.93257
G1 X231.361 Y148.094 E11.03357
G1 X231.45 Y148.59 E11.06122
G1 X231.721 Y150.411 E11.16226
G1 X231.784 Y150.956 E11.19237
G1 X231.933 Y152.806 E11.29422
G1 X231.955 Y153.212 E11.31654
G1 X232.014 Y155.268 E11.42941
G1 X232.014 Y169.497 E12.21029
G1 X231.981 Y170.234 E12.25078
G1 X231.936 Y170.67 E12.27483
G1 X231.781 Y171.856 E12.34047
G1 X231.637 Y172.65 E12.38476
G1 X231.489 Y173.2 E12.41601
G1 X231.419 Y173.427 E12.42905
G1 X231.161 Y174.142 E12.47077
G1 X230.703 Y175.248 E12.53646
G1 X230.258 Y176.158 E12.59205
G1 X230.2 Y176.26 E12.59849
G1 X229.578 Y177.197 E12.66021
G1 X228.777 Y178.239 E12.73234
G1 X228.254 Y178.853 E12.7766
G1 X227.854 Y179.251 E12.80757
G1 X227.191 Y179.819 E12.85548
G1 X226.242 Y180.547 E12.92112
G1 X225.461 Y181.077 E12.97292
G1 X225.255 Y181.2 E12.98608
G1 X224.194 Y181.732 E13.05122
G1 X223.092 Y182.188 E13.11667
G1 X221.946 Y182.566 E13.1829
G1 X221.713 Y182.624 E13.19607
G1 X220.791 Y182.798 E13.24756
G1 X219.554 Y182.958 E13.31602
G1 X218.51 Y183.025 E13.37343
G1 X138.992 Y183.025 E17.73731
G1 X138.789 Y183.022 E17.74846
G1 X135.548 Y182.941 E17.92637
G1 X135.143 Y182.921 E17.94863
G1 X131.911 Y182.679 E18.12649
G1 X131.507 Y182.639 E18.14877
G1 X128.292 Y182.236 E18.32659
G1 X127.891 Y182.175 E18.34885
G1 X124.698 Y181.612 E18.52678
G1 X124.301 Y181.532 E18.54901
G1 X121.14 Y180.811 E18.72694
G1 X120.744 Y180.71 E18.74936
G1 X117.625 Y179.832 E18.92719
G1 X117.239 Y179.713 E18.94935
G1 X114.167 Y178.681 E19.1272
G1 X113.789 Y178.533 E19.14948
G1 X113.786 Y178.542 E19.15
G1 X110.768 Y177.358 E19.32791
G1 X110.393 Y177.2 E19.35025
G1 X107.439 Y175.867 E19.5281
G1 X107.075 Y175.691 E19.55029
G1 X104.189 Y174.212 E19.72826
G1 X103.829 Y174.016 E19.75075
G1 X101.023 Y172.395 E19.92859
G1 X100.678 Y172.184 E19.95078
G1 X97.957 Y170.426 E20.12857
G1 X97.622 Y170.198 E20.15081
G1 X94.989 Y168.305 E20.32877
G1 X94.665 Y168.06 E20.35106
G1 X92.131 Y166.039 E20.52894
G1 X91.82 Y165.778 E20.55122
G1 X89.39 Y163.633 E20.7291
G1 X89.092 Y163.356 E20.75143
G1 X86.773 Y161.093 E20.92925
G1 X86.493 Y160.805 E20.95129
G1 X84.287 Y158.429 E21.12922
G1 X84.016 Y158.123 E21.15165
G1 X81.933 Y155.64 E21.32952
G1 X81.68 Y155.322 E21.35182
G1 X79.724 Y152.739 E21.52963
G1 X79.486 Y152.408 E21.552
G1 X77.66 Y149.728 E21.72997
G1 X77.441 Y149.389 E21.75212
G1 X75.751 Y146.623 E21.93001
G1 X75.548 Y146.272 E21.95226
G1 X73.998 Y143.426 E22.13011
G1 X73.812 Y143.063 E22.15249
G1 X72.406 Y140.142 E22.3304
G1 X72.24 Y139.773 E22.3526
G1 X70.981 Y136.785 E22.53054
G1 X70.833 Y136.408 E22.55277
G1 X69.725 Y133.364 E22.73054
G1 X69.595 Y132.978 E22.7529
G1 X68.64 Y129.88 E22.93081
G1 X68.441 Y129.098 E22.97509
G1 X68.32 Y128.301 E23.01933
G1 X68.282 Y127.723 E23.05112
G1 X68.277 Y127.427 E23.06737
G1 X68.277 Y126.956 E23.09321
G1 X68.317 Y126.15 E23.1375
G1 X68.379 Y125.67 E23.16406
G1 X68.623 Y124.579 E23.22541
G1 X68.773 Y124.074 E23.25433
G1 X69.041 Y123.313 E23.2986
G1 X69.382 Y122.583 E23.34282
G1 X69.69 Y122.052 E23.37651
G1 X69.99 Y121.576 E23.40739
G1 X70.453 Y120.916 E23.45163
G1 X70.98 Y120.304 E23.49595
G1 X71.46 Y119.839 E23.53263
G1 X71.874 Y119.47 E23.56306
G1 X72.502 Y118.964 E23.60732
G1 X73.177 Y118.523 E23.65157
G0 F6000 X73.437 Y118.881
G1 F1200 X73.957 Y118.606 E23.68385
G1 X74.463 Y118.363 E23.71466
G1 X75.186 Y118.06 E23.75768
G1 X75.937 Y117.832 E23.80075
G1 X76.707 Y117.681 E23.84381
G1 X77.796 Y117.604 E23.90373
G1 X90.898 Y117.604 E24.62275
G1 X91.682 Y117.644 E24.66583
G1 X92.164 Y117.709 E24.69253
G1 X92.344 Y117.739 E24.70254
G1 X93.141 Y117.916 E24.74734
G1 X93.774 Y118.091 E24.78339
G1 X94.52 Y118.333 E24.82643
G1 X94.899 Y118.489 E24.84892
G1 X95.515 Y118.762 E24.8859
G1 X96.488 Y119.272 E24.94618
G1 X97.029 Y119.607 E24.9811
G1 X97.437 Y119.878 E25.00798
G1 X98.039 Y120.341 E25.04966
G1 X98.588 Y120.808 E25.08922
G1 X99.377 Y121.583 E25.14991
G1 X99.836 Y122.104 E25.18802
G1 X100.122 Y122.448 E25.21257
G1 X100.14 Y122.471 E25.21417
G1 X100.539 Y123.032 E25.25195
G1 X100.934 Y123.642 E25.29183
G1 X101.327 Y124.321 E25.33489
G1 X101.548 Y124.794 E25.36354
G1 X101.659 Y125.053 E25.379
G1 X101.678 Y125.093 E25.38143
G1 X102.344 Y126.645 E25.47412
G1 X102.404 Y126.769 E25.48168
G1 X102.411 Y126.781 E25.48244
G1 X103.151 Y128.306 E25.57546
G1 X104.03 Y129.926 E25.67661
G1 X105.053 Y131.609 E25.7847
G1 X105.07 Y131.633 E25.78631
G1 X106.088 Y133.147 E25.88643
G1 X106.103 Y133.165 E25.88772
G1 X107.096 Y134.514 E25.97964
G1 X107.205 Y134.649 E25.98917
G1 X107.216 Y134.665 E25.99023
G1 X108.257 Y135.949 E26.08095
G1 X109.5 Y137.348 E26.18365
G1 X109.597 Y137.447 E26.19126
G1 X110.768 Y138.649 E26.28335
G1 X110.882 Y138.755 E26.29189
G1 X110.895 Y138.767 E26.29286
G1 X112.11 Y139.906 E26.38426
G1 X112.208 Y139.989 E26.39131
G1 X112.239 Y140.017 E26.3936
G1 X113.522 Y141.114 E26.48624
G1 X113.631 Y141.198 E26.49379
G1 X113.652 Y141.215 E26.49527
G1 X114.985 Y142.252 E26.58796
G1 X116.481 Y143.31 E26.68851
G1 X118.049 Y144.313 E26.79066
G1 X118.176 Y144.387 E26.79873
G1 X119.659 Y145.243 E26.8927
G1 X121.28 Y146.082 E26.99287
G1 X121.433 Y146.153 E27.00212
G1 X121.448 Y146.161 E27.00306
G1 X122.951 Y146.853 E27.09386
G1 X124.678 Y147.555 E27.19617
G1 X126.423 Y148.174 E27.29778
G1 X126.554 Y148.214 E27.3053
G1 X126.554 Y148.213 E27.30535
G1 X128.168 Y148.702 E27.3979
G1 X128.316 Y148.739 E27.40628
G1 X128.352 Y148.75 E27.40834
G1 X129.966 Y149.159 E27.49972
G1 X131.779 Y149.532 E27.6013
G1 X131.949 Y149.56 E27.61075
G1 X133.587 Y149.819 E27.70176
G1 X133.751 Y149.837 E27.71081
G1 X133.763 Y149.839 E27.71148
G1 X135.448 Y150.027 E27.80453
G1 X137.284 Y150.147 E27.9055
G1 X139.12 Y150.183 E28.00628
G1 X139.254 Y150.179 E28.01364
G1 X139.275 Y150.177 E28.01479
G1 X140.98 Y150.134 E28.10839
G1 X141.088 Y150.126 E28.11433
G1 X141.116 Y150.123 E28.11588
G1 X142.782 Y150.004 E28.20754
G1 X142.942 Y149.985 E28.21638
G1 X142.956 Y149.983 E28.21716
G1 X144.624 Y149.787 E28.30933
G1 X144.768 Y149.763 E28.31734
G1 X144.791 Y149.758 E28.31863
G1 X146.452 Y149.486 E28.411
G1 X148.273 Y149.1 E28.51316
G1 X148.393 Y149.069 E28.51996
G1 X148.407 Y149.064 E28.52077
G1 X150.043 Y148.638 E28.61355
G1 X150.162 Y148.601 E28.62039
G1 X150.195 Y148.589 E28.62232
G1 X151.823 Y148.085 E28.71584
G1 X151.937 Y148.044 E28.72249
G1 X151.956 Y148.036 E28.72362
G1 X153.533 Y147.468 E28.81561
G1 X155.257 Y146.754 E28.91801
G1 X155.375 Y146.699 E28.92516
G1 X155.395 Y146.688 E28.92641
G1 X156.91 Y145.98 E29.01818
G1 X158.561 Y145.112 E29.12055
G1 X158.662 Y145.053 E29.12697
G1 X158.686 Y145.038 E29.12852
G1 X160.14 Y144.187 E29.22098
G1 X161.686 Y143.185 E29.32208
G1 X163.206 Y142.096 E29.4247
G1 X164.637 Y140.969 E29.52466
G1 X164.761 Y140.862 E29.53365
G1 X164.766 Y140.857 E29.53404
G1 X166.03 Y139.766 E29.62567
G1 X167.378 Y138.488 E29.72761
G1 X167.484 Y138.378 E29.73599
G1 X167.498 Y138.364 E29.73708
G1 X168.737 Y137.069 E29.83544
G1 X168.762 Y137.038 E29.83762
G1 X169.872 Y135.775 E29.9299
G1 X169.948 Y135.679 E29.93662
G1 X169.969 Y135.654 E29.93841
G1 X171.039 Y134.316 E30.03243
G1 X172.119 Y132.831 E30.1332
G1 X172.214 Y132.688 E30.14262
G1 X173.136 Y131.289 E30.23457
G1 X174.079 Y129.703 E30.33583
G1 X174.945 Y128.085 E30.43655
G1 X175.735 Y126.433 E30.53704
G1 X175.812 Y126.255 E30.54768
G1 X176.525 Y124.565 E30.64835
G1 X176.866 Y123.858 E30.69142
G1 X176.873 Y123.847 E30.69214
G1 X177.344 Y122.981 E30.74624
G1 X177.754 Y122.312 E30.7893
G1 X178.233 Y121.683 E30.83269
G1 X178.888 Y120.91 E30.88829
G1 X179.425 Y120.338 E30.93135
G1 X180.01 Y119.83 E30.97387
G1 X180.813 Y119.2 E31.02988
G1 X181.454 Y118.748 E31.07292
G1 X182.138 Y118.363 E31.116
G1 X182.858 Y118.05 E31.15908
G1 X183.605 Y117.812 E31.20211
G1 X184.373 Y117.651 E31.24517
G1 X185.424 Y117.559 E31.30307
G1 X193.416 Y117.416 E31.74173
G1 X195.256 Y117.439 E31.84272
G1 X195.725 Y117.459 E31.86848
G1 X197.559 Y117.594 E31.9694
G1 X198.027 Y117.643 E31.99523
G1 X199.851 Y117.89 E32.09624
G1 X200.323 Y117.969 E32.1225
G1 X202.129 Y118.329 E32.22357
G1 X202.128 Y118.335 E32.2239
G1 X202.587 Y118.433 E32.24966
G1 X204.366 Y118.902 E32.35062
G1 X204.818 Y119.036 E32.37649
G1 X206.565 Y119.613 E32.47746
G1 X207.01 Y119.776 E32.50347
G1 X208.72 Y120.46 E32.60454
G1 X209.15 Y120.647 E32.63028
G1 X210.811 Y121.432 E32.7311
G1 X211.233 Y121.648 E32.75711
G1 X212.847 Y122.536 E32.85821
G1 X213.251 Y122.775 E32.88397
G1 X214.805 Y123.758 E32.98488
G1 X215.198 Y124.023 E33.0109
G1 X216.689 Y125.1 E33.11183
G1 X217.065 Y125.39 E33.13789
G1 X218.488 Y126.558 E33.23892
G1 X218.843 Y126.868 E33.26479
G1 X220.192 Y128.121 E33.36583
G1 X220.18 Y128.134 E33.3668
G1 X220.527 Y128.451 E33.39259
G1 X221.796 Y129.783 E33.49356
G1 X222.112 Y130.136 E33.51956
G1 X223.297 Y131.544 E33.62055
G1 X223.591 Y131.916 E33.64657
G1 X224.687 Y133.394 E33.74755
G1 X224.954 Y133.778 E33.77322
G1 X225.959 Y135.321 E33.87427
G1 X226.206 Y135.726 E33.90031
G1 X227.113 Y137.326 E34.00124
G1 X227.332 Y137.742 E34.02704
G1 X228.14 Y139.395 E34.12801
G1 X228.333 Y139.823 E34.15378
G1 X229.039 Y141.523 E34.2548
G1 X229.2 Y141.974 E34.28108
G1 X229.208 Y141.971 E34.28155
G1 X229.807 Y143.712 E34.38259
G1 X229.804 Y143.713 E34.38277
G1 X229.948 Y144.164 E34.40875
G1 X230.438 Y145.935 E34.50959
G1 X230.539 Y146.387 E34.53501
G1 X230.547 Y146.385 E34.53546
G1 X230.93 Y148.185 E34.63645
