;FLAVOR:Marlin
;TIME:13001
;Filament used: 12.875m
;Layer height: 0.28
;MINX:73.362
;MINY:76.109
;MINZ:0.3
;MAXX:226.64
;MAXY:223.12
;MAXZ:31.94
;Generated with Cura_SteamEngine 4.6.0
M140 S80
M105
M190 S80
M104 S230
M105
M109 S230
M82 ;absolute extrusion mode
G28 ; home all axes
 M117 Purge extruder
 G92 E0 ; reset extruder
 G1 Z1.0 F3000 ; move z up little to prevent scratching of surface
 G1 X2 Y20 Z0.3 F5000.0 ; move to start-line position
 G1 X2 Y200.0 Z0.3 F1500.0 E15 ; draw 1st line
 G1 X2 Y200.0 Z0.4 F5000.0 ; move to side a little
 G1 X2 Y20 Z0.4 F1500.0 E30 ; draw 2nd line
 G92 E0 ; reset extruder
 G1 Z1.0 F3000 ; move z up little to prevent scratching of surface
G92 E0
G92 E0
G1 F1500 E-6.5
;LAYER_COUNT:114
;LAYER:0
M107
G0 F6000 X95.413 Y96.334 Z0.3
;TYPE:SKIRT
G1 F1500 E0
G1 F1200 X95.644 Y96.113 E0.01754
G1 X97.538 Y94.364 E0.15902
G1 X97.789 Y94.141 E0.17745
G1 X99.754 Y92.471 E0.31897
G1 X100.003 Y92.268 E0.3366
G1 X102.031 Y90.678 E0.47803
G1 X102.296 Y90.478 E0.49625
G1 X104.386 Y88.973 E0.63759
G1 X104.654 Y88.789 E0.65543
G1 X106.805 Y87.367 E0.79694
G1 X107.084 Y87.19 E0.81507
G1 X109.29 Y85.857 E0.95652
G1 X109.572 Y85.694 E0.97439
G1 X111.83 Y84.45 E1.11587
G1 X112.121 Y84.297 E1.13391
G1 X114.428 Y83.145 E1.27543
G1 X114.429 Y83.148 E1.2756
G1 X114.725 Y83.004 E1.29367
G1 X117.074 Y81.947 E1.43503
G1 X117.373 Y81.819 E1.45288
G1 X119.764 Y80.856 E1.59434
G1 X120.073 Y80.749 E1.61228
G1 X120.07 Y80.741 E1.61275
G1 X122.498 Y79.875 E1.75422
G1 X122.815 Y79.77 E1.77254
G1 X125.277 Y79.004 E1.91405
G1 X125.585 Y78.914 E1.93166
G1 X128.074 Y78.246 E2.07308
G1 X128.393 Y78.167 E2.09112
G1 X130.907 Y77.6 E2.23255
G1 X131.232 Y77.544 E2.25065
G1 X131.23 Y77.535 E2.25116
G1 X133.766 Y77.07 E2.39265
G1 X134.091 Y77.018 E2.41071
G1 X136.644 Y76.656 E2.55222
G1 X136.969 Y76.616 E2.57019
G1 X139.532 Y76.357 E2.71156
G1 X139.861 Y76.331 E2.72967
G1 X142.435 Y76.176 E2.87119
G1 X142.76 Y76.163 E2.88904
G1 X145.5 Y76.109 E3.03944
G1 X205.499 Y76.109 E6.33214
G1 X205.895 Y76.119 E6.35387
G1 X207.169 Y76.181 E6.42387
G1 X207.964 Y76.259 E6.46771
G1 X209.228 Y76.446 E6.53783
G1 X210.017 Y76.603 E6.58198
G1 X211.253 Y76.913 E6.65191
G1 X212.018 Y77.145 E6.69578
G1 X213.221 Y77.576 E6.76591
G1 X213.957 Y77.881 E6.80964
G1 X215.109 Y78.426 E6.87957
G1 X215.812 Y78.802 E6.92333
G1 X216.905 Y79.457 E6.99326
G1 X217.57 Y79.901 E7.03714
G1 X218.596 Y80.662 E7.10724
G1 X219.211 Y81.167 E7.15091
G1 X220.155 Y82.022 E7.22081
G1 X220.724 Y82.59 E7.26493
G1 X221.581 Y83.536 E7.33498
G1 X222.081 Y84.146 E7.37827
G1 X222.842 Y85.17 E7.44828
G1 X223.293 Y85.845 E7.49283
G1 X223.949 Y86.941 E7.56293
G1 X224.326 Y87.645 E7.60676
G1 X224.87 Y88.797 E7.67667
G1 X225.172 Y89.528 E7.72008
G1 X225.603 Y90.731 E7.79021
G1 X225.835 Y91.494 E7.83397
G1 X226.145 Y92.729 E7.90385
G1 X226.302 Y93.518 E7.948
G1 X226.489 Y94.78 E8.01801
G1 X226.567 Y95.572 E8.06169
G1 X226.63 Y96.848 E8.1318
G1 X226.64 Y97.249 E8.15381
G1 X226.64 Y199.248 E13.75144
G1 X226.63 Y199.65 E13.77351
G1 X226.567 Y200.924 E13.84351
G1 X226.489 Y201.713 E13.88702
G1 X226.302 Y202.977 E13.95714
G1 X226.145 Y203.768 E14.0014
G1 X225.835 Y205.003 E14.07128
G1 X225.606 Y205.757 E14.11452
G1 X225.177 Y206.959 E14.18456
G1 X224.869 Y207.704 E14.2288
G1 X224.323 Y208.858 E14.29886
G1 X223.947 Y209.561 E14.34262
G1 X223.292 Y210.654 E14.41255
G1 X222.848 Y211.319 E14.45643
G1 X222.087 Y212.345 E14.52653
G1 X221.579 Y212.964 E14.57048
G1 X220.723 Y213.908 E14.64041
G1 X220.161 Y214.47 E14.68403
G1 X219.216 Y215.327 E14.75404
G1 X218.598 Y215.834 E14.79791
G1 X217.571 Y216.596 E14.86809
G1 X216.905 Y217.041 E14.91204
G1 X215.812 Y217.696 E14.98197
G1 X215.104 Y218.075 E15.02604
G1 X213.952 Y218.619 E15.09596
G1 X213.221 Y218.921 E15.13936
G1 X212.018 Y219.352 E15.20949
G1 X211.253 Y219.584 E15.25336
G1 X210.017 Y219.894 E15.3233
G1 X209.228 Y220.051 E15.36744
G1 X207.964 Y220.238 E15.43757
G1 X207.175 Y220.316 E15.48108
G1 X205.902 Y220.379 E15.55102
G1 X205.5 Y220.389 E15.57309
G1 X145.5 Y220.389 E18.86585
G1 X145.211 Y220.384 E18.88171
G1 X145.178 Y220.424 E18.88455
G1 X144.605 Y220.992 E18.92883
G1 X143.979 Y221.501 E18.97311
G1 X143.305 Y221.945 E19.0174
G1 X142.591 Y222.32 E19.06166
G1 X141.53 Y222.725 E19.12399
G1 X141.385 Y222.769 E19.1323
G1 X140.602 Y222.965 E19.1766
G1 X139.804 Y223.082 E19.22086
G1 X138.998 Y223.12 E19.26514
G1 X138.192 Y223.078 E19.30944
G1 X137.534 Y222.983 E19.34592
G1 X136.586 Y222.754 E19.39944
G1 X114.088 Y215.877 E20.69051
G1 X113.329 Y215.604 E20.73477
G1 X112.601 Y215.256 E20.77906
G1 X111.911 Y214.838 E20.82333
G1 X111.265 Y214.354 E20.86763
G1 X110.671 Y213.808 E20.9119
G1 X110.134 Y213.207 E20.95613
G1 X109.659 Y212.555 E21.0004
G1 X109.197 Y211.754 E21.05115
G1 X109.054 Y211.47 E21.0686
G1 X108.727 Y210.732 E21.1129
G1 X108.55 Y210.194 E21.14398
G1 X107.083 Y209.307 E21.23806
G1 X106.806 Y209.132 E21.25604
G1 X104.657 Y207.712 E21.3974
G1 X104.385 Y207.524 E21.41554
G1 X102.293 Y206.016 E21.55707
G1 X102.032 Y205.82 E21.57498
G1 X100.003 Y204.23 E21.71645
G1 X99.751 Y204.024 E21.73431
G1 X97.787 Y202.354 E21.87579
G1 X97.543 Y202.138 E21.89368
G1 X95.648 Y200.391 E22.03512
G1 X95.408 Y200.16 E22.0534
G1 X93.586 Y198.337 E22.19485
G1 X93.361 Y198.104 E22.21262
G1 X91.612 Y196.209 E22.35414
G1 X91.393 Y195.961 E22.3723
G1 X89.724 Y193.998 E22.5137
G1 X89.517 Y193.744 E22.53169
G1 X87.927 Y191.714 E22.6732
G1 X87.731 Y191.454 E22.69106
G1 X86.225 Y189.364 E22.83244
G1 X86.038 Y189.093 E22.85051
G1 X84.616 Y186.941 E22.99206
G1 X84.442 Y186.666 E23.00992
G1 X83.109 Y184.462 E23.15127
G1 X82.944 Y184.176 E23.16939
G1 X81.701 Y181.919 E23.3108
G1 X81.548 Y181.629 E23.32879
G1 X80.396 Y179.322 E23.47031
G1 X80.256 Y179.025 E23.48833
G1 X79.198 Y176.674 E23.62981
G1 X79.069 Y176.372 E23.64783
G1 X78.107 Y173.981 E23.78927
G1 X77.991 Y173.675 E23.80723
G1 X77.126 Y171.247 E23.94868
G1 X77.023 Y170.938 E23.96655
G1 X76.256 Y168.478 E24.10797
G1 X76.164 Y168.159 E24.12619
G1 X75.498 Y165.67 E24.26759
G1 X75.421 Y165.359 E24.28517
G1 X74.853 Y162.843 E24.42672
G1 X74.786 Y162.516 E24.44504
G1 X74.322 Y159.981 E24.58647
G1 X74.27 Y159.658 E24.60442
G1 X73.908 Y157.106 E24.74588
G1 X73.868 Y156.781 E24.76385
G1 X73.609 Y154.216 E24.90533
G1 X73.583 Y153.891 E24.92322
G1 X73.427 Y151.319 E25.06463
G1 X73.414 Y150.99 E25.0827
G1 X73.362 Y148.413 E25.22415
G1 X73.362 Y148.085 E25.24215
G1 X73.414 Y145.508 E25.38361
G1 X73.427 Y145.179 E25.40167
G1 X73.583 Y142.607 E25.54308
G1 X73.609 Y142.283 E25.56092
G1 X73.868 Y139.717 E25.70246
G1 X73.908 Y139.39 E25.72054
G1 X74.27 Y136.839 E25.86194
G1 X74.322 Y136.518 E25.87978
G1 X74.786 Y133.982 E26.02127
G1 X74.852 Y133.657 E26.03947
G1 X75.419 Y131.142 E26.18095
G1 X75.435 Y131.146 E26.18186
G1 X75.497 Y130.822 E26.19996
G1 X76.165 Y128.333 E26.34139
G1 X76.255 Y128.023 E26.3591
G1 X77.021 Y125.563 E26.5005
G1 X77.134 Y125.255 E26.5185
G1 X77.126 Y125.252 E26.51897
G1 X77.991 Y122.823 E26.66047
G1 X78.107 Y122.516 E26.67848
G1 X79.069 Y120.125 E26.81992
G1 X79.198 Y119.823 E26.83795
G1 X80.256 Y117.472 E26.97943
G1 X80.396 Y117.175 E26.99745
G1 X81.547 Y114.87 E27.13884
G1 X81.707 Y114.586 E27.15673
G1 X81.7 Y114.582 E27.15717
G1 X82.943 Y112.324 E27.29862
G1 X83.109 Y112.035 E27.31691
G1 X84.443 Y109.83 E27.45834
G1 X84.616 Y109.557 E27.47608
G1 X86.037 Y107.406 E27.61756
G1 X86.224 Y107.135 E27.63563
G1 X87.731 Y105.043 E27.77712
G1 X87.927 Y104.782 E27.79503
G1 X89.516 Y102.753 E27.93647
G1 X89.726 Y102.496 E27.95468
G1 X91.396 Y100.534 E28.09608
G1 X91.61 Y100.292 E28.11381
G1 X93.358 Y98.396 E28.25533
G1 X93.59 Y98.155 E28.27369
G1 X95.413 Y96.334 E28.41509
G0 F6000 X95.724 Y96.645
G1 F1200 X95.942 Y96.436 E28.43167
G1 X97.836 Y94.687 E28.57315
G1 X98.074 Y94.477 E28.59057
G1 X100.039 Y92.807 E28.73209
G1 X100.274 Y92.614 E28.74878
G1 X102.302 Y91.024 E28.8902
G1 X102.553 Y90.835 E28.90744
G1 X104.643 Y89.33 E29.04878
G1 X104.897 Y89.156 E29.06568
G1 X107.048 Y87.734 E29.20719
G1 X107.312 Y87.567 E29.22433
G1 X109.518 Y86.234 E29.36578
G1 X109.784 Y86.08 E29.38265
G1 X112.042 Y84.836 E29.52413
G1 X112.318 Y84.691 E29.54124
G1 X114.625 Y83.539 E29.68275
G1 X114.631 Y83.55 E29.68344
G1 X114.905 Y83.405 E29.70045
G1 X117.254 Y82.348 E29.84181
G1 X117.537 Y82.228 E29.85868
G1 X119.928 Y81.265 E30.00014
G1 X120.221 Y81.164 E30.01715
G1 X120.218 Y81.156 E30.01762
G1 X122.646 Y80.29 E30.15909
G1 X122.945 Y80.19 E30.17639
G1 X125.407 Y79.424 E30.31789
G1 X125.699 Y79.339 E30.33458
G1 X128.188 Y78.671 E30.47601
G1 X128.49 Y78.597 E30.49307
G1 X131.004 Y78.03 E30.6345
G1 X131.311 Y77.977 E30.6516
G1 X131.309 Y77.968 E30.65211
G1 X133.845 Y77.503 E30.7936
G1 X134.153 Y77.453 E30.81073
G1 X136.706 Y77.091 E30.95223
G1 X137.013 Y77.054 E30.9692
G1 X139.576 Y76.795 E31.11058
G1 X139.887 Y76.77 E31.1277
G1 X142.461 Y76.615 E31.26921
G1 X142.769 Y76.603 E31.28613
G1 X145.5 Y76.549 E31.43603
G1 X205.499 Y76.549 E34.72873
G1 X205.873 Y76.558 E34.74926
G1 X207.147 Y76.62 E34.81926
G1 X207.9 Y76.694 E34.86078
G1 X209.164 Y76.881 E34.93091
G1 X209.91 Y77.029 E34.97264
G1 X211.146 Y77.339 E35.04258
G1 X211.87 Y77.559 E35.0841
G1 X213.073 Y77.99 E35.15423
G1 X213.769 Y78.279 E35.19559
G1 X214.921 Y78.824 E35.26553
G1 X215.586 Y79.179 E35.3069
G1 X216.679 Y79.834 E35.37683
G1 X217.308 Y80.254 E35.41833
G1 X218.334 Y81.015 E35.48844
G1 X218.916 Y81.493 E35.52977
G1 X219.86 Y82.348 E35.59966
G1 X220.398 Y82.885 E35.64138
G1 X221.255 Y83.831 E35.71143
G1 X221.728 Y84.408 E35.75238
G1 X222.489 Y85.432 E35.82239
G1 X222.916 Y86.07 E35.86452
G1 X223.572 Y87.166 E35.93462
G1 X223.928 Y87.833 E35.97611
G1 X224.472 Y88.985 E36.04603
G1 X224.758 Y89.676 E36.08707
G1 X225.189 Y90.879 E36.1572
G1 X225.408 Y91.601 E36.19861
G1 X225.718 Y92.836 E36.26848
G1 X225.867 Y93.582 E36.31023
G1 X226.054 Y94.844 E36.38025
G1 X226.128 Y95.593 E36.42155
G1 X226.191 Y96.869 E36.49166
G1 X226.2 Y97.249 E36.51252
G1 X226.2 Y199.248 E42.11015
G1 X226.191 Y199.628 E42.13101
G1 X226.128 Y200.902 E42.20101
G1 X226.054 Y201.649 E42.2422
G1 X225.867 Y202.913 E42.31233
G1 X225.718 Y203.661 E42.35418
G1 X225.408 Y204.896 E42.42406
G1 X225.192 Y205.609 E42.46495
G1 X224.763 Y206.811 E42.53499
G1 X224.471 Y207.516 E42.57686
G1 X223.925 Y208.67 E42.64693
G1 X223.57 Y209.335 E42.68829
G1 X222.915 Y210.428 E42.75822
G1 X222.495 Y211.057 E42.79973
G1 X221.734 Y212.083 E42.86983
G1 X221.253 Y212.668 E42.9114
G1 X220.397 Y213.612 E42.98133
G1 X219.866 Y214.144 E43.02258
G1 X218.921 Y215.001 E43.09259
G1 X218.336 Y215.481 E43.13412
G1 X217.309 Y216.243 E43.2043
G1 X216.679 Y216.664 E43.24588
G1 X215.586 Y217.319 E43.31581
G1 X214.916 Y217.677 E43.3575
G1 X213.764 Y218.221 E43.42742
G1 X213.073 Y218.507 E43.46846
G1 X211.87 Y218.938 E43.53859
G1 X211.146 Y219.158 E43.58011
G1 X209.91 Y219.468 E43.65005
G1 X209.164 Y219.616 E43.69178
G1 X207.9 Y219.803 E43.76191
G1 X207.154 Y219.877 E43.80305
G1 X205.881 Y219.94 E43.87299
G1 X205.5 Y219.949 E43.89391
G1 X145.5 Y219.949 E47.18666
G1 X145.006 Y219.94 E47.21378
G1 X144.838 Y220.143 E47.22824
G1 X144.279 Y220.694 E47.27131
G1 X143.666 Y221.184 E47.31438
G1 X143.007 Y221.61 E47.35744
G1 X142.308 Y221.966 E47.40049
G1 X141.402 Y222.304 E47.45356
G1 X141.257 Y222.348 E47.46188
G1 X140.495 Y222.538 E47.50497
G1 X139.719 Y222.648 E47.54799
G1 X138.935 Y222.68 E47.59105
G1 X138.152 Y222.631 E47.6341
G1 X137.611 Y222.55 E47.66412
G1 X136.714 Y222.334 E47.71476
G1 X114.216 Y215.457 E49.00582
G1 X113.478 Y215.189 E49.04891
G1 X112.772 Y214.848 E49.09194
G1 X112.104 Y214.437 E49.13498
G1 X111.481 Y213.96 E49.17804
G1 X110.909 Y213.422 E49.22114
G1 X110.396 Y212.829 E49.26417
G1 X109.945 Y212.187 E49.30722
G1 X109.59 Y211.556 E49.34696
G1 X109.447 Y211.272 E49.36441
G1 X109.13 Y210.554 E49.40748
G1 X108.919 Y209.902 E49.44509
G1 X107.31 Y208.93 E49.54825
G1 X107.049 Y208.765 E49.5652
G1 X104.9 Y207.345 E49.70655
G1 X104.642 Y207.167 E49.72375
G1 X102.55 Y205.659 E49.86528
G1 X102.304 Y205.474 E49.88217
G1 X100.275 Y203.884 E50.02364
G1 X100.036 Y203.689 E50.04057
G1 X98.072 Y202.019 E50.18205
G1 X97.841 Y201.814 E50.19899
G1 X95.946 Y200.067 E50.34044
G1 X95.719 Y199.849 E50.35771
G1 X93.897 Y198.026 E50.49916
G1 X93.685 Y197.805 E50.51597
G1 X91.936 Y195.91 E50.65749
G1 X91.728 Y195.676 E50.67467
G1 X90.059 Y193.713 E50.81607
G1 X89.863 Y193.473 E50.83308
G1 X88.273 Y191.443 E50.97458
G1 X88.088 Y191.197 E50.99148
G1 X86.582 Y189.107 E51.13285
G1 X86.405 Y188.85 E51.14997
G1 X84.983 Y186.698 E51.29153
G1 X84.818 Y186.438 E51.30843
G1 X83.485 Y184.234 E51.44978
G1 X83.329 Y183.964 E51.4669
G1 X82.086 Y181.707 E51.6083
G1 X81.942 Y181.432 E51.62534
G1 X80.79 Y179.125 E51.76685
G1 X80.657 Y178.845 E51.78386
G1 X79.599 Y176.494 E51.92535
G1 X79.478 Y176.208 E51.94239
G1 X78.516 Y173.817 E52.08383
G1 X78.406 Y173.527 E52.10085
G1 X77.541 Y171.099 E52.2423
G1 X77.443 Y170.807 E52.2592
G1 X76.676 Y168.347 E52.40061
G1 X76.589 Y168.045 E52.41786
G1 X75.923 Y165.556 E52.55926
G1 X75.85 Y165.262 E52.57589
G1 X75.282 Y162.746 E52.71744
G1 X75.219 Y162.436 E52.7348
G1 X74.755 Y159.901 E52.87623
G1 X74.705 Y159.596 E52.89319
G1 X74.343 Y157.044 E53.03464
G1 X74.306 Y156.737 E53.05161
G1 X74.047 Y154.172 E53.19309
G1 X74.022 Y153.864 E53.21005
G1 X73.866 Y151.292 E53.35146
G1 X73.854 Y150.981 E53.36854
G1 X73.802 Y148.404 E53.50999
G1 X73.802 Y148.094 E53.52701
G1 X73.854 Y145.517 E53.66846
G1 X73.866 Y145.206 E53.68554
G1 X74.022 Y142.634 E53.82695
G1 X74.047 Y142.327 E53.84385
G1 X74.306 Y139.761 E53.98539
G1 X74.343 Y139.452 E54.00246
G1 X74.705 Y136.901 E54.14386
G1 X74.755 Y136.597 E54.16077
G1 X75.219 Y134.061 E54.30226
G1 X75.282 Y133.754 E54.31945
G1 X75.849 Y131.239 E54.46094
G1 X75.856 Y131.241 E54.46134
G1 X75.922 Y130.936 E54.47847
G1 X76.59 Y128.447 E54.61989
G1 X76.675 Y128.154 E54.63664
G1 X77.441 Y125.694 E54.77803
G1 X77.548 Y125.403 E54.79505
G1 X77.54 Y125.4 E54.79552
G1 X78.405 Y122.971 E54.93702
G1 X78.516 Y122.68 E54.95411
G1 X79.478 Y120.289 E55.09555
G1 X79.599 Y120.003 E55.11259
G1 X80.657 Y117.652 E55.25408
G1 X80.79 Y117.372 E55.27109
G1 X81.941 Y115.067 E55.41248
G1 X82.093 Y114.798 E55.42943
G1 X82.086 Y114.794 E55.42988
G1 X83.329 Y112.536 E55.57133
G1 X83.486 Y112.263 E55.58861
G1 X84.82 Y110.058 E55.73004
G1 X84.983 Y109.8 E55.74679
G1 X86.404 Y107.649 E55.88827
G1 X86.581 Y107.392 E55.90539
G1 X88.088 Y105.3 E56.04689
G1 X88.274 Y105.053 E56.06386
G1 X89.863 Y103.024 E56.20529
G1 X90.061 Y102.781 E56.22249
G1 X91.731 Y100.819 E56.36389
G1 X91.934 Y100.591 E56.38064
G1 X93.682 Y98.695 E56.52216
G1 X93.901 Y98.466 E56.53955
G1 X95.724 Y96.645 E56.68096
G0 F6000 X96.035 Y96.957
G1 F1200 X96.241 Y96.759 E56.69664
G1 X98.135 Y95.01 E56.83812
G1 X98.358 Y94.812 E56.85449
G1 X100.323 Y93.142 E56.99601
G1 X100.546 Y92.961 E57.01177
G1 X102.574 Y91.371 E57.15319
G1 X102.811 Y91.193 E57.16946
G1 X104.901 Y89.688 E57.3108
G1 X105.139 Y89.523 E57.32669
G1 X107.29 Y88.101 E57.4682
G1 X107.539 Y87.943 E57.48439
G1 X109.745 Y86.61 E57.62584
G1 X109.997 Y86.465 E57.64179
G1 X112.255 Y85.221 E57.78327
G1 X112.515 Y85.085 E57.79937
G1 X114.822 Y83.933 E57.94089
G1 X114.825 Y83.939 E57.94125
G1 X115.086 Y83.806 E57.95733
G1 X117.435 Y82.749 E58.09869
G1 X117.702 Y82.636 E58.1146
G1 X120.093 Y81.673 E58.25606
G1 X120.369 Y81.578 E58.27208
G1 X120.366 Y81.57 E58.27255
G1 X122.794 Y80.704 E58.41402
G1 X123.076 Y80.61 E58.43033
G1 X125.538 Y79.844 E58.57183
G1 X125.813 Y79.764 E58.58755
G1 X128.302 Y79.096 E58.72898
G1 X128.587 Y79.026 E58.74508
G1 X131.101 Y78.459 E58.88651
G1 X131.391 Y78.409 E58.90266
G1 X131.389 Y78.401 E58.90312
G1 X133.925 Y77.936 E59.04461
G1 X134.215 Y77.889 E59.06073
G1 X136.768 Y77.527 E59.20224
G1 X137.057 Y77.492 E59.21822
G1 X139.62 Y77.233 E59.35959
G1 X139.914 Y77.209 E59.37578
G1 X142.488 Y77.054 E59.51729
G1 X142.777 Y77.042 E59.53317
G1 X145.5 Y76.989 E59.68263
G1 X205.499 Y76.989 E62.97533
G1 X205.852 Y76.998 E62.99471
G1 X207.126 Y77.06 E63.06471
G1 X207.836 Y77.129 E63.10385
G1 X209.1 Y77.316 E63.17398
G1 X209.803 Y77.456 E63.21331
G1 X211.039 Y77.766 E63.28325
