;FLAVOR:Marlin
;TIME:10218
;Filament used: 10.2342m
;Layer height: 0.28
;MINX:73.362
;MINY:75.963
;MINZ:0.3
;MAXX:226.64
;MAXY:220.243
;MAXZ:31.1
;Generated with Cura_SteamEngine 4.6.0
M140 S80
M105
M190 S80
M104 S230
M105
M109 S230
M82 ;absolute extrusion mode
G28 ; home all axes
 M117 Purge extruder
 G92 E0 ; reset extruder
 G1 Z1.0 F3000 ; move z up little to prevent scratching of surface
 G1 X2 Y20 Z0.3 F5000.0 ; move to start-line position
 G1 X2 Y200.0 Z0.3 F1500.0 E15 ; draw 1st line
 G1 X2 Y200.0 Z0.4 F5000.0 ; move to side a little
 G1 X2 Y20 Z0.4 F1500.0 E30 ; draw 2nd line
 G92 E0 ; reset extruder
 G1 Z1.0 F3000 ; move z up little to prevent scratching of surface
G92 E0
G92 E0
G1 F1500 E-6.5
;LAYER_COUNT:111
;LAYER:0
M107
G0 F6000 X95.413 Y96.188 Z0.3
;TYPE:SKIRT
G1 F1500 E0
G1 F1200 X95.644 Y95.967 E0.01754
G1 X97.537 Y94.219 E0.15895
G1 X97.788 Y93.996 E0.17737
G1 X99.753 Y92.326 E0.31889
G1 X100.003 Y92.122 E0.3366
G1 X102.032 Y90.532 E0.47807
G1 X102.294 Y90.335 E0.49606
G1 X104.385 Y88.828 E0.63751
G1 X104.654 Y88.642 E0.65546
G1 X106.803 Y87.221 E0.79684
G1 X107.085 Y87.043 E0.81514
G1 X109.292 Y85.71 E0.95664
G1 X109.571 Y85.549 E0.97432
G1 X111.828 Y84.305 E1.11575
G1 X112.123 Y84.15 E1.13404
G1 X114.43 Y82.999 E1.27552
G1 X114.724 Y82.86 E1.29337
G1 X117.073 Y81.803 E1.43473
G1 X117.37 Y81.676 E1.45246
G1 X119.762 Y80.712 E1.59399
G1 X120.073 Y80.594 E1.61224
G1 X122.501 Y79.729 E1.7537
G1 X122.811 Y79.626 E1.77162
G1 X125.272 Y78.859 E1.91309
G1 X125.59 Y78.767 E1.93125
G1 X128.079 Y78.101 E2.07265
G1 X128.393 Y78.023 E2.09041
G1 X130.908 Y77.456 E2.2319
G1 X131.23 Y77.39 E2.24993
G1 X133.766 Y76.925 E2.39143
G1 X134.091 Y76.873 E2.40949
G1 X136.643 Y76.511 E2.55094
G1 X136.968 Y76.471 E2.56891
G1 X139.533 Y76.212 E2.7104
G1 X139.858 Y76.186 E2.72829
G1 X142.43 Y76.03 E2.8697
G1 X142.759 Y76.017 E2.88777
G1 X145.5 Y75.963 E3.03822
G1 X205.5 Y75.963 E6.33097
G1 X205.902 Y75.973 E6.35304
G1 X207.175 Y76.036 E6.42299
G1 X207.964 Y76.114 E6.4665
G1 X209.228 Y76.301 E6.53662
G1 X210.017 Y76.458 E6.58077
G1 X211.253 Y76.768 E6.6507
G1 X212.018 Y77 E6.69457
G1 X213.221 Y77.431 E6.7647
G1 X213.952 Y77.733 E6.80811
G1 X215.104 Y78.277 E6.87802
G1 X215.812 Y78.656 E6.92209
G1 X216.905 Y79.311 E6.99202
G1 X217.57 Y79.755 E7.0359
G1 X218.596 Y80.516 E7.10601
G1 X219.215 Y81.024 E7.14995
G1 X220.159 Y81.88 E7.21989
G1 X220.721 Y82.442 E7.2635
G1 X221.578 Y83.387 E7.33351
G1 X222.084 Y84.003 E7.37726
G1 X222.845 Y85.028 E7.44732
G1 X223.292 Y85.697 E7.49148
G1 X223.948 Y86.792 E7.56153
G1 X224.324 Y87.496 E7.60533
G1 X224.869 Y88.649 E7.67532
G1 X225.175 Y89.388 E7.71921
G1 X225.605 Y90.591 E7.78932
G1 X225.835 Y91.349 E7.83279
G1 X226.145 Y92.584 E7.90267
G1 X226.302 Y93.373 E7.94682
G1 X226.489 Y94.635 E8.01683
G1 X226.567 Y95.426 E8.06045
G1 X226.63 Y96.701 E8.13051
G1 X226.64 Y97.103 E8.15258
G1 X226.64 Y199.102 E13.75021
G1 X226.63 Y199.504 E13.77227
G1 X226.567 Y200.779 E13.84233
G1 X226.489 Y201.568 E13.88584
G1 X226.302 Y202.832 E13.95596
G1 X226.145 Y203.623 E14.00022
G1 X225.835 Y204.858 E14.0701
G1 X225.606 Y205.614 E14.11345
G1 X225.177 Y206.815 E14.18344
G1 X224.87 Y207.556 E14.22745
G1 X224.324 Y208.711 E14.29757
G1 X223.947 Y209.416 E14.34144
G1 X223.292 Y210.509 E14.41137
G1 X222.848 Y211.174 E14.45525
G1 X222.087 Y212.2 E14.52535
G1 X221.579 Y212.819 E14.5693
G1 X220.723 Y213.763 E14.63923
G1 X220.161 Y214.325 E14.68285
G1 X219.216 Y215.182 E14.75286
G1 X218.598 Y215.689 E14.79673
G1 X217.571 Y216.451 E14.86691
G1 X216.901 Y216.899 E14.91114
G1 X215.808 Y217.553 E14.98104
G1 X215.109 Y217.926 E15.02452
G1 X213.957 Y218.471 E15.09446
G1 X213.221 Y218.776 E15.13818
G1 X212.018 Y219.207 E15.20831
G1 X211.253 Y219.439 E15.25218
G1 X210.017 Y219.749 E15.32211
G1 X209.228 Y219.906 E15.36626
G1 X207.964 Y220.093 E15.43639
G1 X207.169 Y220.171 E15.48022
G1 X205.896 Y220.233 E15.55017
G1 X205.5 Y220.243 E15.57191
G1 X145.5 Y220.243 E18.86466
G1 X145.339 Y220.241 E18.8735
G1 X142.762 Y220.19 E19.01495
G1 X142.43 Y220.177 E19.03318
G1 X139.858 Y220.021 E19.17459
G1 X139.533 Y219.995 E19.19248
G1 X136.968 Y219.736 E19.33396
G1 X136.642 Y219.696 E19.35199
G1 X134.091 Y219.334 E19.49339
G1 X133.767 Y219.282 E19.5114
G1 X131.23 Y218.817 E19.65294
G1 X130.91 Y218.751 E19.67088
G1 X128.396 Y218.185 E19.8123
G1 X128.4 Y218.169 E19.8132
G1 X128.075 Y218.107 E19.83136
G1 X125.585 Y217.439 E19.97284
G1 X125.274 Y217.349 E19.99061
G1 X122.814 Y216.583 E20.132
G1 X122.503 Y216.469 E20.15018
G1 X122.5 Y216.477 E20.15065
G1 X120.071 Y215.611 E20.29217
G1 X119.767 Y215.496 E20.31001
G1 X117.376 Y214.534 E20.45145
G1 X117.072 Y214.404 E20.46959
G1 X114.722 Y213.346 E20.61102
G1 X114.43 Y213.208 E20.62875
G1 X112.125 Y212.058 E20.77011
G1 X111.836 Y211.895 E20.78832
G1 X111.832 Y211.903 E20.78881
G1 X109.573 Y210.659 E20.93034
G1 X109.288 Y210.494 E20.94841
G1 X107.082 Y209.16 E21.08989
G1 X106.806 Y208.986 E21.1078
G1 X104.656 Y207.565 E21.24923
G1 X104.386 Y207.379 E21.26722
G1 X102.294 Y205.872 E21.40872
G1 X102.032 Y205.674 E21.42674
G1 X100.004 Y204.085 E21.56813
G1 X99.749 Y203.878 E21.58615
G1 X97.786 Y202.208 E21.72759
G1 X97.542 Y201.991 E21.74551
G1 X95.647 Y200.243 E21.88699
G1 X95.41 Y200.016 E21.905
G1 X93.587 Y198.193 E22.04649
G1 X93.361 Y197.958 E22.06438
G1 X91.613 Y196.064 E22.20582
G1 X91.394 Y195.816 E22.22398
G1 X89.724 Y193.852 E22.36546
G1 X89.518 Y193.599 E22.38337
G1 X87.929 Y191.571 E22.52476
G1 X87.732 Y191.31 E22.5427
G1 X86.225 Y189.219 E22.68415
G1 X86.037 Y188.947 E22.7023
G1 X84.616 Y186.796 E22.84377
G1 X84.442 Y186.52 E22.86168
G1 X83.108 Y184.313 E23.0032
G1 X82.945 Y184.03 E23.02113
G1 X81.702 Y181.774 E23.16248
G1 X81.548 Y181.483 E23.18055
G1 X80.396 Y179.176 E23.32207
G1 X80.398 Y179.175 E23.32219
G1 X80.254 Y178.878 E23.3403
G1 X79.197 Y176.528 E23.48171
G1 X79.07 Y176.23 E23.49949
G1 X78.107 Y173.839 E23.64095
G1 X77.999 Y173.527 E23.65907
G1 X77.991 Y173.53 E23.65954
G1 X77.126 Y171.102 E23.80099
G1 X77.022 Y170.791 E23.81898
G1 X76.255 Y168.329 E23.9605
G1 X76.165 Y168.016 E23.97837
G1 X75.498 Y165.528 E24.11974
G1 X75.42 Y165.213 E24.13754
G1 X74.852 Y162.698 E24.27904
G1 X74.795 Y162.369 E24.29737
G1 X74.786 Y162.371 E24.29787
G1 X74.322 Y159.836 E24.4393
G1 X74.27 Y159.513 E24.45726
G1 X73.908 Y156.96 E24.59876
G1 X73.868 Y156.635 E24.61674
G1 X73.609 Y154.071 E24.75816
G1 X73.583 Y153.746 E24.77605
G1 X73.427 Y151.174 E24.91746
G1 X73.414 Y150.845 E24.93553
G1 X73.362 Y148.267 E25.07704
G1 X73.362 Y147.939 E25.09504
G1 X73.414 Y145.363 E25.23644
G1 X73.427 Y145.034 E25.25451
G1 X73.583 Y142.461 E25.39597
G1 X73.609 Y142.136 E25.41386
G1 X73.868 Y139.572 E25.55529
G1 X73.908 Y139.247 E25.57326
G1 X74.27 Y136.694 E25.71477
G1 X74.322 Y136.371 E25.73272
G1 X74.786 Y133.836 E25.87415
G1 X74.852 Y133.512 E25.8923
G1 X75.419 Y130.997 E26.03378
G1 X75.498 Y130.679 E26.05177
G1 X76.165 Y128.191 E26.19313
G1 X76.255 Y127.878 E26.211
G1 X77.022 Y125.416 E26.35252
G1 X77.126 Y125.105 E26.37051
G1 X77.991 Y122.677 E26.51196
G1 X78.107 Y122.371 E26.52992
G1 X79.069 Y119.98 E26.67136
G1 X79.199 Y119.676 E26.68951
G1 X80.257 Y117.326 E26.83094
G1 X80.396 Y117.031 E26.84884
G1 X81.548 Y114.724 E26.99035
G1 X81.699 Y114.438 E27.0081
G1 X82.941 Y112.18 E27.14953
G1 X83.11 Y111.887 E27.16809
G1 X84.445 Y109.682 E27.30955
G1 X84.616 Y109.412 E27.32709
G1 X86.036 Y107.262 E27.46849
G1 X86.225 Y106.988 E27.48676
G1 X87.733 Y104.896 E27.62828
G1 X87.927 Y104.638 E27.646
G1 X89.515 Y102.61 E27.78735
G1 X89.724 Y102.353 E27.80553
G1 X91.395 Y100.389 E27.94705
G1 X91.61 Y100.147 E27.96481
G1 X93.357 Y98.252 E28.10626
G1 X93.589 Y98.01 E28.12466
G1 X95.413 Y96.188 E28.26614
G0 F6000 X95.724 Y96.499
G1 F1200 X95.942 Y96.29 E28.28271
G1 X97.835 Y94.542 E28.42412
G1 X98.073 Y94.332 E28.44154
G1 X100.038 Y92.662 E28.58306
G1 X100.275 Y92.468 E28.59987
G1 X102.304 Y90.878 E28.74133
G1 X102.551 Y90.692 E28.7583
G1 X104.642 Y89.185 E28.89975
G1 X104.897 Y89.009 E28.91675
G1 X107.046 Y87.588 E29.05814
G1 X107.312 Y87.42 E29.07541
G1 X109.519 Y86.087 E29.2169
G1 X109.783 Y85.934 E29.23365
G1 X112.04 Y84.69 E29.37508
G1 X112.319 Y84.544 E29.39236
G1 X114.626 Y83.393 E29.53385
G1 X114.904 Y83.261 E29.55074
G1 X117.253 Y82.204 E29.6921
G1 X117.535 Y82.084 E29.70892
G1 X119.927 Y81.12 E29.85045
G1 X120.221 Y81.009 E29.86769
G1 X122.649 Y80.144 E30.00914
G1 X122.942 Y80.046 E30.0261
G1 X125.403 Y79.279 E30.16756
G1 X125.704 Y79.192 E30.18476
G1 X128.193 Y78.526 E30.32616
G1 X128.49 Y78.453 E30.34294
G1 X131.005 Y77.886 E30.48443
G1 X131.309 Y77.823 E30.50147
G1 X133.845 Y77.358 E30.64296
G1 X134.153 Y77.308 E30.66008
G1 X136.705 Y76.946 E30.80154
G1 X137.012 Y76.909 E30.81851
G1 X139.577 Y76.65 E30.95999
G1 X139.885 Y76.625 E30.97695
G1 X142.457 Y76.469 E31.11836
G1 X142.768 Y76.457 E31.13544
G1 X145.5 Y76.403 E31.2854
G1 X205.5 Y76.403 E34.57815
G1 X205.881 Y76.412 E34.59906
G1 X207.154 Y76.475 E34.66901
G1 X207.9 Y76.549 E34.71015
G1 X209.164 Y76.736 E34.78027
G1 X209.91 Y76.884 E34.82201
G1 X211.146 Y77.194 E34.89194
G1 X211.87 Y77.414 E34.93347
G1 X213.073 Y77.845 E35.0036
G1 X213.764 Y78.131 E35.04464
G1 X214.916 Y78.675 E35.11455
G1 X215.586 Y79.033 E35.15624
G1 X216.679 Y79.688 E35.22617
G1 X217.308 Y80.108 E35.26768
G1 X218.334 Y80.869 E35.33778
G1 X218.919 Y81.35 E35.37935
G1 X219.863 Y82.206 E35.44928
G1 X220.395 Y82.737 E35.49053
G1 X221.252 Y83.682 E35.56054
G1 X221.73 Y84.265 E35.60191
G1 X222.491 Y85.29 E35.67197
G1 X222.914 Y85.923 E35.71375
G1 X223.57 Y87.018 E35.78381
G1 X223.926 Y87.684 E35.82525
G1 X224.471 Y88.837 E35.89524
G1 X224.761 Y89.536 E35.93677
G1 X225.191 Y90.739 E36.00688
G1 X225.408 Y91.456 E36.04799
G1 X225.718 Y92.691 E36.11787
G1 X225.867 Y93.437 E36.15962
G1 X226.054 Y94.699 E36.22963
G1 X226.128 Y95.448 E36.27094
G1 X226.191 Y96.723 E36.34099
G1 X226.2 Y97.103 E36.36185
G1 X226.2 Y199.102 E41.95948
G1 X226.191 Y199.482 E41.98034
G1 X226.128 Y200.757 E42.05039
G1 X226.054 Y201.504 E42.09159
G1 X225.867 Y202.768 E42.16171
G1 X225.718 Y203.516 E42.20357
G1 X225.408 Y204.751 E42.27345
G1 X225.191 Y205.466 E42.31445
G1 X224.762 Y206.667 E42.38444
G1 X224.472 Y207.368 E42.42607
G1 X223.926 Y208.523 E42.49618
G1 X223.57 Y209.19 E42.53768
G1 X222.915 Y210.283 E42.60761
G1 X222.495 Y210.912 E42.64911
G1 X221.734 Y211.938 E42.71922
G1 X221.253 Y212.523 E42.76078
G1 X220.397 Y213.467 E42.83071
G1 X219.866 Y213.999 E42.87196
G1 X218.921 Y214.856 E42.94197
G1 X218.336 Y215.336 E42.9835
G1 X217.309 Y216.098 E43.05368
G1 X216.675 Y216.521 E43.09551
G1 X215.582 Y217.175 E43.16541
G1 X214.921 Y217.528 E43.20653
G1 X213.769 Y218.073 E43.27647
G1 X213.073 Y218.362 E43.31783
G1 X211.87 Y218.793 E43.38796
G1 X211.146 Y219.013 E43.42949
G1 X209.91 Y219.323 E43.49942
G1 X209.164 Y219.471 E43.54116
G1 X207.9 Y219.658 E43.61128
G1 X207.148 Y219.732 E43.65275
G1 X205.875 Y219.794 E43.72269
G1 X205.5 Y219.803 E43.74328
G1 X145.5 Y219.803 E47.03603
G1 X145.348 Y219.801 E47.04437
G1 X142.771 Y219.75 E47.18582
G1 X142.457 Y219.738 E47.20307
G1 X139.885 Y219.582 E47.34448
G1 X139.577 Y219.557 E47.36143
G1 X137.012 Y219.298 E47.50292
G1 X136.704 Y219.261 E47.51994
G1 X134.153 Y218.899 E47.66134
G1 X133.847 Y218.849 E47.67836
G1 X131.31 Y218.384 E47.8199
G1 X131.007 Y218.322 E47.83688
G1 X128.493 Y217.756 E47.9783
G1 X128.495 Y217.748 E47.97875
G1 X128.189 Y217.682 E47.99593
G1 X125.699 Y217.014 E48.13741
G1 X125.405 Y216.929 E48.1542
G1 X122.945 Y216.163 E48.2956
G1 X122.651 Y216.055 E48.31279
G1 X122.648 Y216.063 E48.31326
G1 X120.219 Y215.197 E48.45478
G1 X119.931 Y215.087 E48.4717
G1 X117.54 Y214.125 E48.61314
G1 X117.253 Y214.003 E48.63025
G1 X114.903 Y212.945 E48.77168
G1 X114.626 Y212.814 E48.7885
G1 X112.321 Y211.664 E48.92987
G1 X112.049 Y211.51 E48.94702
G1 X112.045 Y211.518 E48.94751
G1 X109.786 Y210.274 E49.08904
G1 X109.516 Y210.118 E49.10615
G1 X107.31 Y208.784 E49.24763
G1 X107.048 Y208.619 E49.26462
G1 X104.898 Y207.198 E49.40605
G1 X104.643 Y207.022 E49.42306
G1 X102.551 Y205.515 E49.56455
G1 X102.303 Y205.328 E49.5816
G1 X100.275 Y203.739 E49.72298
G1 X100.035 Y203.543 E49.73999
G1 X98.072 Y201.873 E49.88143
G1 X97.84 Y201.668 E49.89842
G1 X95.945 Y199.92 E50.0399
G1 X95.721 Y199.705 E50.05694
G1 X93.898 Y197.882 E50.19843
G1 X93.685 Y197.659 E50.21535
G1 X91.937 Y195.765 E50.35679
G1 X91.729 Y195.531 E50.37397
G1 X90.059 Y193.567 E50.51545
G1 X89.864 Y193.328 E50.53238
G1 X88.275 Y191.3 E50.67377
G1 X88.089 Y191.053 E50.69074
G1 X86.582 Y188.962 E50.83219
G1 X86.404 Y188.704 E50.84939
G1 X84.983 Y186.553 E50.99087
G1 X84.818 Y186.292 E51.00781
G1 X83.484 Y184.085 E51.14934
G1 X83.33 Y183.818 E51.16625
G1 X82.087 Y181.562 E51.30761
G1 X81.942 Y181.286 E51.32472
G1 X80.79 Y178.979 E51.46623
G1 X80.802 Y178.973 E51.46697
G1 X80.656 Y178.698 E51.48406
G1 X79.599 Y176.348 E51.62547
G1 X79.479 Y176.066 E51.64229
G1 X78.516 Y173.675 E51.78375
G1 X78.414 Y173.379 E51.80093
G1 X78.406 Y173.382 E51.8014
G1 X77.541 Y170.954 E51.94285
G1 X77.442 Y170.66 E51.95987
G1 X76.675 Y168.198 E52.10139
G1 X76.59 Y167.902 E52.11829
G1 X75.923 Y165.414 E52.25965
G1 X75.849 Y165.116 E52.2765
G1 X75.281 Y162.601 E52.418
G1 X75.227 Y162.289 E52.43538
G1 X75.219 Y162.291 E52.43583
G1 X74.755 Y159.756 E52.57726
G1 X74.705 Y159.451 E52.59422
G1 X74.343 Y156.898 E52.73573
G1 X74.306 Y156.591 E52.7527
G1 X74.047 Y154.027 E52.89412
G1 X74.022 Y153.719 E52.91108
G1 X73.866 Y151.147 E53.05249
G1 X73.854 Y150.836 E53.06957
G1 X73.802 Y148.258 E53.21108
G1 X73.802 Y147.948 E53.22809
G1 X73.854 Y145.372 E53.36949
G1 X73.866 Y145.061 E53.38657
G1 X74.022 Y142.488 E53.52803
G1 X74.047 Y142.18 E53.54499
G1 X74.306 Y139.616 E53.68642
G1 X74.343 Y139.309 E53.70339
G1 X74.705 Y136.756 E53.8449
G1 X74.755 Y136.451 E53.86186
G1 X75.219 Y133.916 E54.00329
G1 X75.282 Y133.609 E54.02049
G1 X75.849 Y131.094 E54.16197
G1 X75.923 Y130.793 E54.17898
G1 X76.59 Y128.305 E54.32034
G1 X76.675 Y128.009 E54.33724
G1 X77.442 Y125.547 E54.47876
G1 X77.541 Y125.253 E54.49579
G1 X78.406 Y122.825 E54.63724
G1 X78.516 Y122.535 E54.65426
G1 X79.478 Y120.144 E54.7957
G1 X79.6 Y119.857 E54.81281
G1 X80.658 Y117.507 E54.95424
G1 X80.79 Y117.228 E54.97118
G1 X81.942 Y114.921 E55.1127
G1 X82.084 Y114.65 E55.12949
G1 X83.326 Y112.392 E55.27091
G1 X83.486 Y112.115 E55.28847
G1 X84.821 Y109.91 E55.42993
G1 X84.983 Y109.654 E55.44655
G1 X86.403 Y107.504 E55.58795
G1 X86.582 Y107.245 E55.60523
G1 X88.09 Y105.153 E55.74676
G1 X88.273 Y104.909 E55.7635
G1 X89.861 Y102.881 E55.90485
G1 X90.059 Y102.638 E55.92205
G1 X91.73 Y100.674 E56.06357
G1 X91.934 Y100.445 E56.0804
G1 X93.681 Y98.55 E56.22185
G1 X93.9 Y98.321 E56.23924
G1 X95.724 Y96.499 E56.38072
G0 F6000 X96.035 Y96.811
G1 F1200 X96.241 Y96.613 E56.3964
G1 X98.134 Y94.865 E56.5378
G1 X98.357 Y94.667 E56.55417
G1 X100.322 Y92.997 E56.69569
G1 X100.546 Y92.815 E56.71153
G1 X102.575 Y91.225 E56.853
G1 X102.808 Y91.049 E56.86902
G1 X104.899 Y89.542 E57.01047
G1 X105.14 Y89.376 E57.02653
G1 X107.289 Y87.955 E57.16792
G1 X107.54 Y87.797 E57.18419
G1 X109.747 Y86.464 E57.32569
G1 X109.996 Y86.32 E57.34148
G1 X112.253 Y85.076 E57.48291
G1 X112.516 Y84.938 E57.49921
G1 X114.823 Y83.787 E57.64069
G1 X115.085 Y83.662 E57.65663
G1 X117.434 Y82.605 E57.79799
G1 X117.699 Y82.492 E57.8138
G1 X120.091 Y81.528 E57.95533
G1 X120.369 Y81.423 E57.97164
G1 X122.797 Y80.558 E58.11309
G1 X123.073 Y80.466 E58.12905
G1 X125.534 Y79.699 E58.27052
G1 X125.817 Y79.617 E58.28669
G1 X128.306 Y78.951 E58.42809
G1 X128.586 Y78.882 E58.44391
G1 X131.101 Y78.315 E58.5854
G1 X131.389 Y78.256 E58.60153
G1 X133.925 Y77.791 E58.74303
G1 X134.214 Y77.744 E58.75909
G1 X136.766 Y77.382 E58.90055
G1 X137.057 Y77.347 E58.91663
G1 X139.622 Y77.088 E59.05811
G1 X139.911 Y77.064 E59.07403
G1 X142.483 Y76.908 E59.21544
G1 X142.777 Y76.896 E59.23158
G1 X145.5 Y76.843 E59.38105
G1 X205.5 Y76.843 E62.6738
G1 X205.859 Y76.852 E62.69351
G1 X207.132 Y76.915 E62.76346
G1 X207.836 Y76.984 E62.80228
G1 X209.1 Y77.171 E62.8724
G1 X209.803 Y77.311 E62.91174
G1 X211.039 Y77.621 E62.98167
G1 X211.722 Y77.828 E63.02083
