;FLAVOR:Marlin
;TIME:11762
;Filament used: 11.5785m
;Layer height: 0.28
;MINX:73.353
;MINY:75.696
;MINZ:0.3
;MAXX:226.648
;MAXY:223.487
;MAXZ:31.94
;Generated with Cura_SteamEngine 4.6.0
M140 S80
M105
M190 S80
M104 S230
M105
M109 S230
M82 ;absolute extrusion mode
G28 ; home all axes
 M117 Purge extruder
 G92 E0 ; reset extruder
 G1 Z1.0 F3000 ; move z up little to prevent scratching of surface
 G1 X2 Y20 Z0.3 F5000.0 ; move to start-line position
 G1 X2 Y200.0 Z0.3 F1500.0 E15 ; draw 1st line
 G1 X2 Y200.0 Z0.4 F5000.0 ; move to side a little
 G1 X2 Y20 Z0.4 F1500.0 E30 ; draw 2nd line
 G92 E0 ; reset extruder
 G1 Z1.0 F3000 ; move z up little to prevent scratching of surface
G92 E0
G92 E0
G1 F1500 E-6.5
;LAYER_COUNT:114
;LAYER:0
M107
G0 F6000 X95.403 Y95.94 Z0.3
;TYPE:SKIRT
G1 F1500 E0
G1 F1200 X95.635 Y95.717 E0.01766
G1 X97.529 Y93.968 E0.15914
G1 X97.778 Y93.747 E0.17741
G1 X99.742 Y92.077 E0.31889
G1 X99.995 Y91.871 E0.3368
G1 X102.023 Y90.282 E0.47819
G1 X102.286 Y90.084 E0.49625
G1 X104.377 Y88.578 E0.63767
G1 X104.645 Y88.393 E0.65554
G1 X106.796 Y86.971 E0.79705
G1 X107.078 Y86.793 E0.81535
G1 X109.284 Y85.461 E0.95677
G1 X109.561 Y85.301 E0.97433
G1 X111.819 Y84.056 E1.11583
G1 X112.112 Y83.901 E1.13402
G1 X114.419 Y82.749 E1.27554
G1 X114.42 Y82.752 E1.27571
G1 X114.716 Y82.608 E1.29377
G1 X117.065 Y81.551 E1.43513
G1 X117.364 Y81.423 E1.45298
G1 X119.755 Y80.46 E1.59444
G1 X120.067 Y80.352 E1.61256
G1 X120.064 Y80.344 E1.61303
G1 X122.492 Y79.479 E1.75448
G1 X122.803 Y79.375 E1.77248
G1 X125.265 Y78.608 E1.914
G1 X125.579 Y78.517 E1.93194
G1 X128.068 Y77.85 E2.07335
G1 X128.384 Y77.772 E2.09121
G1 X130.898 Y77.205 E2.23264
G1 X131.223 Y77.149 E2.25074
G1 X131.221 Y77.14 E2.25125
G1 X133.757 Y76.675 E2.39274
G1 X134.082 Y76.623 E2.41081
G1 X136.635 Y76.261 E2.55231
G1 X136.96 Y76.221 E2.57028
G1 X139.523 Y75.962 E2.71166
G1 X139.849 Y75.936 E2.7296
G1 X142.423 Y75.78 E2.87112
G1 X142.751 Y75.767 E2.88914
G1 X145.491 Y75.713 E3.03953
G1 X195.678 Y75.711 E5.79376
G1 X196.916 Y75.696 E5.8617
G1 X197.485 Y75.709 E5.89294
G1 X199.007 Y75.797 E5.9766
G1 X199.562 Y75.848 E6.00719
G1 X201.075 Y76.04 E6.09089
G1 X201.643 Y76.132 E6.12247
G1 X203.141 Y76.431 E6.2063
G1 X203.14 Y76.436 E6.20658
G1 X203.275 Y76.458 E6.21408
G1 X203.687 Y76.559 E6.23736
G1 X205.156 Y76.959 E6.32091
G1 X205.69 Y77.124 E6.35159
G1 X207.131 Y77.625 E6.43531
G1 X207.656 Y77.829 E6.46622
G1 X209.058 Y78.428 E6.54989
G1 X209.571 Y78.668 E6.58097
G1 X210.93 Y79.364 E6.66477
G1 X211.42 Y79.637 E6.69555
G1 X212.726 Y80.424 E6.77923
G1 X213.201 Y80.733 E6.81033
G1 X214.448 Y81.608 E6.89393
G1 X214.897 Y81.957 E6.92514
G1 X214.901 Y81.952 E6.92549
G1 X216.085 Y82.913 E7.00917
G1 X216.507 Y83.28 E7.03987
G1 X217.622 Y84.32 E7.12354
G1 X218.023 Y84.721 E7.15466
G1 X219.063 Y85.836 E7.23834
G1 X219.43 Y86.258 E7.26903
G1 X220.392 Y87.443 E7.3528
G1 X220.39 Y87.445 E7.35295
G1 X220.45 Y87.513 E7.35793
G1 X220.738 Y87.899 E7.38436
G1 X221.613 Y89.147 E7.468
G1 X221.919 Y89.616 E7.49874
G1 X222.706 Y90.921 E7.58237
G1 X222.98 Y91.414 E7.61332
G1 X223.676 Y92.773 E7.69711
G1 X223.914 Y93.281 E7.7279
G1 X224.514 Y94.683 E7.81159
G1 X224.72 Y95.213 E7.8428
G1 X225.221 Y96.654 E7.92652
G1 X225.386 Y97.19 E7.9573
G1 X225.786 Y98.66 E8.0409
G1 X225.906 Y99.209 E8.07174
G1 X225.914 Y99.207 E8.0722
G1 X226.212 Y100.703 E8.15591
G1 X226.303 Y101.262 E8.18699
G1 X226.496 Y102.774 E8.27064
G1 X226.549 Y103.341 E8.30189
G1 X226.636 Y104.864 E8.38561
G1 X226.648 Y105.424 E8.41635
G1 X226.631 Y106.853 E8.49478
G1 X226.631 Y188.048 E12.9507
G1 X226.633 Y189.04 E13.00514
G1 X226.648 Y190.279 E13.07314
G1 X226.636 Y190.843 E13.1041
G1 X226.549 Y192.363 E13.18765
G1 X226.497 Y192.927 E13.21873
G1 X226.304 Y194.441 E13.30249
G1 X226.213 Y195 E13.33357
G1 X225.915 Y196.498 E13.41739
G1 X225.91 Y196.497 E13.41767
G1 X225.887 Y196.637 E13.42546
G1 X225.786 Y197.049 E13.44874
G1 X225.386 Y198.518 E13.53229
G1 X225.221 Y199.05 E13.56286
G1 X224.72 Y200.492 E13.64664
G1 X224.514 Y201.024 E13.67794
G1 X223.914 Y202.426 E13.76163
G1 X223.676 Y202.934 E13.79242
G1 X222.981 Y204.291 E13.87609
G1 X222.708 Y204.781 E13.90687
G1 X221.921 Y206.087 E13.99055
G1 X221.612 Y206.563 E14.0217
G1 X220.736 Y207.811 E14.10537
G1 X220.387 Y208.259 E14.13654
G1 X220.392 Y208.263 E14.13689
G1 X219.431 Y209.447 E14.22058
G1 X219.064 Y209.869 E14.25127
G1 X218.024 Y210.984 E14.33495
G1 X217.626 Y211.382 E14.36584
G1 X216.511 Y212.423 E14.44955
G1 X216.083 Y212.795 E14.48067
G1 X214.898 Y213.756 E14.5644
G1 X214.897 Y213.754 E14.56452
G1 X214.831 Y213.812 E14.56934
G1 X214.448 Y214.098 E14.59558
G1 X213.201 Y214.973 E14.67918
G1 X212.726 Y215.282 E14.71027
G1 X211.42 Y216.069 E14.79395
G1 X210.93 Y216.342 E14.82474
G1 X209.571 Y217.038 E14.90853
G1 X209.063 Y217.276 E14.93932
G1 X207.661 Y217.876 E15.02301
G1 X207.131 Y218.082 E15.05421
G1 X205.69 Y218.583 E15.13794
G1 X205.156 Y218.748 E15.16861
G1 X203.687 Y219.148 E15.25216
G1 X203.134 Y219.269 E15.28323
G1 X203.136 Y219.277 E15.28368
G1 X201.638 Y219.575 E15.3675
G1 X201.08 Y219.666 E15.39853
G1 X199.567 Y219.859 E15.48223
G1 X199.002 Y219.911 E15.51337
G1 X197.48 Y219.998 E15.59703
G1 X196.919 Y220.01 E15.62783
G1 X195.48 Y219.993 E15.7068
G1 X145.633 Y219.993 E18.44237
G1 X145.324 Y220.404 E18.47059
G1 X144.563 Y221.201 E18.53106
G1 X144.387 Y221.362 E18.54415
G1 X143.766 Y221.876 E18.58839
G1 X143.096 Y222.327 E18.63272
G1 X142.386 Y222.709 E18.67696
G1 X141.641 Y223.018 E18.72122
G1 X140.869 Y223.253 E18.76551
G1 X140.078 Y223.409 E18.80976
G1 X139.275 Y223.487 E18.85403
G1 X138.483 Y223.486 E18.8975
G1 X138.265 Y223.475 E18.90947
G1 X137.462 Y223.394 E18.95377
G1 X136.298 Y223.13 E19.01927
G1 X116.533 Y217.096 E20.15338
G1 X116.52 Y217.092 E20.15412
G1 X106.642 Y214.058 E20.72121
G1 X105.884 Y213.783 E20.76547
G1 X105.156 Y213.435 E20.80975
G1 X104.466 Y213.016 E20.85405
G1 X103.822 Y212.531 E20.89829
G1 X103.228 Y211.985 E20.94257
G1 X102.692 Y211.382 E20.98685
G1 X102.218 Y210.73 E21.03108
G1 X102.146 Y210.613 E21.03862
G1 X102.035 Y210.463 E21.04886
G1 X101.621 Y209.77 E21.09316
G1 X101.278 Y209.04 E21.13743
G1 X101.008 Y208.28 E21.18169
G1 X100.815 Y207.497 E21.22595
G1 X100.701 Y206.698 E21.27024
G1 X100.666 Y205.892 E21.31451
G1 X100.711 Y205.087 E21.35876
G1 X100.807 Y204.473 E21.39287
G1 X99.993 Y203.835 E21.44962
G1 X99.739 Y203.628 E21.46761
G1 X97.776 Y201.958 E21.60904
G1 X97.532 Y201.741 E21.62696
G1 X95.637 Y199.993 E21.76845
G1 X95.4 Y199.766 E21.78646
G1 X93.578 Y197.944 E21.92786
G1 X93.352 Y197.709 E21.94576
G1 X91.603 Y195.814 E22.08728
G1 X91.384 Y195.566 E22.10543
G1 X89.715 Y193.603 E22.24684
G1 X89.508 Y193.349 E22.26482
G1 X87.918 Y191.319 E22.40633
G1 X87.721 Y191.057 E22.42432
G1 X86.215 Y188.966 E22.56574
G1 X86.03 Y188.698 E22.58361
G1 X84.608 Y186.547 E22.72512
G1 X84.432 Y186.269 E22.74317
G1 X83.099 Y184.064 E22.88457
G1 X82.935 Y183.78 E22.90257
G1 X81.692 Y181.523 E23.04398
G1 X81.54 Y181.234 E23.0619
G1 X80.388 Y178.928 E23.20336
G1 X80.246 Y178.629 E23.22153
G1 X79.188 Y176.277 E23.36306
G1 X79.061 Y175.977 E23.38094
G1 X78.099 Y173.587 E23.52233
G1 X77.982 Y173.28 E23.54036
G1 X77.117 Y170.852 E23.68181
G1 X77.014 Y170.542 E23.69973
G1 X76.247 Y168.081 E23.8412
G1 X76.155 Y167.763 E23.85937
G1 X75.489 Y165.274 E24.00077
G1 X75.412 Y164.963 E24.01835
G1 X74.844 Y162.448 E24.15985
G1 X74.777 Y162.121 E24.17816
G1 X74.313 Y159.586 E24.31959
G1 X74.261 Y159.263 E24.33755
G1 X73.899 Y156.711 E24.479
G1 X73.859 Y156.389 E24.49681
G1 X73.599 Y153.823 E24.63835
G1 X73.573 Y153.492 E24.65657
G1 X73.418 Y150.92 E24.79798
G1 X73.405 Y150.594 E24.81588
G1 X73.353 Y148.017 E24.95733
G1 X73.353 Y147.689 E24.97533
G1 X73.405 Y145.112 E25.11679
G1 X73.418 Y144.786 E25.13469
G1 X73.573 Y142.214 E25.2761
G1 X73.599 Y141.883 E25.29432
G1 X73.859 Y139.318 E25.4358
G1 X73.899 Y138.995 E25.45367
G1 X74.261 Y136.444 E25.59507
G1 X74.313 Y136.123 E25.61291
G1 X74.777 Y133.587 E25.7544
G1 X74.843 Y133.262 E25.7726
G1 X75.41 Y130.747 E25.91408
G1 X75.426 Y130.751 E25.91499
G1 X75.488 Y130.428 E25.93304
G1 X76.156 Y127.938 E26.07452
G1 X76.246 Y127.627 E26.09228
G1 X77.012 Y125.167 E26.23368
G1 X77.125 Y124.859 E26.25168
G1 X77.117 Y124.856 E26.25215
G1 X77.982 Y122.427 E26.39366
G1 X78.098 Y122.12 E26.41167
G1 X79.06 Y119.729 E26.5531
G1 X79.19 Y119.425 E26.57125
G1 X80.248 Y117.075 E26.71268
G1 X80.387 Y116.78 E26.73058
G1 X81.538 Y114.475 E26.87197
G1 X81.697 Y114.192 E26.88978
G1 X81.69 Y114.188 E26.89023
G1 X82.933 Y111.929 E27.03173
G1 X83.1 Y111.639 E27.05009
G1 X84.434 Y109.434 E27.19152
G1 X84.607 Y109.161 E27.20926
G1 X86.028 Y107.01 E27.35074
G1 X86.216 Y106.738 E27.36888
G1 X87.723 Y104.647 E27.51033
G1 X87.918 Y104.387 E27.52817
G1 X89.507 Y102.358 E27.6696
G1 X89.716 Y102.102 E27.68774
G1 X91.386 Y100.139 E27.82918
G1 X91.603 Y99.895 E27.8471
G1 X93.351 Y98 E27.98858
G1 X93.58 Y97.762 E28.00671
G1 X95.403 Y95.94 E28.14815
G0 F6000 X95.714 Y96.251
G1 F1200 X95.933 Y96.04 E28.16484
G1 X97.827 Y94.291 E28.30632
G1 X98.063 Y94.082 E28.32362
G1 X100.027 Y92.412 E28.4651
G1 X100.266 Y92.217 E28.48203
G1 X102.294 Y90.628 E28.62342
G1 X102.543 Y90.441 E28.64051
G1 X104.634 Y88.935 E28.78192
G1 X104.888 Y88.76 E28.79885
G1 X107.039 Y87.338 E28.94036
G1 X107.305 Y87.169 E28.95766
G1 X109.511 Y85.837 E29.09908
G1 X109.773 Y85.686 E29.11567
G1 X112.031 Y84.441 E29.25718
G1 X112.309 Y84.295 E29.27441
G1 X114.616 Y83.143 E29.41592
G1 X114.622 Y83.154 E29.41661
G1 X114.896 Y83.009 E29.43362
G1 X117.245 Y81.952 E29.57498
G1 X117.528 Y81.832 E29.59185
G1 X119.919 Y80.869 E29.73331
G1 X120.215 Y80.767 E29.75049
G1 X120.212 Y80.759 E29.75096
G1 X122.64 Y79.894 E29.89241
G1 X122.934 Y79.795 E29.90944
G1 X125.396 Y79.028 E30.05096
G1 X125.693 Y78.942 E30.06792
G1 X128.182 Y78.275 E30.20934
G1 X128.481 Y78.202 E30.22623
G1 X130.995 Y77.635 E30.36766
G1 X131.302 Y77.582 E30.38476
G1 X131.3 Y77.573 E30.38526
G1 X133.836 Y77.108 E30.52676
G1 X134.144 Y77.058 E30.54388
G1 X136.697 Y76.696 E30.68539
G1 X137.004 Y76.659 E30.70236
G1 X139.567 Y76.4 E30.84373
G1 X139.875 Y76.375 E30.86069
G1 X142.449 Y76.219 E31.00221
G1 X142.76 Y76.207 E31.01929
G1 X145.491 Y76.153 E31.16919
G1 X195.684 Y76.151 E33.92375
G1 X196.922 Y76.136 E33.99169
G1 X197.459 Y76.148 E34.02117
G1 X198.981 Y76.236 E34.10483
G1 X199.506 Y76.284 E34.13377
G1 X201.019 Y76.476 E34.21746
G1 X201.557 Y76.564 E34.24738
G1 X203.055 Y76.863 E34.33121
G1 X203.053 Y76.871 E34.33167
G1 X203.571 Y76.984 E34.36076
G1 X205.04 Y77.384 E34.44431
G1 X205.546 Y77.54 E34.47337
G1 X206.987 Y78.041 E34.5571
G1 X207.483 Y78.233 E34.58629
G1 X208.885 Y78.832 E34.66995
G1 X209.37 Y79.06 E34.69936
G1 X210.729 Y79.756 E34.78316
G1 X211.193 Y80.014 E34.81229
G1 X212.499 Y80.801 E34.89597
G1 X212.948 Y81.093 E34.92537
G1 X214.195 Y81.968 E35.00897
G1 X214.619 Y82.299 E35.03849
G1 X214.624 Y82.293 E35.03892
G1 X215.808 Y83.254 E35.1226
G1 X216.207 Y83.602 E35.15166
G1 X217.322 Y84.642 E35.23533
G1 X217.701 Y85.021 E35.26475
G1 X218.741 Y86.136 E35.34842
G1 X219.088 Y86.535 E35.37744
G1 X220.05 Y87.72 E35.46121
G1 X220.042 Y87.726 E35.46176
G1 X220.378 Y88.152 E35.49153
G1 X221.253 Y89.4 E35.57518
G1 X221.542 Y89.844 E35.60425
G1 X222.329 Y91.149 E35.68788
G1 X222.588 Y91.615 E35.71714
G1 X223.284 Y92.974 E35.80093
G1 X223.51 Y93.454 E35.83005
G1 X224.11 Y94.856 E35.91374
G1 X224.304 Y95.357 E35.94322
G1 X224.805 Y96.798 E36.02695
G1 X224.962 Y97.305 E36.05608
G1 X225.362 Y98.775 E36.13968
G1 X225.475 Y99.295 E36.16888
G1 X225.483 Y99.293 E36.16934
G1 X225.781 Y100.789 E36.25305
G1 X225.867 Y101.318 E36.28246
G1 X226.06 Y102.83 E36.36611
G1 X226.109 Y103.366 E36.39565
G1 X226.196 Y104.889 E36.47937
G1 X226.208 Y105.419 E36.50846
G1 X226.191 Y106.853 E36.58716
G1 X226.191 Y188.048 E41.04308
G1 X226.193 Y189.042 E41.09763
G1 X226.208 Y190.285 E41.16585
G1 X226.196 Y190.818 E41.19511
G1 X226.109 Y192.338 E41.27866
G1 X226.06 Y192.872 E41.30809
G1 X225.867 Y194.386 E41.39185
G1 X225.781 Y194.914 E41.42121
G1 X225.483 Y196.412 E41.50503
G1 X225.475 Y196.41 E41.50548
G1 X225.361 Y196.933 E41.53486
G1 X224.961 Y198.402 E41.61841
G1 X224.806 Y198.906 E41.64735
G1 X224.305 Y200.348 E41.73112
G1 X224.11 Y200.851 E41.76073
G1 X223.51 Y202.253 E41.84442
G1 X223.284 Y202.733 E41.87354
G1 X222.589 Y204.09 E41.95721
G1 X222.331 Y204.554 E41.98634
G1 X221.544 Y205.86 E42.07002
G1 X221.251 Y206.31 E42.09949
G1 X220.375 Y207.558 E42.18317
G1 X220.045 Y207.981 E42.21261
G1 X220.051 Y207.986 E42.21304
G1 X219.09 Y209.17 E42.29673
G1 X218.742 Y209.569 E42.32578
G1 X217.702 Y210.684 E42.40946
G1 X217.326 Y211.06 E42.43864
G1 X216.211 Y212.101 E42.52235
G1 X215.806 Y212.454 E42.55184
G1 X214.621 Y213.415 E42.63557
G1 X214.614 Y213.407 E42.63615
G1 X214.195 Y213.738 E42.66545
G1 X212.948 Y214.613 E42.74905
G1 X212.499 Y214.905 E42.77845
G1 X211.193 Y215.692 E42.86213
G1 X210.729 Y215.95 E42.89126
G1 X209.37 Y216.646 E42.97505
G1 X208.89 Y216.872 E43.00417
G1 X207.488 Y217.472 E43.08786
G1 X206.987 Y217.666 E43.11734
G1 X205.546 Y218.167 E43.20107
G1 X205.04 Y218.323 E43.23013
G1 X203.571 Y218.723 E43.31368
G1 X203.048 Y218.837 E43.34306
G1 X203.05 Y218.845 E43.34351
G1 X201.552 Y219.143 E43.42733
G1 X201.024 Y219.229 E43.45669
G1 X199.511 Y219.422 E43.54039
G1 X198.976 Y219.471 E43.56988
G1 X197.454 Y219.558 E43.65354
G1 X196.924 Y219.57 E43.68263
G1 X195.485 Y219.553 E43.76161
G1 X145.417 Y219.552 E46.5093
G1 X145.408 Y219.566 E46.51021
G1 X144.931 Y220.188 E46.55323
G1 X144.266 Y220.876 E46.60574
G1 X144.09 Y221.037 E46.61883
G1 X143.485 Y221.537 E46.66191
G1 X142.832 Y221.972 E46.70497
G1 X142.139 Y222.339 E46.748
G1 X141.411 Y222.633 E46.79109
G1 X140.658 Y222.851 E46.83411
G1 X139.886 Y222.992 E46.87718
G1 X139.103 Y223.053 E46.92028
G1 X138.505 Y223.046 E46.9531
G1 X138.287 Y223.035 E46.96508
G1 X137.506 Y222.956 E47.00816
G1 X136.427 Y222.709 E47.0689
G1 X116.662 Y216.675 E48.20301
G1 X116.649 Y216.672 E48.20374
G1 X106.771 Y213.638 E48.77083
G1 X106.034 Y213.369 E48.81389
G1 X105.328 Y213.027 E48.85694
G1 X104.66 Y212.615 E48.90001
G1 X104.038 Y212.138 E48.94303
G1 X103.467 Y211.599 E48.98612
G1 X102.955 Y211.005 E49.02916
G1 X102.657 Y210.562 E49.05846
G1 X102.39 Y210.201 E49.0831
G1 X101.99 Y209.526 E49.12616
G1 X101.661 Y208.813 E49.16925
G1 X101.406 Y208.071 E49.21231
G1 X101.228 Y207.307 E49.25536
G1 X101.128 Y206.529 E49.29841
G1 X101.109 Y205.744 E49.3415
G1 X101.169 Y204.962 E49.38454
G1 X101.302 Y204.302 E49.42149
G1 X100.265 Y203.489 E49.4938
G1 X100.025 Y203.293 E49.51081
G1 X98.062 Y201.623 E49.65225
G1 X97.83 Y201.418 E49.66924
G1 X95.935 Y199.67 E49.81072
G1 X95.711 Y199.455 E49.82776
G1 X93.889 Y197.633 E49.96917
G1 X93.676 Y197.41 E49.98609
G1 X91.927 Y195.515 E50.12761
G1 X91.719 Y195.281 E50.14479
G1 X90.05 Y193.318 E50.2862
G1 X89.854 Y193.078 E50.3032
G1 X88.264 Y191.048 E50.44471
G1 X88.078 Y190.8 E50.46172
G1 X86.572 Y188.709 E50.60314
G1 X86.397 Y188.455 E50.62007
G1 X84.975 Y186.304 E50.76158
G1 X84.809 Y186.042 E50.7786
G1 X83.476 Y183.837 E50.92
G1 X83.32 Y183.568 E50.93707
G1 X82.077 Y181.311 E51.07847
G1 X81.934 Y181.037 E51.09543
G1 X80.782 Y178.731 E51.2369
G1 X80.648 Y178.449 E51.25403
G1 X79.59 Y176.097 E51.39556
G1 X79.469 Y175.813 E51.41251
G1 X78.507 Y173.423 E51.55389
G1 X78.397 Y173.132 E51.57097
G1 X77.532 Y170.704 E51.71242
G1 X77.434 Y170.411 E51.72937
G1 X76.667 Y167.95 E51.87084
G1 X76.58 Y167.649 E51.88803
G1 X75.914 Y165.16 E52.02943
G1 X75.841 Y164.866 E52.04606
G1 X75.273 Y162.351 E52.18755
G1 X75.21 Y162.041 E52.20491
G1 X74.746 Y159.506 E52.34634
G1 X74.696 Y159.201 E52.3633
G1 X74.334 Y156.649 E52.50476
G1 X74.297 Y156.344 E52.52162
G1 X74.037 Y153.778 E52.66316
G1 X74.012 Y153.465 E52.68039
G1 X73.857 Y150.893 E52.8218
G1 X73.845 Y150.585 E52.83871
G1 X73.793 Y148.008 E52.98017
G1 X73.793 Y147.698 E52.99718
G1 X73.845 Y145.121 E53.13863
G1 X73.857 Y144.813 E53.15555
G1 X74.012 Y142.241 E53.29695
G1 X74.037 Y141.927 E53.31424
G1 X74.297 Y139.362 E53.45573
G1 X74.334 Y139.057 E53.47259
G1 X74.696 Y136.506 E53.61399
G1 X74.746 Y136.202 E53.63089
