;FLAVOR:Marlin
;TIME:12289
;Filament used: 12.1515m
;Layer height: 0.28
;MINX:73.362
;MINY:76.206
;MINZ:0.3
;MAXX:226.64
;MAXY:223.023
;MAXZ:33.06
;Generated with Cura_SteamEngine 4.6.0
M140 S80
M105
M190 S80
M104 S230
M105
M109 S230
M82 ;absolute extrusion mode
G28 ; home all axes
 M117 Purge extruder
 G92 E0 ; reset extruder
 G1 Z1.0 F3000 ; move z up little to prevent scratching of surface
 G1 X2 Y20 Z0.3 F5000.0 ; move to start-line position
 G1 X2 Y200.0 Z0.3 F1500.0 E15 ; draw 1st line
 G1 X2 Y200.0 Z0.4 F5000.0 ; move to side a little
 G1 X2 Y20 Z0.4 F1500.0 E30 ; draw 2nd line
 G92 E0 ; reset extruder
 G1 Z1.0 F3000 ; move z up little to prevent scratching of surface
G92 E0
G92 E0
G1 F1500 E-6.5
;LAYER_COUNT:118
;LAYER:0
M107
G0 F6000 X95.413 Y96.431 Z0.3
;TYPE:SKIRT
G1 F1500 E0
G1 F1200 X95.644 Y96.21 E0.01754
G1 X97.538 Y94.461 E0.15902
G1 X97.789 Y94.238 E0.17745
G1 X99.754 Y92.568 E0.31897
G1 X100.003 Y92.365 E0.3366
G1 X102.031 Y90.775 E0.47803
G1 X102.296 Y90.575 E0.49625
G1 X104.386 Y89.07 E0.63759
G1 X104.654 Y88.886 E0.65543
G1 X106.805 Y87.464 E0.79694
G1 X107.084 Y87.287 E0.81507
G1 X109.29 Y85.954 E0.95652
G1 X109.572 Y85.791 E0.97439
G1 X111.83 Y84.547 E1.11587
G1 X112.121 Y84.394 E1.13391
G1 X114.428 Y83.242 E1.27543
G1 X114.429 Y83.245 E1.2756
G1 X114.725 Y83.101 E1.29367
G1 X117.074 Y82.044 E1.43503
G1 X117.373 Y81.916 E1.45288
G1 X119.764 Y80.953 E1.59434
G1 X120.073 Y80.846 E1.61228
G1 X120.07 Y80.838 E1.61275
G1 X122.498 Y79.972 E1.75422
G1 X122.815 Y79.867 E1.77254
G1 X125.277 Y79.101 E1.91405
G1 X125.585 Y79.011 E1.93166
G1 X128.074 Y78.343 E2.07308
G1 X128.393 Y78.264 E2.09112
G1 X130.907 Y77.697 E2.23255
G1 X131.232 Y77.641 E2.25065
G1 X131.23 Y77.632 E2.25116
G1 X133.766 Y77.167 E2.39265
G1 X134.091 Y77.115 E2.41071
G1 X136.644 Y76.753 E2.55222
G1 X136.969 Y76.713 E2.57019
G1 X139.532 Y76.454 E2.71156
G1 X139.861 Y76.428 E2.72967
G1 X142.435 Y76.273 E2.87119
G1 X142.76 Y76.26 E2.88904
G1 X145.5 Y76.206 E3.03944
G1 X205.499 Y76.206 E6.33214
G1 X205.895 Y76.216 E6.35387
G1 X207.169 Y76.278 E6.42387
G1 X207.964 Y76.356 E6.46771
G1 X209.228 Y76.543 E6.53783
G1 X210.017 Y76.7 E6.58198
G1 X211.253 Y77.01 E6.65191
G1 X212.018 Y77.242 E6.69578
G1 X213.221 Y77.673 E6.76591
G1 X213.957 Y77.978 E6.80964
G1 X215.109 Y78.523 E6.87957
G1 X215.812 Y78.899 E6.92333
G1 X216.905 Y79.554 E6.99326
G1 X217.57 Y79.998 E7.03714
G1 X218.596 Y80.759 E7.10724
G1 X219.211 Y81.264 E7.15091
G1 X220.155 Y82.119 E7.22081
G1 X220.724 Y82.687 E7.26493
G1 X221.581 Y83.633 E7.33498
G1 X222.081 Y84.243 E7.37827
G1 X222.842 Y85.267 E7.44828
G1 X223.293 Y85.942 E7.49283
G1 X223.949 Y87.038 E7.56293
G1 X224.326 Y87.742 E7.60676
G1 X224.87 Y88.894 E7.67667
G1 X225.172 Y89.625 E7.72008
G1 X225.603 Y90.828 E7.79021
G1 X225.835 Y91.593 E7.83408
G1 X226.145 Y92.829 E7.90401
G1 X226.302 Y93.615 E7.948
G1 X226.489 Y94.876 E8.01796
G1 X226.567 Y95.669 E8.06169
G1 X226.63 Y96.945 E8.1318
G1 X226.64 Y97.346 E8.15381
G1 X226.64 Y199.345 E13.75144
G1 X226.63 Y199.747 E13.7735
G1 X226.567 Y201.021 E13.84351
G1 X226.489 Y201.81 E13.88702
G1 X226.302 Y203.074 E13.95714
G1 X226.145 Y203.865 E14.0014
G1 X225.835 Y205.1 E14.07127
G1 X225.606 Y205.854 E14.11452
G1 X225.177 Y207.056 E14.18456
G1 X224.869 Y207.801 E14.2288
G1 X224.323 Y208.955 E14.29886
G1 X223.947 Y209.658 E14.34261
G1 X223.292 Y210.751 E14.41254
G1 X222.848 Y211.416 E14.45642
G1 X222.087 Y212.442 E14.52653
G1 X221.579 Y213.061 E14.57047
G1 X220.723 Y214.005 E14.64041
G1 X220.161 Y214.567 E14.68402
G1 X219.216 Y215.424 E14.75403
G1 X218.598 Y215.931 E14.7979
G1 X217.571 Y216.693 E14.86808
G1 X216.905 Y217.138 E14.91204
G1 X215.812 Y217.793 E14.98197
G1 X215.104 Y218.172 E15.02604
G1 X213.952 Y218.716 E15.09596
G1 X213.221 Y219.018 E15.13936
G1 X212.018 Y219.449 E15.20949
G1 X211.253 Y219.681 E15.25336
G1 X210.017 Y219.991 E15.32329
G1 X209.228 Y220.148 E15.36744
G1 X207.964 Y220.335 E15.43756
G1 X207.175 Y220.413 E15.48107
G1 X205.902 Y220.476 E15.55102
G1 X205.5 Y220.486 E15.57309
G1 X145.5 Y220.486 E18.86584
G1 X145.336 Y220.484 E18.87484
G1 X143.122 Y220.439 E18.99637
G1 X142.683 Y220.878 E19.03044
G1 X142.058 Y221.388 E19.07471
G1 X141.386 Y221.834 E19.11897
G1 X140.673 Y222.212 E19.16326
G1 X139.658 Y222.606 E19.22301
G1 X139.511 Y222.652 E19.23147
G1 X138.73 Y222.854 E19.27574
G1 X137.933 Y222.978 E19.32
G1 X137.127 Y223.023 E19.36431
G1 X136.322 Y222.988 E19.40852
G1 X135.753 Y222.914 E19.44001
G1 X134.643 Y222.658 E19.50253
G1 X113.976 Y216.339 E20.68855
G1 X113.217 Y216.065 E20.73283
G1 X112.489 Y215.718 E20.77709
G1 X111.799 Y215.3 E20.82136
G1 X111.154 Y214.816 E20.86562
G1 X110.56 Y214.27 E20.9099
G1 X110.022 Y213.668 E20.9542
G1 X109.547 Y213.016 E20.99847
G1 X109.086 Y212.216 E21.04915
G1 X108.943 Y211.932 E21.06659
G1 X108.616 Y211.194 E21.11089
G1 X108.364 Y210.428 E21.15515
G1 X108.3 Y210.14 E21.17134
G1 X107.083 Y209.404 E21.24939
G1 X106.806 Y209.229 E21.26737
G1 X104.657 Y207.809 E21.40873
G1 X104.385 Y207.621 E21.42687
G1 X102.293 Y206.113 E21.5684
G1 X102.032 Y205.917 E21.58631
G1 X100.003 Y204.327 E21.72778
G1 X99.751 Y204.121 E21.74564
G1 X97.787 Y202.451 E21.88712
G1 X97.543 Y202.235 E21.905
G1 X95.648 Y200.488 E22.04645
G1 X95.408 Y200.257 E22.06473
G1 X93.586 Y198.434 E22.20618
G1 X93.361 Y198.201 E22.22395
G1 X91.612 Y196.306 E22.36547
G1 X91.393 Y196.058 E22.38363
G1 X89.724 Y194.095 E22.52503
G1 X89.517 Y193.841 E22.54301
G1 X87.927 Y191.811 E22.68452
G1 X87.731 Y191.551 E22.70239
G1 X86.225 Y189.461 E22.84377
G1 X86.038 Y189.19 E22.86183
G1 X84.616 Y187.038 E23.00339
G1 X84.442 Y186.763 E23.02125
G1 X83.109 Y184.559 E23.1626
G1 X82.944 Y184.273 E23.18072
G1 X81.701 Y182.016 E23.32213
G1 X81.548 Y181.726 E23.34012
G1 X80.396 Y179.419 E23.48164
G1 X80.256 Y179.122 E23.49965
G1 X79.198 Y176.771 E23.64114
G1 X79.069 Y176.469 E23.65916
G1 X78.107 Y174.078 E23.8006
G1 X77.991 Y173.772 E23.81856
G1 X77.126 Y171.344 E23.96001
G1 X77.023 Y171.035 E23.97788
G1 X76.256 Y168.575 E24.1193
G1 X76.164 Y168.256 E24.13752
G1 X75.498 Y165.767 E24.27892
G1 X75.421 Y165.456 E24.2965
G1 X74.853 Y162.94 E24.43805
G1 X74.786 Y162.613 E24.45637
G1 X74.322 Y160.078 E24.5978
G1 X74.27 Y159.755 E24.61575
G1 X73.908 Y157.203 E24.75721
G1 X73.868 Y156.878 E24.77518
G1 X73.609 Y154.313 E24.91666
G1 X73.583 Y153.988 E24.93455
G1 X73.427 Y151.416 E25.07596
G1 X73.414 Y151.087 E25.09403
G1 X73.362 Y148.51 E25.23548
G1 X73.362 Y148.182 E25.25348
G1 X73.414 Y145.605 E25.39493
G1 X73.427 Y145.276 E25.413
G1 X73.583 Y142.704 E25.55441
G1 X73.609 Y142.38 E25.57225
G1 X73.868 Y139.814 E25.71379
G1 X73.908 Y139.487 E25.73186
G1 X74.27 Y136.936 E25.87326
G1 X74.322 Y136.615 E25.89111
G1 X74.786 Y134.079 E26.03259
G1 X74.852 Y133.754 E26.05079
G1 X75.419 Y131.239 E26.19228
G1 X75.435 Y131.243 E26.19318
G1 X75.497 Y130.919 E26.21129
G1 X76.165 Y128.43 E26.35272
G1 X76.255 Y128.12 E26.37043
G1 X77.021 Y125.66 E26.51183
G1 X77.134 Y125.352 E26.52983
G1 X77.126 Y125.349 E26.5303
G1 X77.991 Y122.92 E26.6718
G1 X78.107 Y122.613 E26.68981
G1 X79.069 Y120.222 E26.83125
G1 X79.198 Y119.92 E26.84927
G1 X80.256 Y117.569 E26.99076
G1 X80.396 Y117.272 E27.00878
G1 X81.547 Y114.967 E27.15017
G1 X81.707 Y114.683 E27.16806
G1 X81.7 Y114.679 E27.1685
G1 X82.943 Y112.421 E27.30995
G1 X83.109 Y112.132 E27.32824
G1 X84.443 Y109.927 E27.46967
G1 X84.616 Y109.654 E27.48741
G1 X86.037 Y107.503 E27.62889
G1 X86.224 Y107.232 E27.64696
G1 X87.731 Y105.14 E27.78845
G1 X87.927 Y104.879 E27.80636
G1 X89.516 Y102.85 E27.9478
G1 X89.726 Y102.593 E27.96601
G1 X91.396 Y100.631 E28.10741
G1 X91.61 Y100.389 E28.12513
G1 X93.358 Y98.493 E28.26666
G1 X93.59 Y98.252 E28.28502
G1 X95.413 Y96.431 E28.42642
G0 F6000 X95.724 Y96.742
G1 F1200 X95.942 Y96.533 E28.443
G1 X97.836 Y94.784 E28.58448
G1 X98.074 Y94.574 E28.6019
G1 X100.039 Y92.904 E28.74342
G1 X100.274 Y92.711 E28.76011
G1 X102.302 Y91.121 E28.90153
G1 X102.553 Y90.932 E28.91877
G1 X104.643 Y89.427 E29.06011
G1 X104.897 Y89.253 E29.07701
G1 X107.048 Y87.831 E29.21852
G1 X107.312 Y87.664 E29.23566
G1 X109.518 Y86.331 E29.37711
G1 X109.784 Y86.177 E29.39398
G1 X112.042 Y84.933 E29.53546
G1 X112.318 Y84.788 E29.55257
G1 X114.625 Y83.636 E29.69408
G1 X114.631 Y83.647 E29.69477
G1 X114.905 Y83.502 E29.71178
G1 X117.254 Y82.445 E29.85314
G1 X117.537 Y82.325 E29.87001
G1 X119.928 Y81.362 E30.01147
G1 X120.221 Y81.261 E30.02848
G1 X120.218 Y81.253 E30.02895
G1 X122.646 Y80.387 E30.17042
G1 X122.945 Y80.287 E30.18772
G1 X125.407 Y79.521 E30.32922
G1 X125.699 Y79.436 E30.34591
G1 X128.188 Y78.768 E30.48734
G1 X128.49 Y78.694 E30.5044
G1 X131.004 Y78.127 E30.64583
G1 X131.311 Y78.074 E30.66293
G1 X131.309 Y78.065 E30.66344
G1 X133.845 Y77.6 E30.80493
G1 X134.153 Y77.55 E30.82205
G1 X136.706 Y77.188 E30.96356
G1 X137.013 Y77.151 E30.98053
G1 X139.576 Y76.892 E31.1219
G1 X139.887 Y76.867 E31.13903
G1 X142.461 Y76.712 E31.28054
G1 X142.769 Y76.7 E31.29746
G1 X145.5 Y76.646 E31.44736
G1 X205.499 Y76.646 E34.74006
G1 X205.873 Y76.655 E34.76059
G1 X207.147 Y76.717 E34.83059
G1 X207.9 Y76.791 E34.87211
G1 X209.164 Y76.978 E34.94224
G1 X209.91 Y77.126 E34.98397
G1 X211.146 Y77.436 E35.05391
G1 X211.87 Y77.656 E35.09543
G1 X213.073 Y78.087 E35.16556
G1 X213.769 Y78.376 E35.20692
G1 X214.921 Y78.921 E35.27686
G1 X215.586 Y79.276 E35.31823
G1 X216.679 Y79.931 E35.38816
G1 X217.308 Y80.351 E35.42966
G1 X218.334 Y81.112 E35.49977
G1 X218.916 Y81.59 E35.5411
G1 X219.86 Y82.445 E35.61099
G1 X220.398 Y82.982 E35.65271
G1 X221.255 Y83.928 E35.72276
G1 X221.728 Y84.505 E35.76371
G1 X222.489 Y85.529 E35.83372
G1 X222.916 Y86.167 E35.87585
G1 X223.572 Y87.263 E35.94595
G1 X223.928 Y87.93 E35.98744
G1 X224.472 Y89.082 E36.05736
G1 X224.758 Y89.773 E36.0984
G1 X225.189 Y90.976 E36.16853
G1 X225.409 Y91.7 E36.21006
G1 X225.719 Y92.936 E36.27999
G1 X225.867 Y93.679 E36.32156
G1 X226.054 Y94.94 E36.39152
G1 X226.128 Y95.69 E36.43288
G1 X226.191 Y96.966 E36.50299
G1 X226.2 Y97.346 E36.52385
G1 X226.2 Y199.345 E42.12148
G1 X226.191 Y199.725 E42.14234
G1 X226.128 Y200.999 E42.21234
G1 X226.054 Y201.746 E42.25354
G1 X225.867 Y203.01 E42.32366
G1 X225.718 Y203.758 E42.36551
G1 X225.408 Y204.993 E42.43539
G1 X225.192 Y205.706 E42.47628
G1 X224.763 Y206.908 E42.54632
G1 X224.471 Y207.613 E42.5882
G1 X223.925 Y208.767 E42.65826
G1 X223.57 Y209.432 E42.69963
G1 X222.915 Y210.525 E42.76956
G1 X222.495 Y211.154 E42.81106
G1 X221.734 Y212.18 E42.88117
G1 X221.253 Y212.765 E42.92273
G1 X220.397 Y213.709 E42.99266
G1 X219.866 Y214.241 E43.03391
G1 X218.921 Y215.098 E43.10392
G1 X218.336 Y215.578 E43.14545
G1 X217.309 Y216.34 E43.21563
G1 X216.679 Y216.761 E43.25721
G1 X215.586 Y217.416 E43.32714
G1 X214.916 Y217.774 E43.36883
G1 X213.764 Y218.318 E43.43875
G1 X213.073 Y218.604 E43.47979
G1 X211.87 Y219.035 E43.54992
G1 X211.146 Y219.255 E43.59144
G1 X209.91 Y219.565 E43.66138
G1 X209.164 Y219.713 E43.70311
G1 X207.9 Y219.9 E43.77324
G1 X207.154 Y219.974 E43.81438
G1 X205.881 Y220.037 E43.88432
G1 X205.5 Y220.046 E43.90524
G1 X145.5 Y220.046 E47.19799
G1 X145.345 Y220.044 E47.2065
G1 X142.941 Y219.995 E47.33846
G1 X142.914 Y220.028 E47.3408
G1 X142.356 Y220.58 E47.38387
G1 X141.745 Y221.072 E47.42692
G1 X141.087 Y221.5 E47.47
G1 X140.389 Y221.858 E47.51305
G1 X139.527 Y222.186 E47.56366
G1 X139.38 Y222.232 E47.57212
G1 X138.62 Y222.427 E47.61518
G1 X137.844 Y222.545 E47.65825
G1 X137.06 Y222.583 E47.70133
G1 X136.277 Y222.541 E47.74436
G1 X135.822 Y222.48 E47.76955
G1 X134.772 Y222.238 E47.82869
G1 X114.105 Y215.919 E49.01471
G1 X113.367 Y215.651 E49.0578
G1 X112.66 Y215.31 E49.10087
G1 X111.992 Y214.899 E49.14392
G1 X111.369 Y214.422 E49.18698
G1 X110.798 Y213.884 E49.23003
G1 X110.285 Y213.291 E49.27306
G1 X109.834 Y212.648 E49.31616
G1 X109.479 Y212.018 E49.35585
G1 X109.336 Y211.734 E49.3733
G1 X109.019 Y211.016 E49.41637
G1 X108.777 Y210.27 E49.45941
G1 X108.689 Y209.861 E49.48237
G1 X107.31 Y209.027 E49.57081
G1 X107.049 Y208.862 E49.58776
G1 X104.9 Y207.442 E49.72911
G1 X104.642 Y207.264 E49.74632
G1 X102.55 Y205.756 E49.88784
G1 X102.304 Y205.571 E49.90473
G1 X100.275 Y203.981 E50.0462
G1 X100.036 Y203.786 E50.06313
G1 X98.072 Y202.116 E50.20461
G1 X97.841 Y201.911 E50.22156
G1 X95.946 Y200.164 E50.363
G1 X95.719 Y199.946 E50.38028
G1 X93.897 Y198.123 E50.52172
G1 X93.685 Y197.902 E50.53853
G1 X91.936 Y196.007 E50.68005
G1 X91.728 Y195.773 E50.69723
G1 X90.059 Y193.81 E50.83863
G1 X89.863 Y193.57 E50.85564
G1 X88.273 Y191.54 E50.99715
G1 X88.088 Y191.294 E51.01404
G1 X86.582 Y189.204 E51.15541
G1 X86.405 Y188.947 E51.17254
G1 X84.983 Y186.795 E51.31409
G1 X84.818 Y186.535 E51.33099
G1 X83.485 Y184.331 E51.47235
G1 X83.329 Y184.061 E51.48946
G1 X82.086 Y181.804 E51.63086
G1 X81.942 Y181.529 E51.6479
G1 X80.79 Y179.222 E51.78941
G1 X80.657 Y178.942 E51.80642
G1 X79.599 Y176.591 E51.94791
G1 X79.478 Y176.305 E51.96495
G1 X78.516 Y173.914 E52.10639
G1 X78.406 Y173.624 E52.12341
G1 X77.541 Y171.196 E52.26486
G1 X77.443 Y170.904 E52.28176
G1 X76.676 Y168.444 E52.42318
G1 X76.589 Y168.142 E52.44042
G1 X75.923 Y165.653 E52.58182
G1 X75.85 Y165.359 E52.59845
G1 X75.282 Y162.843 E52.74
G1 X75.219 Y162.533 E52.75736
G1 X74.755 Y159.998 E52.89879
G1 X74.705 Y159.693 E52.91575
G1 X74.343 Y157.141 E53.0572
G1 X74.306 Y156.834 E53.07417
G1 X74.047 Y154.269 E53.21566
G1 X74.022 Y153.961 E53.23261
G1 X73.866 Y151.389 E53.37402
G1 X73.854 Y151.078 E53.3911
G1 X73.802 Y148.501 E53.53256
G1 X73.802 Y148.191 E53.54957
G1 X73.854 Y145.614 E53.69102
G1 X73.866 Y145.303 E53.7081
G1 X74.022 Y142.731 E53.84951
G1 X74.047 Y142.424 E53.86641
G1 X74.306 Y139.858 E54.00795
G1 X74.343 Y139.549 E54.02503
G1 X74.705 Y136.998 E54.16643
G1 X74.755 Y136.694 E54.18333
G1 X75.219 Y134.158 E54.32482
G1 X75.282 Y133.851 E54.34202
G1 X75.849 Y131.336 E54.4835
G1 X75.856 Y131.338 E54.4839
G1 X75.922 Y131.033 E54.50103
G1 X76.59 Y128.544 E54.64246
G1 X76.675 Y128.251 E54.6592
G1 X77.441 Y125.791 E54.80059
G1 X77.548 Y125.5 E54.81761
G1 X77.54 Y125.497 E54.81808
G1 X78.405 Y123.068 E54.95958
G1 X78.516 Y122.777 E54.97667
G1 X79.478 Y120.386 E55.11811
G1 X79.599 Y120.1 E55.13515
G1 X80.657 Y117.749 E55.27664
G1 X80.79 Y117.469 E55.29365
G1 X81.941 Y115.164 E55.43504
G1 X82.093 Y114.895 E55.452
G1 X82.086 Y114.891 E55.45244
G1 X83.329 Y112.633 E55.59389
G1 X83.486 Y112.36 E55.61117
G1 X84.82 Y110.155 E55.7526
G1 X84.983 Y109.897 E55.76935
G1 X86.404 Y107.746 E55.91083
G1 X86.581 Y107.489 E55.92796
G1 X88.088 Y105.397 E56.06945
G1 X88.274 Y105.15 E56.08642
G1 X89.863 Y103.121 E56.22785
G1 X90.061 Y102.878 E56.24505
G1 X91.731 Y100.916 E56.38645
G1 X91.934 Y100.688 E56.4032
G1 X93.682 Y98.792 E56.54473
G1 X93.901 Y98.563 E56.56212
G1 X95.724 Y96.742 E56.70352
G0 F6000 X96.035 Y97.054
G1 F1200 X96.241 Y96.856 E56.7192
G1 X98.135 Y95.107 E56.86068
G1 X98.358 Y94.909 E56.87705
G1 X100.323 Y93.239 E57.01857
G1 X100.546 Y93.058 E57.03433
G1 X102.574 Y91.468 E57.17576
G1 X102.811 Y91.29 E57.19202
G1 X104.901 Y89.785 E57.33336
G1 X105.139 Y89.62 E57.34926
G1 X107.29 Y88.198 E57.49076
G1 X107.539 Y88.04 E57.50695
G1 X109.745 Y86.707 E57.6484
G1 X109.997 Y86.562 E57.66435
G1 X112.255 Y85.318 E57.80583
G1 X112.515 Y85.182 E57.82193
G1 X114.822 Y84.03 E57.96345
G1 X114.825 Y84.036 E57.96382
G1 X115.086 Y83.903 E57.97989
G1 X117.435 Y82.846 E58.12125
G1 X117.702 Y82.733 E58.13716
G1 X120.093 Y81.77 E58.27862
G1 X120.369 Y81.675 E58.29464
G1 X120.366 Y81.667 E58.29511
G1 X122.794 Y80.801 E58.43658
G1 X123.076 Y80.707 E58.45289
G1 X125.538 Y79.941 E58.59439
G1 X125.813 Y79.861 E58.61011
G1 X128.302 Y79.193 E58.75154
G1 X128.587 Y79.123 E58.76765
G1 X131.101 Y78.556 E58.90908
G1 X131.391 Y78.506 E58.92523
G1 X131.389 Y78.498 E58.92568
G1 X133.925 Y78.033 E59.06717
G1 X134.215 Y77.986 E59.0833
G1 X136.768 Y77.624 E59.2248
G1 X137.057 Y77.589 E59.24078
G1 X139.62 Y77.33 E59.38215
G1 X139.914 Y77.306 E59.39834
G1 X142.488 Y77.151 E59.53985
G1 X142.777 Y77.139 E59.55573
G1 X145.5 Y77.086 E59.70519
G1 X205.499 Y77.086 E62.99789
G1 X205.852 Y77.095 E63.01727
G1 X207.126 Y77.157 E63.08727
G1 X207.836 Y77.226 E63.12642
G1 X209.1 Y77.413 E63.19654
