; generated by Slic3r 1.3.0 on 2024-05-15 at 17:59:40

; external perimeters extrusion width = 0.55mm (4.37mm^3/s)
; perimeters extrusion width = 0.70mm (11.44mm^3/s)
; infill extrusion width = 0.62mm (13.45mm^3/s)
; solid infill extrusion width = 0.70mm (3.81mm^3/s)
; top infill extrusion width = 0.70mm (2.86mm^3/s)

M107
M104 S200 ; set temperature
G28 ; home all axes
G1 Z5 F5000 ; lift nozzle

; Filament gcode

M109 S200 ; set temperature and wait for it to be reached
G21 ; set units to millimeters
G90 ; use absolute coordinates
M82 ; use absolute distances for extrusion
G92 E0
G1 Z0.350 F7800.000
G1 E-2.00000 F2400.00000
G92 E0
G1 X109.841 Y89.376 F7800.000
G1 E2.00000 F2400.00000
G1 F1800
G1 X110.345 Y88.786 E2.02403
G1 X110.978 Y88.195 E2.05082
G1 X111.267 Y87.967 E2.06220
G1 X111.937 Y87.524 E2.08705
G1 X112.342 Y87.302 E2.10136
G1 X113.792 Y86.771 E2.14911
G1 X114.863 Y86.592 E2.18273
G1 X115.320 Y86.567 E2.19689
G1 X116.658 Y86.674 E2.23843
G1 X117.444 Y86.860 E2.26342
G1 X117.748 Y86.958 E2.27329
G1 X119.120 Y87.622 E2.32045
G1 X120.290 Y88.538 E2.36642
G1 X120.575 Y88.834 E2.37916
G1 X121.269 Y89.726 E2.41411
G1 X121.407 Y89.943 E2.42207
G1 X121.779 Y90.634 E2.44636
G1 X122.041 Y91.258 E2.46729
G1 X122.233 Y91.849 E2.48652
G1 X122.354 Y92.331 E2.50191
G1 X122.444 Y92.797 E2.51657
G1 X122.537 Y93.579 E2.54097
G1 X122.569 Y94.413 E2.56678
G1 X122.569 Y124.413 E3.49502
G1 X122.172 Y126.672 E3.56598
G1 X121.029 Y128.660 E3.63694
G1 X119.276 Y130.139 E3.70791
G1 X117.124 Y130.932 E3.77887
G1 X115.944 Y131.038 E3.81552
G1 X114.815 Y131.038 E3.85046
G1 X112.556 Y130.641 E3.92142
G1 X110.568 Y129.498 E3.99238
G1 X109.089 Y127.745 E4.06335
G1 X108.296 Y125.593 E4.13431
G1 X108.190 Y124.413 E4.17096
G1 X108.201 Y94.006 E5.11180
G1 X108.253 Y93.371 E5.13153
G1 X108.354 Y92.730 E5.15158
G1 X108.498 Y92.113 E5.17121
G1 X108.686 Y91.513 E5.19067
G1 X108.944 Y90.875 E5.21196
G1 X109.224 Y90.321 E5.23115
G1 X109.516 Y89.836 E5.24867
G1 X109.797 Y89.437 E5.26377
G1 E3.26377 F2400.00000
G92 E0
G1 X115.594 Y124.063 F7800.000
G1 E2.00000 F2400.00000
G1 F1800
G1 X115.165 Y124.063 E2.01328
G1 X115.165 Y94.432 E2.93010
G1 X115.221 Y93.923 E2.94596
G1 X115.565 Y93.931 E2.95663
G1 X115.594 Y94.423 E2.97188
G1 X115.594 Y123.988 E3.88665
G1 X115.222 Y123.849 F7800.000
G1 E1.88665 F2400.00000
G92 E0
G1 X115.806 Y93.525 F7800.000
G1 E2.00000 F2400.00000
G1 F1800
G1 X115.541 Y93.406 E2.00393
G1 X115.437 Y93.386 E2.00538
G1 X115.015 Y93.524 E2.01139
G1 Z0.650 F7800.000
G1 E0.01139 F2400.00000
G92 E0
G1 X115.970 Y124.138 F7800.000
G1 E2.00000 F2400.00000
G1 F1321.43
G1 X114.614 Y124.138 E2.02796
G1 X114.619 Y94.272 E2.64351
G1 X114.660 Y93.989 E2.64940
G1 X114.741 Y93.707 E2.65544
G1 X114.863 Y93.429 E2.66171
G1 X115.090 Y93.068 E2.67050

G1 F3600
G1 X115.229 Y92.884 E2.67690
G1 X115.368 Y92.755 E2.68217
G1 X115.503 Y92.685 E2.68639
G1 X115.625 Y92.672 E2.68981
G1 X115.720 Y92.727 E2.69287
G1 X115.789 Y92.809 E2.69584
G1 X115.845 Y92.919 E2.69927
G1 X115.911 Y93.180 E2.70676

G1 F1321.43
G1 X115.967 Y93.816 E2.71992
G1 X115.970 Y124.063 E3.34332
G1 X115.537 Y123.888 F7800.000
G1 X115.292 Y123.858 F7800.000
G1 F880.954
G1 X115.293 Y94.320 E4.26020
G1 X115.382 Y93.591 E4.28300
G1 F880.954
G1 X115.458 Y93.054 E4.29834
G1 Z0.950 F7800.000
G1 X115.572 Y123.578 F7800.000
G1 F3249.91
G1 X114.735 Y123.578 E4.32092
G1 X114.740 Y94.312 E5.11041
G1 X114.770 Y94.107 E5.11600
G1 X114.826 Y93.910 E5.12153
G1 X114.990 Y93.565 E5.13184
G1 X115.127 Y93.361 E5.13846
G1 X115.572 Y92.857 E5.15658
G1 X115.572 Y123.503 E5.98329
G1 X116.133 Y124.138 F7800.000
G1 F1800
G1 X114.174 Y124.138 E6.02365
G1 X114.180 Y94.272 E6.63921
G1 X114.220 Y93.989 E6.64510
G1 X114.300 Y93.711 E6.65107
G1 X114.502 Y93.287 E6.66074
G1 X114.682 Y93.017 E6.66743
G1 X115.041 Y92.611 E6.67859
G1 X115.337 Y92.350 E6.68673
G1 X115.550 Y92.223 E6.69184
G1 X115.703 Y92.193 E6.69505
G1 X115.806 Y92.208 E6.69719
G1 X115.901 Y92.259 E6.69942
G1 X115.983 Y92.353 E6.70199
G1 X116.041 Y92.462 E6.70452
G1 X116.090 Y92.621 E6.70796
G1 X116.133 Y93.096 E6.71779
G1 X116.133 Y124.063 E7.35603
G1 X115.700 Y123.888 F7800.000
G1 X115.153 Y123.260 F7800.000
G1 F1083.3
G1 X115.156 Y94.341 E7.52440
G1 X115.209 Y93.893 E7.52703
M106 S255
G1 Z1.250 F7800.000
G1 X115.285 Y122.999 F7800.000
G1 F3554.32
G1 X115.733 Y122.999 E7.53911
G1 X115.733 Y123.578 E7.55472
G1 X114.295 Y123.578 E7.59350
G1 X114.301 Y94.326 E8.38261
G1 X114.360 Y93.995 E8.39169
G1 X114.430 Y93.801 E8.39725
G1 X114.620 Y93.455 E8.40791
G1 X114.777 Y93.248 E8.41491
G1 X115.114 Y92.902 E8.42793
G1 X115.733 Y92.416 E8.44916
G1 X115.733 Y93.673 E8.48304
G1 X115.285 Y93.925 E8.49691
G1 X115.285 Y122.924 E9.27920
G1 X115.846 Y122.438 F7800.000
G1 F1800
G1 X116.293 Y122.438 E9.28842
G1 X116.293 Y124.138 E9.32346
G1 X113.734 Y124.138 E9.37620
G1 X113.740 Y94.276 E9.99167
G1 X113.816 Y93.849 E10.00061
G1 X113.917 Y93.569 E10.00675
G1 X114.149 Y93.149 E10.01663
G1 X114.350 Y92.882 E10.02353
G1 X114.738 Y92.484 E10.03499
G1 X115.211 Y92.113 E10.04738
G1 X115.574 Y91.888 E10.05617
G1 X115.809 Y91.830 E10.06115
G1 X115.924 Y91.841 E10.06354
G1 X116.015 Y91.875 E10.06553
G1 X116.148 Y91.989 E10.06916
G1 X116.251 Y92.207 E10.07412
G1 X116.293 Y92.571 E10.08167
G1 X116.293 Y94.000 E10.11113
G1 X115.846 Y94.253 E10.12173
G1 X115.846 Y122.363 E10.70110
G1 X115.843 Y122.886 F7800.000
G1 X114.790 Y123.260 F7800.000
G1 F1184.77
G1 X114.793 Y94.369 E11.05660
G1 X114.815 Y94.116 E11.05973
G1 F1184.77
G1 X114.904 Y93.606 E11.06500
G1 X114.822 Y93.748 F7800.000
G1 F1184.77
G1 X115.415 Y93.292 E11.07212
G1 X115.415 Y93.197 F7800.000
G1 F1184.77
G1 X114.934 Y93.681 E11.07442
G1 X114.649 Y94.183 E11.07637
M106 S252.45
G1 Z1.550 F7800.000
G1 X114.845 Y122.999 F7800.000
G1 F3600
G1 X115.893 Y122.999 E11.10465
G1 X115.893 Y123.578 E11.12026
G1 X113.855 Y123.578 E11.17524
G1 X113.861 Y94.326 E11.96434
G1 X113.919 Y94.001 E11.97326
G1 X114.045 Y93.687 E11.98238
G1 X114.255 Y93.352 E11.99304
G1 X114.554 Y93.014 E12.00523
G1 X114.943 Y92.681 E12.01904
G1 X115.424 Y92.362 E12.03461
G1 X115.893 Y92.107 E12.04901
G1 X115.893 Y93.334 E12.08211
G1 X114.845 Y93.925 E12.11456
G1 X114.845 Y122.924 E12.89685
G1 X115.406 Y122.438 F7800.000
G1 F1800
G1 X116.454 Y122.438 E12.91845
G1 X116.454 Y124.138 E12.95349
G1 X113.295 Y124.138 E13.01861
G1 X113.300 Y94.276 E13.63408
G1 X113.378 Y93.846 E13.64309
G1 X113.543 Y93.432 E13.65228
G1 X113.805 Y93.015 E13.66242
G1 X114.160 Y92.613 E13.67348
G1 X114.605 Y92.233 E13.68554
G1 X115.135 Y91.881 E13.69865
G1 X115.524 Y91.670 E13.70777
G1 X115.736 Y91.577 E13.71255
G1 X115.969 Y91.542 E13.71741
G1 X116.113 Y91.572 E13.72042
G1 X116.257 Y91.656 E13.72388
G1 X116.333 Y91.741 E13.72622
G1 X116.415 Y91.916 E13.73020
G1 X116.454 Y92.209 E13.73630
G1 X116.454 Y93.662 E13.76624
G1 X115.406 Y94.253 E13.79104
G1 X115.406 Y122.363 E14.37041
G1 X115.400 Y122.938 F7800.000
G1 X114.350 Y123.260 F7800.000
G1 F1200
G1 X114.353 Y94.370 E14.72591
G1 X114.374 Y94.131 E14.72887
G1 X114.426 Y93.864 E14.73222
G1 F1200
G1 X114.477 Y93.596 E14.73445
G1 X114.361 Y93.781 F7800.000
G1 F1200
G1 X114.713 Y93.496 E14.73847
G1 F1200
G1 X115.073 Y93.225 E14.74412
G1 F1200
G1 X115.576 Y92.901 E14.75297
G1 X114.736 Y93.288 F7800.000
G1 F1200
G1 X114.216 Y94.148 E14.75571
G1 Z1.850 F7800.000
G1 X114.406 Y122.999 F7800.000
G1 F3600
G1 X116.054 Y122.999 E14.80018
G1 X116.054 Y123.578 E14.81580
G1 X113.416 Y123.578 E14.88698
G1 X113.421 Y94.326 E15.67608
G1 X113.482 Y93.988 E15.68536
G1 X113.555 Y93.787 E15.69111
G1 X113.657 Y93.588 E15.69715
G1 X113.905 Y93.240 E15.70868
G1 X114.235 Y92.902 E15.72142
G1 X114.660 Y92.569 E15.73599
G1 X114.979 Y92.365 E15.74621
G1 X115.328 Y92.175 E15.75693
G1 X116.054 Y91.860 E15.77828
G1 X116.054 Y92.996 E15.80893
G1 X114.406 Y93.925 E15.85998
G1 X114.406 Y122.924 E16.64227
G1 X114.966 Y122.438 F7800.000
G1 F1800
G1 X116.615 Y122.438 E16.67625
G1 X116.615 Y124.138 E16.71128
G1 X112.855 Y124.138 E16.78878
G1 X112.861 Y94.276 E17.40425
G1 X112.939 Y93.841 E17.41336
G1 X113.040 Y93.563 E17.41946
G1 X113.177 Y93.296 E17.42563
G1 X113.473 Y92.880 E17.43617
G1 X113.859 Y92.483 E17.44757
G1 X114.335 Y92.110 E17.46004
G1 X114.694 Y91.882 E17.46881
G1 X115.082 Y91.671 E17.47791
G1 X115.812 Y91.354 E17.49430
G1 X116.074 Y91.311 E17.49978
G1 X116.233 Y91.337 E17.50311
G1 X116.391 Y91.413 E17.50670
G1 X116.513 Y91.546 E17.51045
G1 X116.577 Y91.684 E17.51357
G1 X116.615 Y91.946 E17.51902
G1 X116.615 Y93.323 E17.54742
G1 X114.966 Y94.253 E17.58642
G1 X114.966 Y122.363 E18.16579
G1 X114.957 Y122.938 F7800.000
G1 X113.911 Y123.260 F7800.000
G1 F1200
G1 X113.913 Y94.370 E18.52129
G1 X113.937 Y94.110 E18.52451
G1 F1200
G1 X114.023 Y93.623 E18.52951
G1 X114.139 Y93.597 F7800.000
G1 F1200
G1 X113.926 Y93.761 E18.53188
G1 X114.139 Y93.597 F7800.000
G1 F1200
G1 X114.565 Y93.269 E18.53841
G1 F1200
G1 X114.966 Y93.001 E18.54538
G1 X115.518 Y92.683 E18.55460
G1 X115.713 Y92.355 E18.56012
G1 X114.328 Y93.261 F7800.000
G1 F1200
G1 X114.021 Y93.739 E18.56177
G1 X113.739 Y94.624 E18.56448
G1 Z2.150 F7800.000
G1 X113.966 Y122.999 F7800.000
G1 F3600
G1 X116.215 Y122.999 E18.62515
G1 X116.215 Y123.578 E18.64076
G1 X112.976 Y123.578 E18.72814
G1 X112.976 Y94.443 E19.51409
G1 X112.992 Y94.223 E19.52004
G1 X113.078 Y93.881 E19.52957
G1 X113.162 Y93.689 E19.53521
G1 X113.288 Y93.475 E19.54190
G1 X113.565 Y93.127 E19.55392
G1 X113.931 Y92.784 E19.56744
G1 X114.214 Y92.572 E19.57697
G1 X114.527 Y92.373 E19.58698
G1 X115.096 Y92.075 E19.60432
G1 X115.501 Y91.903 E19.61617
G1 X116.215 Y91.669 E19.63645
G1 X116.215 Y92.657 E19.66311
G1 X113.966 Y93.925 E19.73275
G1 X113.966 Y122.924 E20.51504
G1 X114.527 Y122.438 F7800.000
G1 F1800
G1 X116.776 Y122.438 E20.56139
G1 X116.776 Y124.138 E20.59643
G1 X112.415 Y124.138 E20.68630
G1 X112.415 Y94.423 E21.29874
G1 X112.436 Y94.134 E21.30472
G1 X112.546 Y93.699 E21.31397
G1 X112.662 Y93.434 E21.31993
G1 X112.824 Y93.157 E21.32654
G1 X113.152 Y92.745 E21.33739
G1 X113.571 Y92.354 E21.34920
G1 X113.894 Y92.111 E21.35754
G1 X114.246 Y91.887 E21.36613
G1 X114.857 Y91.568 E21.38033
G1 X115.297 Y91.381 E21.39019
G1 X115.763 Y91.214 E21.40039
G1 X116.038 Y91.137 E21.40629
G1 X116.204 Y91.125 E21.40971
G1 X116.373 Y91.154 E21.41325
G1 X116.536 Y91.233 E21.41699
G1 X116.645 Y91.336 E21.42007
G1 X116.738 Y91.509 E21.42412
G1 X116.776 Y91.750 E21.42914
G1 X116.776 Y92.985 E21.45460
G1 X114.527 Y94.253 E21.50781
G1 X114.527 Y122.363 E22.08718
G1 X114.514 Y122.938 F7800.000
G1 X113.471 Y123.260 F7800.000
G1 F1200
G1 X113.471 Y94.461 E22.44187
G1 X113.558 Y93.646 E22.45197
G1 X113.615 Y93.681 F7800.000
G1 F1200
G1 X113.306 Y94.286 E22.45396
G1 X113.615 Y93.681 F7800.000
G1 F1200
G1 X113.806 Y93.519 E22.45572
G1 F1200
G1 X114.020 Y93.350 E22.45859
G1 F1200
G1 X114.259 Y93.175 E22.46259
G1 F1200
G1 X114.796 Y92.839 E22.47272
G1 X115.322 Y92.554 E22.48228
G1 F1200
G1 X115.897 Y92.278 E22.49072
G1 Z2.450 F7800.000
G1 E20.49072 F2400.00000
G92 E0
G1 X113.526 Y122.999 F7800.000
G1 E2.00000 F2400.00000
G1 F3600
G1 X116.376 Y122.999 E2.07687
G1 X116.376 Y123.578 E2.09248
G1 X112.536 Y123.578 E2.19607
G1 X112.536 Y94.443 E2.98201
G1 X112.552 Y94.223 E2.98797
G1 X112.639 Y93.880 E2.99752
G1 X112.722 Y93.690 E3.00311
G1 X112.847 Y93.477 E3.00977
G1 X113.142 Y93.108 E3.02252
G1 X113.354 Y92.902 E3.03049
G1 X113.625 Y92.680 E3.03993
G1 X113.934 Y92.466 E3.05008
G1 X114.263 Y92.273 E3.06038
G1 X114.858 Y91.986 E3.07818
G1 X115.277 Y91.823 E3.09032
G1 X115.727 Y91.676 E3.10310
G1 X116.376 Y91.503 E3.12120
G1 X116.376 Y92.319 E3.14322
G1 X113.526 Y93.925 E3.23146
G1 X113.526 Y122.924 E4.01375
G1 X114.087 Y122.438 F7800.000
G1 F1800
G1 X116.936 Y122.438 E4.07248
G1 X116.936 Y124.138 E4.10752
G1 X111.975 Y124.138 E4.20976
G1 X111.975 Y94.423 E4.82220
G1 X111.996 Y94.133 E4.82819
G1 X112.107 Y93.698 E4.83745
G1 X112.221 Y93.435 E4.84336
G1 X112.384 Y93.158 E4.84997
G1 X112.726 Y92.731 E4.86126
G1 X112.980 Y92.483 E4.86857
G1 X113.287 Y92.232 E4.87676
G1 X113.632 Y91.993 E4.88540
G1 X113.999 Y91.778 E4.89416
G1 X114.634 Y91.472 E4.90868
G1 X115.088 Y91.295 E4.91873
G1 X115.568 Y91.138 E4.92914
G1 X116.082 Y91.001 E4.94010
G1 X116.287 Y90.977 E4.94437
G1 X116.454 Y90.994 E4.94781
G1 X116.638 Y91.065 E4.95188
G1 X116.794 Y91.194 E4.95605
G1 X116.887 Y91.342 E4.95967
G1 X116.921 Y91.449 E4.96197
G1 X116.936 Y91.599 E4.96509
G1 X116.936 Y92.647 E4.98667
G1 X114.087 Y94.253 E5.05409
G1 X114.087 Y122.363 E5.63346
G1 X114.071 Y122.938 F7800.000
G1 X113.031 Y123.260 F7800.000
G1 F1200
G1 X113.031 Y94.461 E5.98816
G1 X113.119 Y93.646 E5.99825
G1 X113.176 Y93.681 F7800.000
G1 F1200
G1 X112.865 Y94.301 E6.00027
G1 X113.176 Y93.681 F7800.000
G1 F1200
G1 X113.330 Y93.550 E6.00153
G1 F1200
G1 X113.485 Y93.418 E6.00345
G1 F1200
G1 X113.683 Y93.270 E6.00647
G1 F1200
G1 X114.517 Y92.748 E6.02056
G1 X115.253 Y92.373 E6.03239
G1 F1200
G1 X115.648 Y92.193 E6.03752
G1 F1200
G1 X116.058 Y92.019 E6.04111
G1 Z2.750 F7800.000
G1 E4.04111 F2400.00000
G92 E0
G1 X113.087 Y122.999 F7800.000
G1 E2.00000 F2400.00000
G1 F3600
G1 X116.537 Y122.999 E2.09307
G1 X116.537 Y123.578 E2.10868
G1 X112.096 Y123.578 E2.22846
G1 X112.096 Y94.443 E3.01440
G1 X112.113 Y94.208 E3.02076
G1 X112.159 Y94.000 E3.02651
G1 X112.237 Y93.785 E3.03270
G1 X112.342 Y93.580 E3.03890
G1 X112.493 Y93.354 E3.04623
G1 X112.684 Y93.127 E3.05424
G1 X112.895 Y92.920 E3.06222
G1 X113.344 Y92.566 E3.07762
G1 X113.664 Y92.363 E3.08787
G1 X114.014 Y92.173 E3.09861
G1 X114.411 Y91.989 E3.11040
G1 X114.837 Y91.823 E3.12274
G1 X115.289 Y91.675 E3.13556
G1 X115.761 Y91.549 E3.14874
G1 X116.532 Y91.388 E3.16999
G1 X116.534 Y91.982 E3.18601
G1 X113.087 Y93.925 E3.29278
G1 X113.087 Y122.924 E4.07507
G1 X113.647 Y122.438 F7800.000
G1 F1800
G1 X117.097 Y122.438 E4.14617
G1 X117.097 Y124.138 E4.18121
G1 X111.536 Y124.138 E4.29583
G1 X111.536 Y94.423 E4.90827
G1 X111.557 Y94.128 E4.91437
G1 X111.619 Y93.844 E4.92037
G1 X111.723 Y93.560 E4.92660
G1 X111.858 Y93.295 E4.93272
G1 X112.044 Y93.017 E4.93962
G1 X112.272 Y92.745 E4.94692
G1 X112.524 Y92.498 E4.95421
G1 X113.019 Y92.108 E4.96719
G1 X113.380 Y91.879 E4.97600
G1 X113.763 Y91.671 E4.98498
G1 X114.191 Y91.473 E4.99471
G1 X114.648 Y91.295 E5.00481
G1 X115.129 Y91.138 E5.01524
G1 X115.631 Y91.003 E5.02595
G1 X116.240 Y90.876 E5.03877
G1 X116.427 Y90.861 E5.04264
G1 X116.598 Y90.884 E5.04620
G1 X116.786 Y90.960 E5.05039
G1 X116.925 Y91.068 E5.05401
G1 X117.033 Y91.217 E5.05780
G1 X117.093 Y91.425 E5.06225
G1 X117.096 Y92.309 E5.08046
G1 X113.647 Y94.253 E5.16207
G1 X113.647 Y122.363 E5.74144
G1 X113.628 Y122.938 F7800.000
G1 X112.591 Y123.260 F7800.000
G1 F1200
G1 X112.591 Y94.461 E6.09614
G1 X112.614 Y94.132 E6.10020
G1 X112.660 Y93.869 E6.10349
G1 F1200
G1 X112.707 Y93.607 E6.10593
G1 X112.589 Y93.796 F7800.000
G1 F1200
G1 X113.020 Y93.438 E6.11104
G1 F1200
G1 X113.219 Y93.288 E6.11399
G1 F1200
G1 X113.938 Y92.827 E6.12627
G1 X114.808 Y92.376 E6.14038
G1 F1200
G1 X115.209 Y92.193 E6.14559
G1 F1200
G1 X115.560 Y92.043 E6.14866
G1 F1200
G1 X115.850 Y91.924 E6.15014
G1 F1200
G1 X116.049 Y91.849 E6.15055
G1 X112.994 Y93.268 F7800.000
G1 F1200
G1 X112.700 Y93.739 E6.15226
G1 X112.414 Y94.682 E6.15530
M106 S249.9
G1 Z3.050 F7800.000
G1 X112.647 Y122.999 F7800.000
G1 F3600
G1 X116.697 Y122.999 E6.26456
G1 X116.697 Y123.578 E6.28018
G1 X111.657 Y123.578 E6.41615
G1 X111.657 Y94.443 E7.20210
G1 X111.674 Y94.208 E7.20846
G1 X111.719 Y93.999 E7.21422
G1 X111.798 Y93.784 E7.22042
G1 X111.902 Y93.581 E7.22657
G1 X112.053 Y93.354 E7.23391
G1 X112.244 Y93.127 E7.24191
G1 X112.475 Y92.901 E7.25064
G1 X112.746 Y92.679 E7.26010
G1 X113.057 Y92.465 E7.27028
G1 X113.387 Y92.271 E7.28060
G1 X113.769 Y92.079 E7.29212
G1 X114.181 Y91.904 E7.30420
G1 X114.620 Y91.747 E7.31680
G1 X115.084 Y91.609 E7.32985
G1 X115.564 Y91.493 E7.34316
G1 X116.317 Y91.360 E7.36380
G1 X116.634 Y91.333 E7.37237
G1 X116.725 Y91.627 E7.38068
G1 X112.647 Y93.925 E7.50696
G1 X112.647 Y122.924 E8.28925
G1 X113.207 Y122.438 F7800.000
G1 F1800
G1 X117.258 Y122.438 E8.37273
G1 X117.258 Y124.138 E8.40777
G1 X111.096 Y124.138 E8.53476
