;FLAVOR:Marlin
;TIME:1163
;Filament used: 1.05197m
;Layer height: 0.28
;MINX:123
;MINY:141
;MINZ:0.28
;MAXX:159
;MAXY:159
;MAXZ:17.58
;Generated with Cura_SteamEngine 4.6.0
M140 S80
M105
M190 S80
M104 S250
M105
M109 S250
M82 ;absolute extrusion mode
G28 ; home all axes
 M117 Purge extruder
 G92 E0 ; reset extruder
 G1 Z1.0 F3000 ; move z up little to prevent scratching of surface
 G1 X2 Y20 Z0.3 F5000.0 ; move to start-line position
 G1 X2 Y200.0 Z0.3 F1500.0 E15 ; draw 1st line
 G1 X2 Y200.0 Z0.4 F5000.0 ; move to side a little
 G1 X2 Y20 Z0.4 F1500.0 E30 ; draw 2nd line
 G92 E0 ; reset extruder
 G1 Z1.0 F3000 ; move z up little to prevent scratching of surface
G92 E0
G92 E0
G1 F1500 E-2
;LAYER_COUNT:61
;LAYER:0
M107
G1 F600 Z0.78
G0 F900 X125.974 Y143.314 Z0.78
;TYPE:SKIRT
G1 F600 Z0.28
G1 F1500 E0
G1 F1200 X126.084 Y143.226 E0.01044
G1 X126.08 Y143.221 E0.01091
G1 X126.346 Y142.999 E0.03659
G1 X126.542 Y142.845 E0.05506
G1 X126.543 Y142.846 E0.05516
G1 X126.634 Y142.775 E0.06371
G1 X126.928 Y142.566 E0.09044
G1 X127.242 Y142.361 E0.11823
G1 X127.457 Y142.232 E0.13681
G1 X127.458 Y142.233 E0.13691
G1 X127.545 Y142.18 E0.14446
G1 X127.874 Y142.002 E0.17218
G1 X128.101 Y141.89 E0.19094
G1 X128.106 Y141.899 E0.1917
G1 X128.203 Y141.84 E0.20011
G1 X128.43 Y141.739 E0.21852
G1 X128.431 Y141.741 E0.21869
G1 X128.505 Y141.707 E0.22472
G1 X128.738 Y141.611 E0.2434
G1 X128.874 Y141.568 E0.25397
G1 X128.871 Y141.561 E0.25453
G1 X129.107 Y141.478 E0.27307
G1 X129.108 Y141.48 E0.27323
G1 X129.216 Y141.442 E0.28172
G1 X129.546 Y141.342 E0.30727
G1 X129.788 Y141.277 E0.32584
G1 X129.788 Y141.278 E0.32591
G1 X129.889 Y141.252 E0.33364
G1 X130.264 Y141.169 E0.3621
G1 X130.511 Y141.125 E0.38069
G1 X130.604 Y141.117 E0.38761
G1 X130.603 Y141.111 E0.38806
G1 X130.955 Y141.061 E0.4144
G1 X131.353 Y141.023 E0.44403
G1 X131.599 Y141.01 E0.46228
G1 X131.599 Y141.013 E0.4625
G1 X131.695 Y141.006 E0.46964
G1 X132 Y141 E0.49224
G1 X132.405 Y141.01 E0.52226
G1 X132.775 Y141.033 E0.54973
G1 X133.154 Y141.074 E0.57798
G1 X133.485 Y141.125 E0.6028
G1 X133.788 Y141.179 E0.6256
G1 X134.108 Y141.251 E0.64991
G1 X134.107 Y141.254 E0.65014
G1 X134.197 Y141.272 E0.65694
G1 X134.436 Y141.335 E0.67526
G1 X134.553 Y141.382 E0.6846
G1 X134.556 Y141.372 E0.68537
G1 X134.889 Y141.477 E0.71125
G1 X135.24 Y141.603 E0.73888
G1 X135.58 Y141.742 E0.7661
G1 X135.899 Y141.889 E0.79213
G1 X136.228 Y142.055 E0.81943
G1 X136.448 Y142.176 E0.83804
G1 X136.447 Y142.178 E0.8382
G1 X136.557 Y142.238 E0.84749
G1 X136.85 Y142.419 E0.87301
G1 X137.154 Y142.623 E0.90014
G1 X137.356 Y142.768 E0.91856
G1 X137.457 Y142.847 E0.92806
G1 X137.459 Y142.845 E0.92827
G1 X137.731 Y143.061 E0.95401
G1 X137.92 Y143.221 E0.97236
G1 X137.919 Y143.222 E0.97246
G1 X138.007 Y143.298 E0.98108
G1 X138.279 Y143.552 E1.00866
G1 X138.525 Y143.801 E1.03459
G1 X138.784 Y144.085 E1.06307
G1 X138.945 Y144.277 E1.08164
G1 X139.158 Y144.546 E1.10707
G1 X139.157 Y144.547 E1.10717
G1 X139.23 Y144.641 E1.11599
G1 X139.439 Y144.935 E1.14272
G1 X139.575 Y145.141 E1.16101
G1 X139.572 Y145.143 E1.16128
G1 X139.641 Y145.245 E1.1704
G1 X139.827 Y145.559 E1.19745
G1 X139.946 Y145.778 E1.21591
G1 X139.939 Y145.782 E1.21651
G1 X139.994 Y145.866 E1.22395
G1 X140.165 Y146.215 E1.25275
G1 X140.296 Y146.514 E1.27694
G1 X140.389 Y146.743 E1.29525
G1 X140.387 Y146.744 E1.29542
G1 X140.436 Y146.865 E1.30509
G1 X140.519 Y147.099 E1.32349
G1 X140.516 Y147.1 E1.32373
G1 X140.556 Y147.211 E1.33247
G1 X140.657 Y147.542 E1.35811
G1 X140.751 Y147.901 E1.38561
G1 X140.805 Y148.141 E1.40384
G1 X140.809 Y148.157 E1.40506
G1 X140.874 Y148.511 E1.43173
G1 X140.873 Y148.511 E1.43181
G1 X140.89 Y148.604 E1.43881
G1 X140.942 Y148.98 E1.46694
G1 X140.966 Y149.226 E1.48525
G1 X140.965 Y149.226 E1.48533
G1 X140.976 Y149.343 E1.49403
G1 X140.99 Y149.59 E1.51237
G1 X140.986 Y149.59 E1.51266
G1 X140.994 Y149.697 E1.52061
G1 X141 Y150.043 E1.54626
G1 X140.996 Y150.294 E1.56486
G1 X140.987 Y150.413 E1.5737
G1 X140.991 Y150.413 E1.574
G1 X140.965 Y150.785 E1.60163
G1 X140.966 Y150.785 E1.6017
G1 X140.928 Y151.137 E1.62794
G1 X140.893 Y151.384 E1.64642
G1 X140.867 Y151.483 E1.65401
G1 X140.876 Y151.485 E1.65469
G1 X140.809 Y151.846 E1.6819
G1 X140.725 Y152.208 E1.70944
G1 X140.634 Y152.539 E1.73487
G1 X140.562 Y152.775 E1.75316
G1 X140.516 Y152.889 E1.76227
G1 X140.523 Y152.891 E1.7628
G1 X140.394 Y153.247 E1.79086
G1 X140.302 Y153.475 E1.80908
G1 X140.259 Y153.566 E1.81654
G1 X140.262 Y153.567 E1.81677
G1 X140.108 Y153.907 E1.84443
G1 X139.997 Y154.129 E1.86282
G1 X139.94 Y154.222 E1.87091
G1 X139.946 Y154.225 E1.8714
G1 X139.766 Y154.546 E1.89867
G1 X139.582 Y154.848 E1.92488
G1 X139.444 Y155.058 E1.9435
G1 X139.376 Y155.149 E1.95192
G1 X139.379 Y155.151 E1.95218
G1 X139.236 Y155.351 E1.9704
G1 X139.156 Y155.453 E1.98001
G1 X139.158 Y155.455 E1.98022
G1 X138.952 Y155.716 E2.00485
G1 X138.793 Y155.906 E2.02321
G1 X138.689 Y156.002 E2.0337
G1 X138.698 Y156.011 E2.03464
G1 X138.527 Y156.196 E2.05331
G1 X138.522 Y156.192 E2.05379
G1 X138.443 Y156.285 E2.06283
G1 X138.205 Y156.519 E2.08756
G1 X138.026 Y156.686 E2.1057
G1 X137.916 Y156.774 E2.11614
G1 X137.92 Y156.779 E2.11661
G1 X137.654 Y157.001 E2.14229
G1 X137.458 Y157.155 E2.16076
G1 X137.457 Y157.154 E2.16086
G1 X137.366 Y157.225 E2.16941
G1 X137.072 Y157.434 E2.19614
G1 X136.758 Y157.639 E2.22393
G1 X136.543 Y157.768 E2.24251
G1 X136.542 Y157.767 E2.24261
G1 X136.455 Y157.82 E2.25016
G1 X136.126 Y157.998 E2.27788
G1 X135.899 Y158.11 E2.29664
G1 X135.898 Y158.108 E2.2968
G1 X135.759 Y158.176 E2.30827
G1 X135.293 Y158.375 E2.34582
G1 X135.131 Y158.438 E2.3587
G1 X134.79 Y158.556 E2.38544
G1 X134.454 Y158.658 E2.41145
G1 X134.212 Y158.723 E2.43002
G1 X134.212 Y158.722 E2.4301
G1 X134.111 Y158.748 E2.43782
G1 X133.736 Y158.831 E2.46628
G1 X133.489 Y158.875 E2.48488
G1 X133.396 Y158.883 E2.49179
G1 X133.397 Y158.889 E2.49224
G1 X133.045 Y158.939 E2.51859
G1 X132.794 Y158.966 E2.53729
G1 X132.401 Y158.987 E2.56646
G1 X132.305 Y158.994 E2.57359
G1 X131.957 Y159 E2.59938
G1 X131.706 Y158.996 E2.61798
G1 X131.595 Y158.985 E2.62625
G1 X131.595 Y158.991 E2.62669
G1 X131.345 Y158.977 E2.64525
G1 X131.226 Y158.96 E2.65415
G1 X131.225 Y158.967 E2.65468
G1 X130.857 Y158.927 E2.68211
G1 X130.516 Y158.877 E2.70764
G1 X130.142 Y158.807 E2.73584
G1 X129.896 Y158.751 E2.75453
G1 X129.804 Y158.721 E2.7617
G1 X129.802 Y158.727 E2.76217
G1 X129.453 Y158.632 E2.78898
G1 X129.216 Y158.559 E2.80735
G1 X129.1 Y158.517 E2.81649
G1 X129.099 Y158.52 E2.81673
G1 X128.752 Y158.394 E2.84408
G1 X128.518 Y158.299 E2.8628
G1 X128.519 Y158.296 E2.86303
G1 X128.421 Y158.258 E2.87082
G1 X128.098 Y158.11 E2.89715
G1 X127.871 Y157.997 E2.91594
G1 X127.774 Y157.938 E2.92435
G1 X127.771 Y157.944 E2.92485
G1 X127.44 Y157.759 E2.95294
G1 X127.15 Y157.58 E2.9782
G1 X126.944 Y157.445 E2.99645
G1 X126.92 Y157.43 E2.99854
G1 X126.548 Y157.16 E3.03261
G1 X126.267 Y156.937 E3.05919
G1 X125.996 Y156.704 E3.08567
G1 X125.813 Y156.536 E3.10408
G1 X125.815 Y156.534 E3.10429
G1 X125.718 Y156.446 E3.11399
G1 X125.47 Y156.193 E3.14024
G1 X125.3 Y156.008 E3.15886
G1 X125.308 Y156 E3.1597
G1 X125.216 Y155.915 E3.16898
G1 X125.056 Y155.725 E3.18739
G1 X124.993 Y155.641 E3.19517
G1 X124.99 Y155.643 E3.19544
G1 X124.777 Y155.368 E3.22121
G1 X124.632 Y155.168 E3.23952
G1 X124.563 Y155.069 E3.24846
G1 X124.354 Y154.747 E3.2769
G1 X124.228 Y154.535 E3.29518
G1 X124.231 Y154.533 E3.29544
G1 X124.179 Y154.451 E3.30264
G1 X124.003 Y154.127 E3.32996
G1 X123.892 Y153.904 E3.34842
G1 X123.895 Y153.902 E3.34869
G1 X123.838 Y153.791 E3.35793
G1 X123.737 Y153.562 E3.37648
G1 X123.745 Y153.559 E3.37711
G1 X123.694 Y153.466 E3.38497
G1 X123.603 Y153.238 E3.40316
G1 X123.604 Y153.238 E3.40324
G1 X123.563 Y153.133 E3.41159
G1 X123.445 Y152.791 E3.4384
G1 X123.372 Y152.554 E3.45677
G1 X123.38 Y152.552 E3.45738
G1 X123.334 Y152.43 E3.46705
G1 X123.272 Y152.192 E3.48527
G1 X123.273 Y152.192 E3.48534
G1 X123.25 Y152.102 E3.49223
G1 X123.171 Y151.741 E3.51961
G1 X123.127 Y151.497 E3.53798
G1 X123.128 Y151.497 E3.53806
G1 X123.109 Y151.391 E3.54604
G1 X123.061 Y151.039 E3.57236
G1 X123.035 Y150.785 E3.59128
G1 X123.004 Y150.286 E3.62833
G1 X123.001 Y150.037 E3.64678
G1 X123.007 Y150.037 E3.64722
G1 X123 Y149.955 E3.65332
G1 X123.004 Y149.707 E3.6717
G1 X123.012 Y149.589 E3.68047
G1 X123.009 Y149.589 E3.68069
G1 X123.035 Y149.215 E3.70847
G1 X123.034 Y149.215 E3.70854
G1 X123.071 Y148.865 E3.73462
G1 X123.106 Y148.617 E3.75318
G1 X123.129 Y148.516 E3.76086
G1 X123.124 Y148.515 E3.76123
G1 X123.168 Y148.269 E3.77975
G1 X123.169 Y148.269 E3.77983
G1 X123.193 Y148.144 E3.78926
G1 X123.275 Y147.792 E3.81604
G1 X123.366 Y147.461 E3.84148
G1 X123.438 Y147.225 E3.85976
G1 X123.484 Y147.111 E3.86887
G1 X123.477 Y147.109 E3.86941
G1 X123.607 Y146.751 E3.89763
G1 X123.7 Y146.521 E3.91601
G1 X123.742 Y146.435 E3.92311
G1 X123.738 Y146.433 E3.92344
G1 X123.892 Y146.093 E3.9511
G1 X124.003 Y145.871 E3.96949
G1 X124.06 Y145.778 E3.97757
G1 X124.054 Y145.775 E3.97807
G1 X124.234 Y145.454 E4.00534
G1 X124.418 Y145.152 E4.03154
G1 X124.556 Y144.942 E4.05016
G1 X124.624 Y144.851 E4.05858
G1 X124.621 Y144.849 E4.05885
G1 X124.764 Y144.649 E4.07707
G1 X124.844 Y144.547 E4.08667
G1 X124.842 Y144.545 E4.08688
G1 X125.048 Y144.284 E4.11152
G1 X125.207 Y144.094 E4.12988
G1 X125.311 Y143.998 E4.14037
G1 X125.302 Y143.989 E4.14131
G1 X125.473 Y143.804 E4.15998
G1 X125.478 Y143.808 E4.16045
G1 X125.557 Y143.715 E4.16949
G1 X125.795 Y143.481 E4.19422
G1 X125.974 Y143.314 E4.21236
G0 F900 X126.383 Y143.752
G1 F1200 X126.471 Y143.683 E4.22065
G1 X126.468 Y143.679 E4.22102
G1 X126.717 Y143.471 E4.24506
G1 X126.913 Y143.317 E4.26353
G1 X126.913 Y143.318 E4.26361
G1 X126.986 Y143.261 E4.27047
G1 X127.259 Y143.066 E4.29533
G1 X127.551 Y142.875 E4.32119
G1 X127.766 Y142.746 E4.33976
G1 X127.767 Y142.747 E4.33987
G1 X127.836 Y142.705 E4.34585
G1 X128.14 Y142.54 E4.37149
G1 X128.367 Y142.428 E4.39024
G1 X128.37 Y142.435 E4.39081
G1 X128.447 Y142.388 E4.39749
G1 X128.674 Y142.287 E4.4159
G1 X128.675 Y142.288 E4.41601
G1 X128.734 Y142.261 E4.42081
G1 X128.967 Y142.165 E4.43949
G1 X129.072 Y142.133 E4.44762
G1 X129.07 Y142.127 E4.44809
G1 X129.306 Y142.044 E4.46663
G1 X129.306 Y142.045 E4.4667
G1 X129.392 Y142.015 E4.47345
G1 X129.701 Y141.922 E4.49736
G1 X129.943 Y141.857 E4.51593
G1 X129.943 Y141.858 E4.516
G1 X130.023 Y141.837 E4.52213
G1 X130.37 Y141.76 E4.54847
G1 X130.617 Y141.716 E4.56706
G1 X130.69 Y141.709 E4.5725
G1 X130.689 Y141.704 E4.57287
G1 X130.939 Y141.668 E4.59159
G1 X130.939 Y141.669 E4.59166
G1 X131.019 Y141.658 E4.59765
G1 X131.384 Y141.622 E4.62483
G1 X131.63 Y141.609 E4.64308
G1 X131.63 Y141.611 E4.64323
G1 X131.707 Y141.605 E4.64895
G1 X131.958 Y141.6 E4.66755
G1 X132.052 Y141.601 E4.67452
G1 X132.372 Y141.609 E4.69824
G1 X132.715 Y141.63 E4.7237
G1 X133.066 Y141.668 E4.74986
G1 X133.379 Y141.716 E4.77333
G1 X133.626 Y141.76 E4.79192
G1 X133.729 Y141.78 E4.79969
G1 X133.975 Y141.836 E4.81839
G1 X133.973 Y141.843 E4.81893
G1 X134.044 Y141.852 E4.82423
G1 X134.283 Y141.915 E4.84255
G1 X134.376 Y141.952 E4.84996
G1 X134.378 Y141.945 E4.8505
G1 X134.69 Y142.043 E4.87474
G1 X135.016 Y142.159 E4.90038
G1 X135.333 Y142.289 E4.92576
G1 X135.632 Y142.426 E4.95013
G1 X135.939 Y142.581 E4.97562
G1 X136.159 Y142.702 E4.99422
G1 X136.158 Y142.703 E4.99433
G1 X136.245 Y142.751 E5.00169
G1 X136.52 Y142.92 E5.02561
G1 X136.804 Y143.111 E5.05097
G1 X136.805 Y143.11 E5.05107
G1 X137.087 Y143.318 E5.07704
G1 X137.088 Y143.317 E5.07714
G1 X137.343 Y143.519 E5.10125
G1 X137.532 Y143.679 E5.1196
G1 X137.532 Y143.68 E5.11967
G1 X137.602 Y143.74 E5.12651
G1 X137.854 Y143.975 E5.15204
G1 X138.085 Y144.209 E5.1764
G1 X138.324 Y144.471 E5.20268
G1 X138.485 Y144.663 E5.22125
G1 X138.686 Y144.917 E5.24525
G1 X138.685 Y144.918 E5.24535
G1 X138.743 Y144.991 E5.25226
G1 X138.939 Y145.266 E5.27729
G1 X139.075 Y145.472 E5.29558
G1 X139.073 Y145.473 E5.29574
G1 X139.127 Y145.554 E5.30296
G1 X139.3 Y145.845 E5.32804
G1 X139.419 Y146.064 E5.34651
G1 X139.413 Y146.067 E5.34701
G1 X139.457 Y146.134 E5.35295
G1 X139.616 Y146.456 E5.37956
G1 X139.74 Y146.74 E5.40252
G1 X139.833 Y146.969 E5.42084
G1 X139.832 Y146.97 E5.42094
G1 X139.87 Y147.066 E5.42859
G1 X139.953 Y147.3 E5.44699
G1 X139.951 Y147.301 E5.44716
G1 X139.983 Y147.388 E5.45403
G1 X140.078 Y147.698 E5.47805
G1 X140.143 Y147.939 E5.49655
G1 X140.22 Y148.273 E5.52195
G1 X140.24 Y148.372 E5.52943
G1 X140.284 Y148.617 E5.54787
G1 X140.283 Y148.617 E5.54795
G1 X140.297 Y148.692 E5.5536
G1 X140.345 Y149.038 E5.57949
G1 X140.369 Y149.284 E5.5978
G1 X140.368 Y149.284 E5.59788
G1 X140.377 Y149.377 E5.6048
G1 X140.391 Y149.624 E5.62313
G1 X140.389 Y149.624 E5.62328
G1 X140.395 Y149.709 E5.62959
G1 X140.4 Y150.033 E5.6536
G1 X140.396 Y150.284 E5.67221
G1 X140.389 Y150.379 E5.67926
G1 X140.392 Y150.379 E5.67949
G1 X140.365 Y150.764 E5.70809
G1 X140.334 Y151.053 E5.72962
G1 X140.299 Y151.3 E5.74811
G1 X140.278 Y151.379 E5.75417
G1 X140.285 Y151.38 E5.75469
G1 X140.223 Y151.715 E5.77993
G1 X140.146 Y152.052 E5.80555
G1 X140.061 Y152.364 E5.82951
G1 X139.989 Y152.6 E5.84779
G1 X139.952 Y152.688 E5.85487
G1 X139.958 Y152.69 E5.85534
G1 X139.872 Y152.932 E5.87437
G1 X139.711 Y153.323 E5.9057
G1 X139.713 Y153.324 E5.90587
G1 X139.571 Y153.639 E5.93147
G1 X139.46 Y153.861 E5.94986
G1 X139.415 Y153.933 E5.95615
G1 X139.42 Y153.936 E5.95659
G1 X139.252 Y154.237 E5.98213
G1 X139.081 Y154.518 E6.0065
G1 X138.943 Y154.728 E6.02512
G1 X138.889 Y154.801 E6.03185
G1 X138.891 Y154.802 E6.03202
G1 X138.685 Y155.083 E6.05784
G1 X138.686 Y155.084 E6.05794
G1 X138.491 Y155.331 E6.08126
G1 X138.332 Y155.521 E6.09962
G1 X138.25 Y155.597 E6.1079
G1 X138.257 Y155.603 E6.10859
G1 X138.086 Y155.788 E6.12725
G1 X138.083 Y155.785 E6.12757
G1 X138.02 Y155.859 E6.13477
G1 X137.796 Y156.081 E6.15814
G1 X137.617 Y156.248 E6.17628
G1 X137.529 Y156.317 E6.18456
G1 X137.532 Y156.321 E6.18494
G1 X137.283 Y156.529 E6.20898
G1 X137.087 Y156.683 E6.22745
G1 X137.087 Y156.682 E6.22752
G1 X137.014 Y156.739 E6.23438
G1 X136.741 Y156.934 E6.25924
G1 X136.449 Y157.125 E6.2851
G1 X136.234 Y157.254 E6.30368
G1 X136.233 Y157.253 E6.30378
G1 X136.164 Y157.295 E6.30977
G1 X135.86 Y157.46 E6.3354
G1 X135.633 Y157.572 E6.35416
G1 X135.628 Y157.562 E6.35498
G1 X135.524 Y157.624 E6.36396
G1 X134.931 Y157.872 E6.41158
G1 X134.707 Y157.951 E6.42919
G1 X134.613 Y157.983 E6.43654
G1 X134.299 Y158.078 E6.46085
G1 X134.057 Y158.143 E6.47942
G1 X134.057 Y158.142 E6.47949
G1 X133.977 Y158.163 E6.48562
G1 X133.63 Y158.24 E6.51196
G1 X133.383 Y158.284 E6.53055
G1 X133.31 Y158.291 E6.53599
G1 X133.311 Y158.296 E6.53636
G1 X133.061 Y158.332 E6.55508
G1 X133.061 Y158.331 E6.55515
G1 X132.981 Y158.342 E6.56114
G1 X132.616 Y158.378 E6.58832
G1 X132.37 Y158.391 E6.60657
G1 X132.37 Y158.389 E6.60672
G1 X132.293 Y158.395 E6.61244
G1 X131.967 Y158.4 E6.6366
G1 X131.716 Y158.396 E6.6552
G1 X131.629 Y158.386 E6.66169
G1 X131.629 Y158.392 E6.66214
G1 X131.379 Y158.378 E6.68069
G1 X131.286 Y158.36 E6.68771
G1 X131.285 Y158.37 E6.68845
G1 X130.943 Y158.334 E6.71394
G1 X130.621 Y158.286 E6.73806
G1 X130.275 Y158.222 E6.76413
G1 X130.029 Y158.166 E6.78283
G1 X129.956 Y158.142 E6.78852
G1 X129.955 Y158.146 E6.78883
G1 X129.63 Y158.059 E6.81376
G1 X129.393 Y157.986 E6.83213
G1 X129.301 Y157.952 E6.8394
G1 X129.3 Y157.954 E6.83957
G1 X128.978 Y157.838 E6.86493
G1 X128.744 Y157.743 E6.88364
G1 X128.745 Y157.741 E6.88381
G1 X128.667 Y157.711 E6.89
G1 X128.365 Y157.573 E6.9146
G1 X128.138 Y157.46 E6.93339
G1 X128.063 Y157.413 E6.93995
G1 X128.06 Y157.418 E6.94038
G1 X127.84 Y157.297 E6.95899
G1 X127.752 Y157.246 E6.96653
G1 X127.479 Y157.078 E6.99028
G1 X127.273 Y156.943 E7.00853
G1 X127.187 Y156.885 E7.01622
G1 X126.918 Y156.688 E7.04092
G1 X126.656 Y156.481 E7.06566
G1 X126.402 Y156.262 E7.09052
G1 X126.219 Y156.094 E7.10892
G1 X126.22 Y156.093 E7.10903
G1 X126.144 Y156.023 E7.11669
G1 X125.912 Y155.787 E7.14121
G1 X125.742 Y155.602 E7.15982
G1 X125.748 Y155.596 E7.16045
G1 X125.675 Y155.529 E7.1678
G1 X125.465 Y155.272 E7.19239
