;FLAVOR:Marlin
;TIME:4313
;Filament used: 2.74212m
;Layer height: 0.16
;MINX:129.525
;MINY:131.224
;MINZ:0.3
;MAXX:171.373
;MAXY:168.778
;MAXZ:39.66
;Generated with Cura_SteamEngine 4.6.0
M140 S60
M105
M190 S60
M104 S200
M105
M109 S200
M82 ;absolute extrusion mode
G28 ; home all axes
 M117 Purge extruder
 G92 E0 ; reset extruder
 G1 Z1.0 F3000 ; move z up little to prevent scratching of surface
 G1 X2 Y20 Z0.3 F5000.0 ; move to start-line position
 G1 X2 Y200.0 Z0.3 F1500.0 E15 ; draw 1st line
 G1 X2 Y200.0 Z0.4 F5000.0 ; move to side a little
 G1 X2 Y20 Z0.4 F1500.0 E30 ; draw 2nd line
 G92 E0 ; reset extruder
 G1 Z1.0 F3000 ; move z up little to prevent scratching of surface
G92 E0
G92 E0
G1 F1500 E-2
;LAYER_COUNT:247
;LAYER:0
M107
G0 F12000 X132.909 Y136.255 Z0.3
;TYPE:SKIRT
G1 F1500 E0
G1 F1200 X133.821 Y135.458 E0.06949
G1 X133.937 Y135.364 E0.07806
G1 X134.907 Y134.633 E0.14774
G1 X135.119 Y134.492 E0.16235
G1 X136.049 Y133.891 E0.22588
G1 X136.264 Y133.769 E0.24006
G1 X137.244 Y133.232 E0.30418
G1 X137.489 Y133.116 E0.31973
G1 X138.484 Y132.662 E0.38248
G1 X138.709 Y132.574 E0.39634
G1 X139.763 Y132.183 E0.46084
G1 X140.02 Y132.104 E0.47626
G1 X140.02 Y132.105 E0.47632
G1 X141.069 Y131.799 E0.53901
G1 X141.308 Y131.743 E0.5531
G1 X142.406 Y131.509 E0.61751
G1 X142.64 Y131.473 E0.63109
G1 X142.64 Y131.472 E0.63115
G1 X143.756 Y131.318 E0.69579
G1 X144.007 Y131.297 E0.71024
G1 X145.119 Y131.226 E0.77417
G1 X145.355 Y131.224 E0.78771
G1 X146.481 Y131.233 E0.85231
G1 X146.728 Y131.249 E0.86651
G1 X147.842 Y131.339 E0.93064
G1 X148.076 Y131.371 E0.94419
G1 X148.076 Y131.37 E0.94424
G1 X149.191 Y131.542 E1.00897
G1 X149.437 Y131.595 E1.02341
G1 X150.52 Y131.843 E1.08715
G1 X150.747 Y131.909 E1.10072
G1 X151.826 Y132.24 E1.16547
G1 X152.017 Y132.309 E1.17712
G1 X152.058 Y132.326 E1.17967
G1 X153.099 Y132.732 E1.24378
G1 X153.332 Y132.838 E1.25846
G1 X154.332 Y133.313 E1.32198
G1 X154.58 Y133.45 E1.33824
G1 X155.518 Y133.981 E1.40008
G1 X155.694 Y134.093 E1.41205
G1 X155.734 Y134.122 E1.41488
G1 X156.657 Y134.738 E1.47855
G1 X156.848 Y134.881 E1.49224
G1 X157.735 Y135.572 E1.55675
G1 X157.932 Y135.744 E1.57175
G1 X158.852 Y136.582 E1.64315
G1 X158.912 Y136.644 E1.6481
G1 X158.92 Y136.653 E1.64879
G1 X159.699 Y137.467 E1.71343
G1 X159.798 Y137.579 E1.72201
G1 X160.571 Y138.514 E1.79161
G1 X160.713 Y138.706 E1.80531
G1 X161.366 Y139.624 E1.86995
G1 X161.492 Y139.824 E1.88351
G1 X162.077 Y140.787 E1.94816
G1 X162.207 Y141.033 E1.96412
G1 X162.702 Y141.999 E2.0264
G1 X162.766 Y142.136 E2.03507
G1 X163.239 Y143.253 E2.10467
G1 X163.329 Y143.506 E2.12007
G1 X163.682 Y144.544 E2.18298
G1 X163.746 Y144.772 E2.19657
G1 X164.031 Y145.861 E2.26115
G1 X164.079 Y146.097 E2.27497
G1 X164.283 Y147.204 E2.33955
G1 X164.313 Y147.441 E2.35326
G1 X164.314 Y147.441 E2.35331
G1 X164.437 Y148.559 E2.41784
G1 X164.449 Y148.797 E2.43152
G1 X164.45 Y148.797 E2.43157
G1 X164.492 Y149.922 E2.49616
G1 X164.492 Y150.074 E2.50488
G1 X164.448 Y151.287 E2.57452
G1 X164.437 Y151.437 E2.58315
G1 X164.305 Y152.645 E2.65287
G1 X164.283 Y152.793 E2.66146
G1 X164.064 Y153.988 E2.73116
G1 X164.052 Y153.986 E2.73186
G1 X164.032 Y154.139 E2.74071
G1 X163.725 Y155.313 E2.81033
G1 X163.683 Y155.453 E2.81872
G1 X163.294 Y156.602 E2.88832
G1 X163.24 Y156.744 E2.89703
G1 X162.767 Y157.863 E2.96674
G1 X162.704 Y157.998 E2.97528
G1 X162.152 Y159.079 E3.04492
G1 X162.079 Y159.21 E3.05353
G1 X161.451 Y160.247 E3.12308
G1 X161.368 Y160.373 E3.13174
G1 X160.665 Y161.363 E3.2014
G1 X160.573 Y161.483 E3.21008
G1 X159.8 Y162.419 E3.27973
G1 X159.701 Y162.531 E3.2883
G1 X158.862 Y163.409 E3.35798
G1 X158.754 Y163.514 E3.36662
G1 X157.854 Y164.328 E3.43624
G1 X157.74 Y164.424 E3.44479
G1 X156.784 Y165.171 E3.5144
G1 X156.66 Y165.26 E3.52316
G1 X155.524 Y166.015 E3.60142
G1 X154.469 Y166.616 E3.67108
G1 X154.333 Y166.686 E3.67985
G1 X153.103 Y167.266 E3.75788
G1 X151.971 Y167.709 E3.82762
G1 X151.827 Y167.759 E3.83637
G1 X150.667 Y168.117 E3.90602
G1 X150.525 Y168.155 E3.91445
G1 X149.344 Y168.429 E3.98401
G1 X149.192 Y168.449 E3.9928
G1 X149.193 Y168.458 E3.99332
G1 X147.991 Y168.644 E4.06311
G1 X147.843 Y168.661 E4.07166
G1 X146.633 Y168.76 E4.14131
G1 X146.483 Y168.767 E4.14992
G1 X145.269 Y168.778 E4.21958
G1 X145.119 Y168.774 E4.22819
G1 X143.909 Y168.697 E4.29775
G1 X143.759 Y168.682 E4.3064
G1 X142.556 Y168.517 E4.37607
G1 X142.407 Y168.491 E4.38474
G1 X141.217 Y168.238 E4.45455
G1 X141.071 Y168.201 E4.46319
G1 X139.766 Y167.818 E4.54122
G1 X138.626 Y167.397 E4.61094
G1 X138.486 Y167.339 E4.61964
G1 X137.382 Y166.837 E4.68922
G1 X137.25 Y166.761 E4.69796
G1 X137.246 Y166.768 E4.69842
G1 X136.053 Y166.11 E4.77659
G1 X135.033 Y165.454 E4.84617
G1 X134.911 Y165.369 E4.8547
G1 X133.939 Y164.64 E4.92441
G1 X133.812 Y164.536 E4.93382
G1 X132.846 Y163.684 E5.00772
G1 X132.723 Y163.567 E5.01746
G1 X132.339 Y163.155 E5.04978
G1 X132.217 Y162.994 E5.06137
G1 X132.056 Y162.76 E5.07766
G1 X131.822 Y162.311 E5.10671
G1 X131.744 Y162.102 E5.11951
G1 X131.64 Y161.709 E5.14283
G1 X131.614 Y161.303 E5.16618
G1 X131.669 Y160.9 E5.18951
G1 X131.739 Y160.666 E5.20353
G1 X131.78 Y160.554 E5.21037
G1 X131.957 Y160.188 E5.23369
G1 X132.201 Y159.864 E5.25696
G1 X132.505 Y159.593 E5.28033
G1 X132.855 Y159.387 E5.30363
G1 X133.162 Y159.272 E5.32244
G1 X133.56 Y159.188 E5.34578
G1 X133.773 Y159.175 E5.35802
G1 X134.263 Y159.171 E5.38613
G1 X134.309 Y159.17 E5.38877
G1 X135.121 Y159.181 E5.43537
G1 X135.433 Y159.209 E5.45334
G1 X135.685 Y159.251 E5.468
G1 X136.141 Y159.382 E5.49522
G1 X136.201 Y159.407 E5.49895
G1 X136.372 Y159.488 E5.5098
G1 X136.669 Y159.645 E5.52908
G1 X137.04 Y159.895 E5.55474
G1 X137.216 Y160.044 E5.56797
G1 X137.441 Y160.224 E5.58451
G1 X138.058 Y160.707 E5.62946
G1 X138.876 Y161.248 E5.68573
G1 X139.059 Y161.352 E5.69781
G1 X139.059 Y161.351 E5.69786
G1 X139.704 Y161.711 E5.74024
G1 X140.572 Y162.117 E5.79522
G1 X140.777 Y162.197 E5.80785
G1 X141.561 Y162.492 E5.85591
G1 X141.692 Y162.534 E5.8638
G1 X142.496 Y162.763 E5.91176
G1 X142.704 Y162.814 E5.92405
G1 X143.428 Y162.963 E5.96646
G1 X143.884 Y163.033 E5.99293
G1 X144.423 Y163.098 E6.02408
G1 X144.882 Y163.135 E6.0505
G1 X145.35 Y163.156 E6.07738
G1 X145.916 Y163.16 E6.10985
G1 X146.166 Y163.153 E6.1242
G1 X146.927 Y163.105 E6.16795
G1 X147.13 Y163.085 E6.17965
G1 X147.925 Y162.974 E6.2257
G1 X148.085 Y162.945 E6.23503
G1 X148.298 Y162.901 E6.24751
G1 X148.832 Y162.784 E6.27888
G1 X149.821 Y162.501 E6.3379
G1 X150.806 Y162.132 E6.39825
G1 X151.721 Y161.707 E6.45613
G1 X151.928 Y161.593 E6.46969
G1 X152.566 Y161.231 E6.51177
G1 X152.777 Y161.094 E6.52621
G1 X153.37 Y160.7 E6.56706
G1 X153.564 Y160.552 E6.58105
G1 X154.126 Y160.116 E6.62186
G1 X154.915 Y159.406 E6.68276
G1 X155.009 Y159.314 E6.69031
G1 X155.586 Y158.699 E6.73869
G1 X155.833 Y158.408 E6.76059
G1 X156.204 Y157.941 E6.79481
G1 X156.461 Y157.588 E6.81986
G1 X156.759 Y157.148 E6.85035
G1 X157.023 Y156.723 E6.87906
G1 X157.257 Y156.311 E6.90624
G1 X157.497 Y155.85 E6.93606
G1 X157.633 Y155.57 E6.95392
G1 X157.635 Y155.567 E6.95413
G1 X157.694 Y155.435 E6.96242
G1 X157.989 Y154.74 E7.00574
G1 X157.992 Y154.728 E7.00645
G1 X158.263 Y153.955 E7.05345
G1 X158.312 Y153.795 E7.06305
G1 X158.504 Y153.082 E7.10541
G1 X158.709 Y152.048 E7.16589
G1 X158.828 Y151.033 E7.22452
G1 X158.866 Y149.999 E7.28389
G1 X158.829 Y149.025 E7.33981
G1 X158.825 Y148.983 E7.34223
G1 X158.724 Y148.075 E7.39465
G1 X158.716 Y148.029 E7.39733
G1 X158.551 Y147.137 E7.44937
G1 X158.295 Y146.165 E7.50704
G1 X158.2 Y145.867 E7.52499
G1 X157.989 Y145.275 E7.56104
G1 X157.975 Y145.236 E7.56342
G1 X157.865 Y144.966 E7.58015
G1 X157.616 Y144.403 E7.61547
G1 X157.413 Y143.989 E7.64192
G1 X157.159 Y143.518 E7.67263
G1 X156.914 Y143.102 E7.70032
G1 X156.651 Y142.692 E7.72827
G1 X156.35 Y142.261 E7.75843
G1 X156.346 Y142.255 E7.75885
G1 X156.106 Y141.935 E7.7818
G1 X156.098 Y141.926 E7.78249
G1 X155.723 Y141.464 E7.81663
G1 X155.705 Y141.443 E7.81821
G1 X155.493 Y141.205 E7.8365
G1 X155.002 Y140.686 E7.87749
G1 X154.992 Y140.675 E7.87834
G1 X154.797 Y140.488 E7.89384
G1 X154.279 Y140.017 E7.93401
G1 X154.258 Y140 E7.93556
G1 X153.46 Y139.369 E7.99393
G1 X153.427 Y139.346 E7.99624
G1 X152.568 Y138.774 E8.05545
G1 X151.714 Y138.294 E8.11166
G1 X151.672 Y138.274 E8.11433
G1 X150.847 Y137.888 E8.16658
G1 X150.83 Y137.881 E8.16764
G1 X149.95 Y137.546 E8.22166
G1 X149.916 Y137.535 E8.22371
G1 X149.026 Y137.268 E8.27702
G1 X148.982 Y137.258 E8.27961
G1 X148.057 Y137.053 E8.33397
G1 X148.041 Y137.05 E8.3349
G1 X147.77 Y137.005 E8.35067
G1 X147.115 Y136.917 E8.38858
G1 X147.107 Y136.916 E8.38905
G1 X146.758 Y136.884 E8.40915
G1 X146.181 Y136.85 E8.44231
G1 X146.177 Y136.85 E8.44254
G1 X145.736 Y136.843 E8.46785
G1 X145.184 Y136.853 E8.49952
G1 X144.684 Y136.882 E8.52826
G1 X144.228 Y136.926 E8.55454
G1 X143.69 Y136.997 E8.58568
G1 X143.671 Y137 E8.58678
G1 X143.282 Y137.068 E8.60944
G1 X142.703 Y137.19 E8.64339
G1 X142.68 Y137.195 E8.64474
G1 X142.329 Y137.285 E8.66553
G1 X141.686 Y137.471 E8.70393
G1 X141.425 Y137.56 E8.71975
G1 X140.712 Y137.831 E8.76352
G1 X139.813 Y138.239 E8.82016
G1 X139.79 Y138.252 E8.82167
G1 X138.912 Y138.736 E8.87919
G1 X138.071 Y139.287 E8.93688
G1 X137.993 Y139.35 E8.94263
G1 X137.969 Y139.369 E8.94439
G1 X137.075 Y140.064 E9.00936
G1 X136.797 Y140.256 E9.02874
G1 X136.504 Y140.438 E9.04853
G1 X135.964 Y140.675 E9.08236
G1 X135.834 Y140.711 E9.0901
G1 X135.245 Y140.786 E9.12417
G1 X135.113 Y140.784 E9.13174
G1 X134.244 Y140.797 E9.18161
G1 X133.783 Y140.788 E9.20806
G1 X133.379 Y140.74 E9.2314
G1 X132.992 Y140.614 E9.25475
G1 X132.667 Y140.435 E9.27604
G1 X132.566 Y140.367 E9.28303
G1 X132.253 Y140.108 E9.30634
G1 X131.996 Y139.793 E9.32966
G1 X131.806 Y139.434 E9.35297
G1 X131.69 Y139.044 E9.37631
G1 X131.652 Y138.639 E9.39965
G1 X131.669 Y138.387 E9.41414
G1 X131.698 Y138.161 E9.42721
G1 X131.789 Y137.764 E9.45058
G1 X131.956 Y137.394 E9.47387
G1 X132.11 Y137.162 E9.48985
G1 X132.305 Y136.915 E9.5079
G1 X132.715 Y136.448 E9.54356
G1 X132.909 Y136.255 E9.55926
G0 F12000 X133.212 Y136.602
G1 F1200 X134.214 Y135.731 E9.63543
G1 X135.184 Y135 E9.70512
G1 X135.354 Y134.887 E9.71683
G1 X136.299 Y134.277 E9.78136
G1 X136.476 Y134.177 E9.79302
G1 X137.465 Y133.635 E9.85773
G1 X137.651 Y133.547 E9.86953
G1 X138.675 Y133.08 E9.93411
G1 X138.866 Y133.006 E9.94586
G1 X139.923 Y132.614 E10.01054
G1 X140.126 Y132.552 E10.02272
G1 X141.198 Y132.24 E10.08677
G1 X141.399 Y132.195 E10.09859
G1 X141.399 Y132.194 E10.09865
G1 X142.502 Y131.959 E10.16335
G1 X142.703 Y131.928 E10.17502
G1 X143.819 Y131.774 E10.23966
G1 X144.023 Y131.758 E10.2514
G1 X144.023 Y131.757 E10.25145
G1 X145.148 Y131.685 E10.31613
G1 X145.375 Y131.684 E10.32916
G1 X146.477 Y131.693 E10.39238
G1 X146.611 Y131.7 E10.40008
G1 X146.681 Y131.706 E10.40411
G1 X147.805 Y131.797 E10.46881
G1 X148.022 Y131.827 E10.48138
G1 X148.022 Y131.828 E10.48144
G1 X149.12 Y131.997 E10.54518
G1 X149.354 Y132.048 E10.55892
G1 X150.417 Y132.292 E10.62149
G1 X150.637 Y132.357 E10.63465
G1 X151.691 Y132.68 E10.6979
G1 X151.919 Y132.766 E10.71188
G1 X152.932 Y133.161 E10.77426
G1 X153.115 Y133.245 E10.78582
G1 X153.115 Y133.244 E10.78587
G1 X154.135 Y133.728 E10.85065
G1 X154.336 Y133.84 E10.86385
G1 X155.291 Y134.381 E10.92682
G1 X155.494 Y134.514 E10.94075
G1 X156.401 Y135.12 E11.00333
G1 X156.58 Y135.255 E11.01619
G1 X157.452 Y135.935 E11.07964
G1 X157.609 Y136.072 E11.09159
G1 X158.521 Y136.902 E11.16234
G1 X158.581 Y136.964 E11.16729
G1 X158.587 Y136.971 E11.16782
G1 X159.444 Y137.872 E11.23916
G1 X160.217 Y138.807 E11.30877
G1 X160.338 Y138.973 E11.32055
G1 X160.991 Y139.891 E11.38519
G1 X161.112 Y140.084 E11.39826
G1 X161.684 Y141.026 E11.46149
G1 X161.779 Y141.206 E11.47317
G1 X162.343 Y142.315 E11.54455
G1 X162.816 Y143.432 E11.61414
G1 X162.884 Y143.627 E11.62599
G1 X163.246 Y144.692 E11.69053
G1 X163.301 Y144.888 E11.70221
G1 X163.586 Y145.977 E11.76679
G1 X163.63 Y146.198 E11.77972
G1 X163.629 Y146.198 E11.77978
G1 X163.849 Y147.415 E11.85073
G1 X163.858 Y147.503 E11.85581
G1 X163.857 Y147.503 E11.85587
G1 X163.979 Y148.609 E11.91971
G1 X163.99 Y148.814 E11.93149
G1 X164.032 Y150.057 E12.00284
G1 X163.979 Y151.387 E12.07921
G1 X163.831 Y152.71 E12.15559
G1 X163.612 Y153.905 E12.22529
G1 X163.602 Y153.903 E12.22588
G1 X163.587 Y154.022 E12.23276
G1 X163.247 Y155.305 E12.30891
G1 X162.816 Y156.565 E12.38531
G1 X162.294 Y157.789 E12.46166
G1 X161.685 Y158.972 E12.538
G1 X160.993 Y160.107 E12.61426
G1 X160.218 Y161.19 E12.69067
G1 X159.368 Y162.213 E12.76698
G1 X158.445 Y163.173 E12.84339
G1 X157.456 Y164.062 E12.91968
G1 X156.405 Y164.878 E12.99603
G1 X155.296 Y165.615 E13.07242
G1 X154.136 Y166.271 E13.14888
G1 X152.936 Y166.837 E13.225
G1 X151.692 Y167.319 E13.30155
G1 X150.421 Y167.707 E13.37779
G1 X149.24 Y167.981 E13.44735
G1 X149.121 Y167.995 E13.45422
G1 X149.122 Y168.003 E13.45469
G1 X147.805 Y168.203 E13.53111
G1 X146.479 Y168.307 E13.60742
G1 X145.148 Y168.315 E13.68379
G1 X143.821 Y168.226 E13.7601
G1 X142.502 Y168.041 E13.83651
G1 X141.199 Y167.759 E13.913
G1 X139.925 Y167.386 E13.98916
G1 X138.677 Y166.921 E14.06558
G1 X137.573 Y166.419 E14.13516
G1 X137.47 Y166.358 E14.14202
G1 X137.466 Y166.365 E14.14249
G1 X136.302 Y165.723 E14.21875
G1 X135.187 Y165.001 E14.29497
G1 X134.215 Y164.272 E14.36468
G1 X134.116 Y164.191 E14.37202
G1 X133.054 Y163.248 E14.4535
G1 X132.691 Y162.859 E14.48403
G1 X132.596 Y162.734 E14.49303
G1 X132.435 Y162.5 E14.50933
G1 X132.253 Y162.15 E14.53196
G1 X132.175 Y161.941 E14.54476
G1 X132.087 Y161.593 E14.56536
G1 X132.079 Y161.235 E14.5859
G1 X132.171 Y160.825 E14.61001
G1 X132.212 Y160.713 E14.61685
G1 X132.372 Y160.392 E14.63743
G1 X132.599 Y160.114 E14.65802
G1 X132.881 Y159.894 E14.67854
G1 X133.236 Y159.732 E14.70093
G1 X133.302 Y159.711 E14.70491
G1 X133.777 Y159.635 E14.7325
G1 X134.267 Y159.631 E14.76062
G1 X134.303 Y159.63 E14.76268
G1 X135.115 Y159.641 E14.80928
G1 X135.358 Y159.663 E14.82328
G1 X135.61 Y159.705 E14.83793
G1 X135.964 Y159.807 E14.85907
G1 X136.024 Y159.832 E14.8628
G1 X136.157 Y159.895 E14.87124
G1 X136.454 Y160.052 E14.89052
G1 X136.742 Y160.246 E14.91044
G1 X136.906 Y160.385 E14.92277
G1 X137.157 Y160.586 E14.94122
G1 X137.792 Y161.083 E14.98749
G1 X138.629 Y161.637 E15.04508
G1 X139.474 Y162.11 E15.10064
G1 X140.402 Y162.544 E15.15941
G1 X140.615 Y162.627 E15.17253
G1 X141.403 Y162.923 E15.22082
G1 X141.595 Y162.986 E15.23242
G1 X142.366 Y163.205 E15.2784
G1 X142.613 Y163.266 E15.293
G1 X143.346 Y163.416 E15.33593
G1 X143.348 Y163.416 E15.33604
G1 X143.819 Y163.489 E15.36339
G1 X144.356 Y163.554 E15.39442
G1 X144.859 Y163.594 E15.42337
G1 X145.373 Y163.616 E15.45289
G1 X145.926 Y163.62 E15.48462
G1 X146.179 Y163.613 E15.49914
G1 X146.972 Y163.563 E15.54473
G1 X147.191 Y163.542 E15.55735
G1 X147.99 Y163.43 E15.60364
G1 X148.191 Y163.394 E15.61535
G1 X148.374 Y163.356 E15.62608
G1 X148.374 Y163.355 E15.62613
G1 X148.945 Y163.23 E15.65967
G1 X149.971 Y162.936 E15.7209
G1 X150.982 Y162.558 E15.78283
G1 X151.932 Y162.116 E15.84295
G1 X152.155 Y161.993 E15.85756
G1 X152.812 Y161.621 E15.90088
G1 X153.028 Y161.48 E15.91567
G1 X153.639 Y161.074 E15.95776
G1 X154.42 Y160.471 E16.01437
G1 X155.34 Y159.635 E16.0857
G1 X155.344 Y159.629 E16.08611
G1 X155.929 Y159.005 E16.13518
G1 X156.201 Y158.684 E16.15932
G1 X156.568 Y158.223 E16.19313
G1 X156.827 Y157.868 E16.21834
G1 X157.156 Y157.381 E16.25206
G1 X157.415 Y156.965 E16.28018
G1 X157.661 Y156.53 E16.30885
G1 X157.902 Y156.069 E16.33869
G1 X158.047 Y155.77 E16.35776
G1 X158.051 Y155.764 E16.35817
G1 X158.105 Y155.642 E16.36583
G1 X158.353 Y155.068 E16.4017
G1 X158.421 Y154.898 E16.41221
G1 X158.426 Y154.88 E16.41328
G1 X158.693 Y154.118 E16.4596
G1 X158.751 Y153.929 E16.47095
G1 X158.753 Y153.924 E16.47126
G1 X158.954 Y153.18 E16.51547
G1 X159.163 Y152.126 E16.57712
G1 X159.287 Y151.067 E16.6383
G1 X159.327 Y149.999 E16.69961
G1 X159.283 Y148.938 E16.76054
G1 X159.169 Y147.95 E16.8176
G1 X159 Y147.035 E16.87099
G1 X158.734 Y146.024 E16.93097
G1 X158.649 Y145.757 E16.94704
G1 X158.415 Y145.1 E16.98706
