;FLAVOR:Marlin
;TIME:26938
;Filament used: 55.8169m
;Layer height: 0.3
;MINX:42.918
;MINY:84.228
;MINZ:0.45
;MAXX:257.086
;MAXY:222.395
;MAXZ:34.95
;LINEARADVANCEPROCESSED
;Generated with Cura_SteamEngine 4.6.0
M140 S80
M105
M190 S80
M104 S240
M105
M109 S240
M82 ;absolute extrusion mode
G28 ; home all axes
M420 S1 ; enable bed mesh
M117 Purge extruder
G92 E0 ; reset extruder
G1 Z1.0 F3000 ; move z up little to prevent scratching of surface
G1 X2 Y20 Z0.3 F5000.0 ; move to start-line position
G1 X2 Y200.0 Z0.3 F1500.0 E15 ; draw 1st line
G1 X2 Y200.0 Z0.4 F5000.0 ; move to side a little
G1 X2 Y20 Z0.4 F1500.0 E30 ; draw 2nd line
G92 E0 ; reset extruder
G1 Z1.0 F3000 ; move z up little to prevent scratching of surface
G92 E0
G92 E0
G1 F1500 E-2
;LAYER_COUNT:116
M900 K0.050000 T0 ;added by LinearAdvanceSettingPlugin
;LAYER:0
M107
G0 F6000 X53.799 Y87.934 Z0.45
;TYPE:SKIRT
G1 F1500 E0
G1 F1200 X56.519 Y88.188 E0.56264
G1 X59.217 Y88.364 E1.11949
G1 X61.98 Y88.465 E1.68893
G1 X64.166 Y88.489 E2.13918
G1 X225.833 Y88.49 E35.43558
G1 X236.375 Y88.49 E37.60677
G1 X239.157 Y88.451 E38.1798
G1 X241.887 Y88.335 E38.74257
G1 X244.589 Y88.143 E39.30047
G1 X247.192 Y87.887 E39.83916
G1 X247.829 Y87.816 E39.97116
G1 X248.364 Y87.797 E40.08142
G1 X248.895 Y87.857 E40.19148
G1 X249.412 Y87.996 E40.30174
G1 X249.903 Y88.21 E40.41205
G1 X250.356 Y88.495 E40.52228
G1 X250.634 Y88.723 E40.59633
G1 X250.945 Y89.005 E40.68279
G1 X250.979 Y89.036 E40.69227
G1 X251.488 Y89.513 E40.83594
G1 X251.519 Y89.544 E40.84497
G1 X251.868 Y89.95 E40.95523
G1 X252.153 Y90.403 E41.06546
G1 X252.367 Y90.893 E41.17559
G1 X252.506 Y91.41 E41.28585
G1 X252.566 Y91.942 E41.39611
G1 X252.546 Y92.487 E41.50843
G1 X252.438 Y93.43 E41.70392
G1 X252.167 Y96.129 E42.26259
G1 X251.971 Y98.86 E42.8265
G1 X251.853 Y101.585 E43.38826
G1 X251.811 Y104.455 E43.97942
G1 X251.81 Y194.292 E62.48195
G1 X251.849 Y197.074 E63.05498
G1 X251.965 Y199.802 E63.61734
G1 X252.156 Y202.495 E64.17337
G1 X252.429 Y205.245 E64.74254
G1 X252.772 Y207.924 E65.2988
G1 X253.197 Y210.634 E65.86376
G1 X253.323 Y211.311 E66.00559
G1 X253.522 Y212.459 E66.24555
G1 X253.575 Y213.005 E66.35853
G1 X253.577 Y213.174 E66.39334
G1 X253.574 Y213.411 E66.44216
G1 X253.56 Y213.687 E66.49908
G1 X253.538 Y213.932 E66.54974
G1 X253.435 Y214.52 E66.67269
G1 X253.343 Y214.871 E66.74742
G1 X253.216 Y215.264 E66.83248
G1 X253.133 Y215.475 E66.87918
G1 X252.964 Y215.835 E66.96109
G1 X252.85 Y216.046 E67.01048
G1 X252.65 Y216.373 E67.08943
G1 X252.529 Y216.549 E67.13341
G1 X252.245 Y216.91 E67.22802
G1 X252.116 Y217.054 E67.26783
G1 X251.87 Y217.303 E67.33992
G1 X251.615 Y217.537 E67.4112
G1 X251.167 Y217.887 E67.52829
G1 X250.999 Y217.998 E67.56976
G1 X250.636 Y218.209 E67.65624
G1 X250.376 Y218.34 E67.7162
G1 X249.917 Y218.532 E67.81867
G1 X249.67 Y218.616 E67.8724
G1 X249.225 Y218.736 E67.96733
G1 X248.982 Y218.785 E68.01838
G1 X248.599 Y218.842 E68.09813
G1 X248.283 Y218.862 E68.16335
G1 X247.141 Y218.885 E68.3986
G1 X52.718 Y218.885 E108.44131
G1 X51.943 Y218.878 E108.60093
G1 X51.647 Y218.863 E108.66197
G1 X51.375 Y218.838 E108.71823
G1 X50.92 Y218.766 E108.81311
G1 X50.652 Y218.706 E108.86967
G1 X50.281 Y218.602 E108.94902
G1 X50.078 Y218.533 E108.99318
G1 X49.649 Y218.356 E109.08876
G1 X49.458 Y218.262 E109.13261
G1 X49.176 Y218.107 E109.19888
G1 X48.997 Y217.998 E109.24205
G1 X48.545 Y217.671 E109.35695
G1 X48.316 Y217.477 E109.41876
G1 X47.98 Y217.154 E109.51475
G1 X47.75 Y216.901 E109.58517
G1 X47.368 Y216.397 E109.71542
G1 X47.202 Y216.133 E109.77965
G1 X47.009 Y215.785 E109.8616
G1 X46.966 Y215.696 E109.88196
G1 X46.803 Y215.3 E109.97016
G1 X46.677 Y214.933 E110.05008
G1 X46.549 Y214.453 E110.15239
G1 X46.507 Y214.237 E110.19771
G1 X46.451 Y213.824 E110.28355
G1 X46.436 Y213.566 E110.33678
G1 X46.427 Y213.149 E110.42268
G1 X46.448 Y212.676 E110.52019
G1 X46.449 Y212.667 E110.52206
G1 X46.485 Y212.418 E110.57387
G1 X46.623 Y211.663 E110.73195
G1 X47.076 Y208.965 E111.2954
G1 X47.451 Y206.257 E111.85845
G1 X47.747 Y203.574 E112.41438
G1 X47.969 Y200.852 E112.97686
G1 X48.115 Y198.12 E113.54034
G1 X48.189 Y194.359 E114.31509
G1 X48.189 Y104.08 E132.90865
G1 X48.15 Y101.297 E133.48189
G1 X48.034 Y98.569 E134.04424
G1 X47.842 Y95.864 E134.60276
G1 X47.584 Y93.24 E135.14579
G1 X47.498 Y92.47 E135.30537
G1 X47.479 Y91.936 E135.41542
G1 X47.539 Y91.404 E135.52568
G1 X47.678 Y90.887 E135.63594
G1 X47.892 Y90.397 E135.74606
G1 X48.177 Y89.943 E135.85647
G1 X48.413 Y89.657 E135.93283
G1 X48.573 Y89.482 E135.98167
G1 X48.979 Y89.05 E136.10377
G1 X49.213 Y88.811 E136.17266
G1 X49.242 Y88.782 E136.18111
G1 X49.648 Y88.433 E136.29137
G1 X50.101 Y88.148 E136.4016
G1 X50.591 Y87.934 E136.51172
G1 X51.108 Y87.795 E136.62198
G1 X51.64 Y87.735 E136.73225
G1 X52.171 Y87.754 E136.84168
G1 X53.799 Y87.934 E137.17902
G0 F6000 X53.921 Y86.77
G1 F1200 X56.598 Y87.02 E137.73276
G1 X59.301 Y87.196 E138.29064
G1 X61.995 Y87.295 E138.84587
G1 X64.179 Y87.319 E139.2957
G1 X225.833 Y87.32 E172.58942
G1 X236.359 Y87.32 E174.75732
G1 X239.126 Y87.281 E175.32726
G1 X241.825 Y87.166 E175.88364
G1 X244.501 Y86.977 E176.43616
G1 X247.026 Y86.728 E176.95872
G1 X247.699 Y86.653 E177.09819
G1 X248.315 Y86.625 E177.22519
G1 X248.929 Y86.676 E177.35208
G1 X249.532 Y86.807 E177.47917
G1 X250.112 Y87.014 E177.606
G1 X250.661 Y87.295 E177.73302
G1 X251.169 Y87.644 E177.85996
G1 X251.42 Y87.856 E177.92763
G1 X251.776 Y88.18 E178.02677
G1 X252.315 Y88.686 E178.17903
G1 X252.346 Y88.717 E178.18806
G1 X252.753 Y89.18 E178.31502
G1 X253.096 Y89.692 E178.44195
G1 X253.371 Y90.244 E178.56896
G1 X253.571 Y90.827 E178.69591
G1 X253.695 Y91.431 E178.8229
G1 X253.739 Y92.046 E178.94989
G1 X253.708 Y92.62 E179.06828
G1 X253.6 Y93.563 E179.26376
G1 X253.334 Y96.224 E179.81455
G1 X253.139 Y98.925 E180.37228
G1 X253.022 Y101.652 E180.93444
G1 X252.981 Y104.402 E181.50089
G1 X252.98 Y194.276 E200.01104
G1 X253.019 Y197.042 E200.58077
G1 X253.134 Y199.742 E201.13736
G1 X253.323 Y202.404 E201.68699
G1 X253.589 Y205.088 E202.24249
G1 X253.931 Y207.764 E202.79811
G1 X254.352 Y210.446 E203.35725
G1 X254.484 Y211.157 E203.50619
G1 X254.675 Y212.259 E203.73654
G1 X254.744 Y212.965 E203.88264
G1 X254.747 Y213.189 E203.92877
G1 X254.744 Y213.426 E203.97759
G1 X254.725 Y213.791 E204.05287
G1 X254.703 Y214.036 E204.10353
G1 X254.567 Y214.817 E204.2668
G1 X254.475 Y215.168 E204.34153
G1 X254.316 Y215.663 E204.44861
G1 X254.218 Y215.914 E204.50411
G1 X253.993 Y216.391 E204.61273
G1 X253.879 Y216.602 E204.66212
G1 X253.614 Y217.036 E204.76685
G1 X253.493 Y217.212 E204.81084
G1 X253.117 Y217.691 E204.93626
G1 X252.988 Y217.835 E204.97608
G1 X252.661 Y218.165 E205.07176
G1 X252.406 Y218.399 E205.14304
G1 X251.812 Y218.863 E205.29828
G1 X251.644 Y218.974 E205.33975
G1 X251.163 Y219.253 E205.45427
G1 X250.903 Y219.384 E205.51424
G1 X250.294 Y219.64 E205.65029
G1 X250.047 Y219.724 E205.70403
G1 X249.456 Y219.883 E205.83008
G1 X249.213 Y219.932 E205.88113
G1 X248.726 Y220.005 E205.98255
G1 X248.307 Y220.032 E206.06903
G1 X247.141 Y220.055 E206.30922
G1 X52.707 Y220.055 E246.3542
G1 X51.932 Y220.048 E246.51382
G1 X51.54 Y220.028 E246.59466
G1 X51.268 Y220.003 E246.65092
G1 X50.664 Y219.908 E246.77685
G1 X50.396 Y219.848 E246.83341
G1 X49.905 Y219.71 E246.93845
G1 X49.702 Y219.641 E246.98261
G1 X49.132 Y219.405 E247.10967
G1 X48.941 Y219.311 E247.15351
G1 X48.568 Y219.106 E247.24117
G1 X48.389 Y218.997 E247.28434
G1 X47.788 Y218.564 E247.4369
G1 X47.559 Y218.37 E247.49871
G1 X47.115 Y217.941 E247.62587
G1 X46.885 Y217.688 E247.69629
G1 X46.378 Y217.02 E247.869
G1 X46.212 Y216.756 E247.93323
G1 X45.956 Y216.294 E248.04202
G1 X45.913 Y216.205 E248.06237
G1 X45.697 Y215.68 E248.17929
G1 X45.571 Y215.313 E248.25921
G1 X45.4 Y214.677 E248.39485
G1 X45.358 Y214.461 E248.44017
G1 X45.286 Y213.933 E248.54992
G1 X45.266 Y213.592 E248.62027
G1 X45.257 Y213.175 E248.70618
G1 X45.285 Y212.547 E248.83565
G1 X45.286 Y212.538 E248.83751
G1 X45.334 Y212.208 E248.90619
G1 X45.472 Y211.453 E249.06427
G1 X45.914 Y208.82 E249.61414
G1 X46.291 Y206.109 E250.17786
G1 X46.583 Y203.457 E250.72736
G1 X46.803 Y200.767 E251.28323
G1 X46.945 Y198.093 E251.83474
G1 X47.019 Y194.317 E252.61258
G1 X47.019 Y104.096 E271.19419
G1 X46.98 Y101.329 E271.76413
G1 X46.865 Y98.629 E272.32072
G1 X46.675 Y95.951 E272.87366
G1 X46.426 Y93.416 E273.39827
G1 X46.335 Y92.6 E273.56737
G1 X46.307 Y91.984 E273.69437
G1 X46.358 Y91.37 E273.82127
G1 X46.489 Y90.767 E273.94836
G1 X46.696 Y90.187 E274.07519
G1 X46.977 Y89.638 E274.20221
G1 X47.326 Y89.13 E274.32915
G1 X47.548 Y88.868 E274.39988
G1 X47.72 Y88.681 E274.4522
G1 X48.143 Y88.231 E274.5794
G1 X48.413 Y87.957 E274.65863
G1 X48.415 Y87.955 E274.65921
G1 X48.878 Y87.548 E274.78618
G1 X49.39 Y87.205 E274.9131
G1 X49.942 Y86.93 E275.04012
G1 X50.525 Y86.73 E275.16706
G1 X51.129 Y86.606 E275.29405
G1 X51.744 Y86.562 E275.42104
G1 X52.3 Y86.591 E275.5357
G1 X53.921 Y86.77 E275.87159
G0 F6000 X54.036 Y85.606
G1 F1200 X56.713 Y85.856 E276.42533
G1 X59.349 Y86.028 E276.96939
G1 X62.012 Y86.125 E277.51822
G1 X64.192 Y86.149 E277.96723
G1 X225.833 Y86.15 E311.25827
G1 X236.413 Y86.15 E313.43729
G1 X239.061 Y86.113 E313.98272
G1 X241.762 Y85.998 E314.53951
G1 X244.412 Y85.81 E315.08667
G1 X246.897 Y85.565 E315.60095
G1 X247.57 Y85.49 E315.74042
G1 X248.257 Y85.454 E315.88211
G1 X248.944 Y85.498 E316.02389
G1 X249.621 Y85.621 E316.1656
G1 X250.279 Y85.821 E316.30725
G1 X250.91 Y86.097 E316.44909
G1 X251.504 Y86.444 E316.59078
G1 X252.206 Y86.99 E316.77394
G1 X252.573 Y87.323 E316.876
G1 X253.143 Y87.858 E317.03701
G1 X253.174 Y87.889 E317.04604
G1 X253.631 Y88.403 E317.18769
G1 X254.026 Y88.967 E317.32951
G1 X254.353 Y89.573 E317.47133
G1 X254.607 Y90.212 E317.61295
G1 X254.786 Y90.877 E317.75479
G1 X254.886 Y91.558 E317.89655
G1 X254.907 Y92.246 E318.03831
G1 X254.871 Y92.753 E318.14299
G1 X254.763 Y93.696 E318.33848
G1 X254.5 Y96.319 E318.88141
G1 X254.305 Y99.024 E319.43997
G1 X254.192 Y101.651 E319.98152
G1 X254.151 Y104.402 E320.54817
G1 X254.15 Y194.343 E339.07212
G1 X254.187 Y196.977 E339.61466
G1 X254.302 Y199.679 E340.17166
G1 X254.489 Y202.311 E340.71511
G1 X254.752 Y204.964 E341.26419
G1 X255.091 Y207.615 E341.81463
G1 X255.5 Y210.22 E342.35771
G1 X255.637 Y210.957 E342.51211
G1 X255.828 Y212.059 E342.74245
G1 X255.913 Y212.925 E342.92167
G1 X255.917 Y213.204 E342.97914
G1 X255.914 Y213.441 E343.02795
G1 X255.89 Y213.896 E343.12179
G1 X255.868 Y214.141 E343.17246
G1 X255.698 Y215.113 E343.37568
G1 X255.606 Y215.464 E343.45042
G1 X255.416 Y216.061 E343.57945
G1 X255.303 Y216.353 E343.64393
G1 X255.023 Y216.947 E343.77918
G1 X254.909 Y217.158 E343.82858
G1 X254.578 Y217.699 E343.9592
G1 X254.457 Y217.875 E344.00319
G1 X253.988 Y218.471 E344.15939
G1 X253.859 Y218.615 E344.19921
G1 X253.452 Y219.028 E344.31863
G1 X253.197 Y219.262 E344.38991
G1 X252.457 Y219.839 E344.58317
G1 X252.289 Y219.95 E344.62464
G1 X251.689 Y220.298 E344.7675
G1 X251.429 Y220.429 E344.82746
G1 X250.671 Y220.747 E344.99676
G1 X250.424 Y220.831 E345.05049
G1 X249.687 Y221.03 E345.20771
G1 X249.444 Y221.079 E345.25877
G1 X248.853 Y221.168 E345.38186
G1 X248.331 Y221.202 E345.4896
G1 X247.141 Y221.225 E345.73473
G1 X52.696 Y221.225 E385.78198
G1 X51.921 Y221.218 E385.9416
G1 X51.433 Y221.193 E386.04224
G1 X51.161 Y221.168 E386.0985
G1 X50.409 Y221.05 E386.25527
G1 X50.141 Y220.99 E386.31183
G1 X49.528 Y220.818 E386.44296
G1 X49.325 Y220.749 E386.48712
G1 X48.616 Y220.455 E386.6452
G1 X48.425 Y220.361 E386.68904
G1 X47.959 Y220.106 E386.79845
G1 X47.78 Y219.997 E386.84161
G1 X47.032 Y219.457 E387.03162
G1 X46.803 Y219.263 E387.09343
G1 X46.249 Y218.728 E387.25205
G1 X46.019 Y218.475 E387.32247
G1 X45.586 Y217.939 E387.46438
G1 X45.387 Y217.643 E387.53784
G1 X45.221 Y217.379 E387.60207
G1 X44.902 Y216.803 E387.73768
G1 X44.859 Y216.714 E387.75804
G1 X44.59 Y216.06 E387.90368
G1 X44.464 Y215.693 E387.9836
G1 X44.252 Y214.9 E388.15266
G1 X44.21 Y214.684 E388.19798
G1 X44.121 Y214.042 E388.33147
G1 X44.096 Y213.617 E388.41915
G1 X44.087 Y213.2 E388.50505
G1 X44.122 Y212.418 E388.66627
G1 X44.123 Y212.409 E388.66814
G1 X44.184 Y211.998 E388.75371
G1 X44.311 Y211.303 E388.89922
G1 X44.759 Y208.635 E389.45641
G1 X45.129 Y205.969 E390.01075
G1 X45.419 Y203.336 E390.55632
G1 X45.633 Y200.716 E391.09772
G1 X45.776 Y198.038 E391.65006
G1 X45.849 Y194.295 E392.4211
G1 X45.849 Y104.029 E411.01198
G1 X45.812 Y101.394 E411.55473
G1 X45.697 Y98.692 E412.11173
G1 X45.511 Y96.076 E412.65188
G1 X45.255 Y93.469 E413.19139
G1 X45.173 Y92.73 E413.34452
G1 X45.136 Y92.042 E413.48643
G1 X45.18 Y91.356 E413.628
G1 X45.302 Y90.679 E413.76968
G1 X45.503 Y90.02 E413.91158
G1 X45.778 Y89.39 E414.05316
G1 X46.125 Y88.795 E414.19502
G1 X46.684 Y88.079 E414.3821
G1 X46.867 Y87.88 E414.43778
G1 X47.307 Y87.413 E414.56993
G1 X47.585 Y87.129 E414.65178
G1 X47.587 Y87.127 E414.65236
G1 X48.101 Y86.67 E414.79402
G1 X48.665 Y86.275 E414.93583
G1 X49.271 Y85.948 E415.07765
G1 X49.91 Y85.694 E415.21927
G1 X50.575 Y85.515 E415.36111
G1 X51.256 Y85.415 E415.50287
G1 X51.944 Y85.394 E415.64464
G1 X52.428 Y85.428 E415.74456
G1 X54.036 Y85.606 E416.07777
G0 F6000 X54.157 Y84.442
G1 F1200 X56.792 Y84.688 E416.62282
G1 X59.432 Y84.86 E417.1677
G1 X62.029 Y84.955 E417.70293
G1 X64.205 Y84.979 E418.15112
G1 X225.833 Y84.98 E451.43948
G1 X236.397 Y84.98 E453.61521
G1 X239.029 Y84.943 E454.15734
G1 X241.7 Y84.829 E454.70795
G1 X244.291 Y84.646 E455.24291
G1 X246.847 Y84.394 E455.77189
G1 X247.44 Y84.328 E455.89478
G1 X248.192 Y84.284 E456.04992
G1 X248.944 Y84.32 E456.20498
G1 X249.688 Y84.436 E456.36006
G1 X250.416 Y84.63 E456.51523
G1 X251.119 Y84.901 E456.6704
G1 X251.79 Y85.244 E456.82561
G1 X252.42 Y85.656 E456.98064
G1 X252.992 Y86.123 E457.13273
G1 X253.37 Y86.466 E457.23785
G1 X253.97 Y87.031 E457.40759
G1 X254.001 Y87.062 E457.41662
G1 X254.504 Y87.622 E457.57165
G1 X254.946 Y88.232 E457.7268
G1 X255.32 Y88.886 E457.88196
G1 X255.623 Y89.576 E458.03717
G1 X255.851 Y90.293 E458.19213
G1 X256.001 Y91.031 E458.34723
G1 X256.073 Y91.781 E458.50241
G1 X256.033 Y92.886 E458.73014
G1 X255.936 Y93.729 E458.90491
G1 X255.664 Y96.446 E459.46729
G1 X255.474 Y99.089 E460.01304
G1 X255.362 Y101.682 E460.54758
G1 X255.321 Y104.439 E461.11547
G1 X255.32 Y194.343 E479.6318
G1 X255.357 Y196.945 E480.16775
G1 X255.471 Y199.617 E480.71857
G1 X255.655 Y202.222 E481.25642
G1 X255.912 Y204.806 E481.79124
G1 X256.251 Y207.461 E482.34249
G1 X256.655 Y210.034 E482.87891
G1 X256.79 Y210.757 E483.03039
G1 X256.981 Y211.859 E483.26074
G1 X257.083 Y212.884 E483.47289
G1 X257.086 Y213.219 E483.54189
G1 X257.083 Y213.456 E483.5907
G1 X257.056 Y214.001 E483.70309
G1 X257.034 Y214.246 E483.75375
G1 X256.926 Y214.991 E483.90879
G1 X256.83 Y215.41 E483.99732
G1 X256.738 Y215.761 E484.07206
G1 X256.516 Y216.46 E484.22311
G1 X256.387 Y216.791 E484.29627
G1 X256.052 Y217.504 E484.45852
G1 X255.938 Y217.715 E484.50791
G1 X255.543 Y218.362 E484.66404
G1 X255.422 Y218.538 E484.70803
G1 X254.86 Y219.252 E484.89517
G1 X254.731 Y219.396 E484.93499
G1 X254.243 Y219.89 E485.078
G1 X253.988 Y220.124 E485.14928
G1 X253.102 Y220.816 E485.38082
G1 X252.934 Y220.927 E485.42229
G1 X252.215 Y221.343 E485.59338
G1 X251.955 Y221.474 E485.65334
G1 X251.047 Y221.855 E485.85614
G1 X250.8 Y221.939 E485.90987
G1 X249.918 Y222.177 E486.09803
G1 X249.675 Y222.226 E486.14908
G1 X248.98 Y222.331 E486.29384
G1 X248.355 Y222.371 E486.42283
G1 X247.141 Y222.395 E486.67291
G1 X52.686 Y222.395 E526.72222
G1 X51.911 Y222.388 E526.88184
G1 X51.326 Y222.358 E527.00248
G1 X51.054 Y222.333 E527.05874
G1 X50.153 Y222.192 E527.24656
G1 X49.885 Y222.132 E527.30313
G1 X49.152 Y221.926 E527.45994
G1 X48.949 Y221.857 E527.5041
G1 X48.099 Y221.505 E527.69358
G1 X47.908 Y221.411 E527.73742
G1 X47.351 Y221.105 E527.86831
G1 X47.172 Y220.996 E527.91148
G1 X46.276 Y220.35 E528.13898
G1 X46.047 Y220.156 E528.20079
G1 X45.383 Y219.515 E528.39087
G1 X45.153 Y219.262 E528.46129
G1 X44.677 Y218.678 E528.61646
G1 X44.397 Y218.266 E528.71906
G1 X44.231 Y218.002 E528.78328
G1 X43.849 Y217.312 E528.94572
