;FLAVOR:Marlin
;TIME:17328
;Filament used: 39.802m
;Layer height: 0.3
;MINX:43.679
;MINY:83.679
;MINZ:0.45
;MAXX:256.321
;MAXY:221.321
;MAXZ:14.85
;LINEARADVANCEPROCESSED
;Generated with Cura_SteamEngine 4.6.0
M140 S80
M105
M190 S80
M104 S240
M105
M109 S240
M82 ;absolute extrusion mode
G28 ; home all axes
M420 S1 ; enable bed mesh
M117 Purge extruder
G92 E0 ; reset extruder
G1 Z1.0 F3000 ; move z up little to prevent scratching of surface
G1 X2 Y20 Z0.3 F5000.0 ; move to start-line position
G1 X2 Y200.0 Z0.3 F1500.0 E15 ; draw 1st line
G1 X2 Y200.0 Z0.4 F5000.0 ; move to side a little
G1 X2 Y20 Z0.4 F1500.0 E30 ; draw 2nd line
G92 E0 ; reset extruder
G1 Z1.0 F3000 ; move z up little to prevent scratching of surface
G92 E0
G92 E0
G1 F1500 E-2
;LAYER_COUNT:49
M900 K0.050000 T0 ;added by LinearAdvanceSettingPlugin
;LAYER:0
M107
G0 F6000 X249.801 Y87.247 Z0.45
;TYPE:SKIRT
G1 F1500 E0
G1 F1200 X250.321 Y87.373 E0.1102
G1 X250.817 Y87.576 E0.22058
G1 X251.277 Y87.85 E0.33085
G1 X251.69 Y88.189 E0.44089
G1 X252.049 Y88.586 E0.55113
G1 X252.345 Y89.032 E0.66138
G1 X252.571 Y89.517 E0.77158
G1 X252.722 Y90.031 E0.88192
G1 X252.801 Y90.683 E1.01718
G1 X252.811 Y91.104 E1.10391
G1 X252.81 Y118.45 E6.736
G1 X252.811 Y212.267 E26.05824
G1 X252.811 Y212.314 E26.06792
G1 X252.801 Y213.079 E26.22549
G1 X252.773 Y213.477 E26.30767
G1 X252.744 Y213.709 E26.35582
G1 X252.598 Y214.366 E26.49443
G1 X252.535 Y214.561 E26.53664
G1 X252.31 Y215.102 E26.65731
G1 X252.211 Y215.294 E26.7018
G1 X251.849 Y215.859 E26.84001
G1 X251.702 Y216.047 E26.88916
G1 X251.268 Y216.511 E27.02001
G1 X251.116 Y216.647 E27.06202
G1 X250.497 Y217.092 E27.21903
G1 X250.233 Y217.242 E27.28156
G1 X249.622 Y217.517 E27.41956
G1 X249.508 Y217.556 E27.44438
G1 X249.075 Y217.675 E27.53686
G1 X248.877 Y217.716 E27.57851
G1 X248.372 Y217.783 E27.68343
G1 X248.073 Y217.8 E27.74511
G1 X247.649 Y217.81 E27.83246
G1 X160.426 Y217.811 E45.79662
G1 X135.654 Y217.81 E50.89857
G1 X134.954 Y217.8 E51.04276
G1 X134.954 Y217.796 E51.04358
G1 X134.469 Y217.76 E51.14375
G1 X133.948 Y217.641 E51.25381
G1 X133.573 Y217.502 E51.33618
G1 X132.95 Y217.231 E51.47611
G1 X131.491 Y216.572 E51.80583
G1 X128.983 Y215.525 E52.36557
G1 X126.456 Y214.549 E52.92349
G1 X126.448 Y214.547 E52.92519
G1 X123.845 Y213.629 E53.49366
G1 X121.279 Y212.805 E54.04872
G1 X118.633 Y212.036 E54.61623
G1 X116.008 Y211.355 E55.17477
G1 X113.338 Y210.74 E55.73907
G1 X110.704 Y210.211 E56.29239
G1 X110.695 Y210.21 E56.29426
G1 X107.953 Y209.741 E56.86719
G1 X105.285 Y209.362 E57.4222
G1 X102.576 Y209.055 E57.98371
G1 X99.85 Y208.824 E58.54716
G1 X97.147 Y208.672 E59.10474
G1 X93.04 Y208.585 E59.95079
G1 X51.43 Y208.585 E68.52065
G1 X50.732 Y208.575 E68.66442
G1 X50.199 Y208.527 E68.77464
G1 X49.679 Y208.401 E68.88484
G1 X49.183 Y208.198 E68.99522
G1 X48.723 Y207.924 E69.10549
G1 X48.31 Y207.585 E69.21554
G1 X47.951 Y207.188 E69.32578
G1 X47.655 Y206.742 E69.43602
G1 X47.429 Y206.257 E69.54622
G1 X47.278 Y205.743 E69.65656
G1 X47.199 Y205.087 E69.79264
G1 X47.189 Y204.658 E69.88102
G1 X47.189 Y116.651 E88.00665
G1 X47.19 Y91.391 E93.20912
G1 X47.2 Y90.73 E93.34527
G1 X47.248 Y90.197 E93.45549
G1 X47.375 Y89.677 E93.56573
G1 X47.578 Y89.182 E93.67592
G1 X47.852 Y88.722 E93.7862
G1 X48.192 Y88.308 E93.89653
G1 X48.589 Y87.95 E94.00663
G1 X49.036 Y87.655 E94.11693
G1 X49.521 Y87.429 E94.22714
G1 X50.034 Y87.278 E94.33727
G1 X50.687 Y87.209 E94.47251
G1 X50.687 Y87.2 E94.47437
G1 X51.109 Y87.19 E94.5613
G1 X95.775 Y87.19 E103.76056
G1 X248.519 Y87.189 E135.21921
G1 X248.57 Y87.189 E135.22971
G1 X249.268 Y87.199 E135.37349
G1 X249.801 Y87.247 E135.48371
G0 F6000 X249.9 Y86.078
G1 F1200 X250.503 Y86.206 E135.61066
G1 X251.084 Y86.411 E135.73756
G1 X251.634 Y86.689 E135.86448
G1 X252.144 Y87.036 E135.99152
G1 X252.604 Y87.446 E136.11843
G1 X253.007 Y87.913 E136.24548
G1 X253.347 Y88.427 E136.3724
G1 X253.617 Y88.981 E136.49933
G1 X253.813 Y89.565 E136.62621
G1 X253.932 Y90.17 E136.7532
G1 X253.97 Y90.65 E136.85237
G1 X253.981 Y91.104 E136.9459
G1 X253.98 Y118.45 E142.57799
G1 X253.981 Y212.267 E161.90023
G1 X253.981 Y212.329 E161.913
G1 X253.971 Y213.094 E162.07057
G1 X253.934 Y213.622 E162.17958
G1 X253.905 Y213.854 E162.22773
G1 X253.712 Y214.726 E162.41167
G1 X253.649 Y214.921 E162.45388
G1 X253.35 Y215.638 E162.61387
G1 X253.251 Y215.83 E162.65836
G1 X252.771 Y216.58 E162.84176
G1 X252.624 Y216.768 E162.89091
G1 X252.049 Y217.383 E163.06431
G1 X251.897 Y217.519 E163.10632
G1 X251.412 Y217.899 E163.23322
G1 X251.075 Y218.109 E163.315
G1 X250.811 Y218.259 E163.37753
G1 X250.001 Y218.624 E163.56051
G1 X249.887 Y218.663 E163.58533
G1 X249.312 Y218.82 E163.70809
G1 X249.114 Y218.861 E163.74973
G1 X248.445 Y218.951 E163.88876
G1 X248.105 Y218.969 E163.95888
G1 X247.649 Y218.98 E164.05283
G1 X160.426 Y218.981 E182.01698
G1 X135.637 Y218.98 E187.12244
G1 X134.937 Y218.97 E187.26663
G1 X134.937 Y218.966 E187.26745
G1 X134.388 Y218.93 E187.38077
G1 X133.783 Y218.811 E187.50776
G1 X133.106 Y218.575 E187.65542
G1 X132.469 Y218.297 E187.79856
G1 X131.041 Y217.652 E188.12128
G1 X128.527 Y216.602 E188.6824
G1 X126.064 Y215.652 E189.2261
G1 X126.059 Y215.65 E189.22721
G1 X123.489 Y214.744 E189.78844
G1 X120.921 Y213.919 E190.34396
G1 X118.32 Y213.163 E190.90182
G1 X115.736 Y212.492 E191.45167
G1 X113.102 Y211.886 E192.00833
G1 X110.494 Y211.362 E192.5562
G1 X107.806 Y210.902 E193.11786
G1 X105.129 Y210.522 E193.67473
G1 X102.451 Y210.219 E194.2298
G1 X99.754 Y209.99 E194.78727
G1 X97.115 Y209.842 E195.33164
G1 X93.016 Y209.755 E196.17605
G1 X51.413 Y209.755 E204.74446
G1 X50.715 Y209.745 E204.88823
G1 X50.1 Y209.696 E205.0153
G1 X49.497 Y209.568 E205.14226
G1 X48.916 Y209.363 E205.26915
G1 X48.366 Y209.085 E205.39607
G1 X47.856 Y208.738 E205.52312
G1 X47.396 Y208.328 E205.65003
G1 X46.993 Y207.861 E205.77707
G1 X46.653 Y207.347 E205.904
G1 X46.383 Y206.793 E206.03093
G1 X46.187 Y206.209 E206.1578
G1 X46.068 Y205.604 E206.28479
G1 X46.03 Y205.119 E206.38499
G1 X46.019 Y204.658 E206.47996
G1 X46.019 Y116.651 E224.60559
G1 X46.021 Y91.373 E229.81176
G1 X46.031 Y90.712 E229.94791
G1 X46.08 Y90.098 E230.07477
G1 X46.208 Y89.495 E230.20173
G1 X46.413 Y88.913 E230.32882
G1 X46.692 Y88.364 E230.45565
G1 X47.04 Y87.854 E230.58281
G1 X47.45 Y87.395 E230.70957
G1 X47.917 Y86.992 E230.83661
G1 X48.431 Y86.652 E230.96354
G1 X48.986 Y86.383 E231.09056
G1 X49.57 Y86.187 E231.21744
G1 X50.175 Y86.068 E231.34443
G1 X50.654 Y86.037 E231.44329
G1 X50.654 Y86.031 E231.44452
G1 X51.109 Y86.02 E231.53826
G1 X95.775 Y86.02 E240.73752
G1 X248.519 Y86.019 E272.19617
G1 X248.587 Y86.019 E272.21017
G1 X249.285 Y86.029 E272.35394
G1 X249.9 Y86.078 E272.48101
G0 F6000 X249.302 Y84.86
G1 F1200 X249.988 Y84.909 E272.62265
G1 X250.664 Y85.038 E272.76439
G1 X251.321 Y85.245 E272.90626
G1 X251.949 Y85.526 E273.04796
G1 X252.54 Y85.879 E273.18974
G1 X253.086 Y86.297 E273.33137
G1 X253.581 Y86.776 E273.47323
G1 X254.016 Y87.309 E273.61493
G1 X254.386 Y87.889 E273.75662
G1 X254.687 Y88.508 E273.89838
G1 X254.914 Y89.157 E274.03998
G1 X255.065 Y89.829 E274.18184
G1 X255.14 Y90.617 E274.34486
G1 X255.151 Y91.104 E274.44519
G1 X255.15 Y118.45 E280.07728
G1 X255.151 Y212.267 E299.39952
G1 X255.14 Y213.109 E299.57295
G1 X255.095 Y213.767 E299.70879
G1 X255.066 Y213.999 E299.75694
G1 X254.941 Y214.676 E299.89873
G1 X254.825 Y215.086 E299.98649
G1 X254.762 Y215.281 E300.02869
G1 X254.39 Y216.174 E300.22793
G1 X254.291 Y216.366 E300.27242
G1 X253.941 Y216.959 E300.41424
G1 X253.693 Y217.301 E300.50125
G1 X253.546 Y217.489 E300.5504
G1 X253.091 Y218.005 E300.69209
G1 X252.829 Y218.255 E300.76667
G1 X252.677 Y218.391 E300.80868
G1 X252.138 Y218.819 E300.95043
G1 X251.653 Y219.127 E301.06876
G1 X251.389 Y219.277 E301.1313
G1 X250.772 Y219.581 E301.27296
G1 X250.266 Y219.77 E301.38421
G1 X249.549 Y219.966 E301.5373
G1 X249.351 Y220.007 E301.57894
G1 X248.518 Y220.119 E301.75205
G1 X248.138 Y220.139 E301.83042
G1 X247.649 Y220.15 E301.93116
G1 X160.426 Y220.151 E319.89531
G1 X135.62 Y220.149 E325.00428
G1 X134.92 Y220.139 E325.14846
G1 X134.92 Y220.135 E325.14928
G1 X134.316 Y220.1 E325.27389
G1 X133.638 Y219.981 E325.41566
G1 X132.979 Y219.784 E325.55732
G1 X132.64 Y219.648 E325.63255
G1 X131.987 Y219.364 E325.77921
G1 X130.531 Y218.707 E326.1082
G1 X128.121 Y217.7 E326.64614
G1 X125.673 Y216.755 E327.18659
G1 X125.669 Y216.754 E327.18744
G1 X123.081 Y215.841 E327.75265
G1 X120.596 Y215.043 E328.29019
G1 X118.016 Y214.294 E328.8435
G1 X115.437 Y213.624 E329.39229
G1 X112.852 Y213.029 E329.93861
G1 X110.276 Y212.512 E330.47974
G1 X107.625 Y212.058 E331.03368
G1 X104.97 Y211.681 E331.58598
G1 X102.365 Y211.386 E332.12592
G1 X99.695 Y211.16 E332.67779
G1 X97.053 Y211.011 E333.2228
G1 X92.991 Y210.925 E334.05958
G1 X51.396 Y210.924 E342.62635
G1 X50.698 Y210.914 E342.77012
G1 X50.012 Y210.865 E342.91177
G1 X49.336 Y210.736 E343.0535
G1 X48.679 Y210.529 E343.19538
G1 X48.051 Y210.248 E343.33707
G1 X47.46 Y209.895 E343.47885
G1 X46.914 Y209.477 E343.62048
G1 X46.419 Y208.998 E343.76234
G1 X45.984 Y208.465 E343.90404
G1 X45.614 Y207.885 E344.04573
G1 X45.313 Y207.266 E344.18749
G1 X45.086 Y206.617 E344.32909
G1 X44.935 Y205.945 E344.47095
G1 X44.86 Y205.151 E344.63521
G1 X44.849 Y204.658 E344.73677
G1 X44.849 Y116.651 E362.8624
G1 X44.851 Y91.355 E368.07228
G1 X44.861 Y90.694 E368.20843
G1 X44.911 Y90.008 E368.35009
G1 X45.041 Y89.332 E368.49187
G1 X45.248 Y88.676 E368.63354
G1 X45.53 Y88.048 E368.77533
G1 X45.882 Y87.457 E368.917
G1 X46.301 Y86.911 E369.05875
G1 X46.78 Y86.417 E369.20047
G1 X47.314 Y85.982 E369.34232
G1 X47.894 Y85.612 E369.48401
G1 X48.513 Y85.312 E369.62568
G1 X49.163 Y85.085 E369.76748
G1 X49.835 Y84.936 E369.90925
G1 X50.621 Y84.872 E370.07166
G1 X50.621 Y84.861 E370.07393
G1 X51.109 Y84.85 E370.17446
G1 X95.775 Y84.85 E379.37372
G1 X248.519 Y84.849 E410.83237
G1 X248.604 Y84.85 E410.84988
G1 X249.302 Y84.86 E410.99365
G0 F6000 X249.319 Y83.69
G1 F1200 X250.07 Y83.74 E411.14866
G1 X250.812 Y83.871 E411.30385
G1 X251.536 Y84.079 E411.45899
G1 X252.233 Y84.362 E411.61393
G1 X252.897 Y84.718 E411.7691
G1 X253.519 Y85.142 E411.92413
G1 X254.093 Y85.63 E412.0793
G1 X254.612 Y86.176 E412.23445
G1 X255.07 Y86.774 E412.38959
G1 X255.462 Y87.417 E412.54469
G1 X255.784 Y88.098 E412.69983
G1 X256.032 Y88.809 E412.85492
G1 X256.203 Y89.543 E413.01014
G1 X256.309 Y90.585 E413.22585
G1 X256.321 Y91.104 E413.33277
G1 X256.32 Y118.45 E418.96486
G1 X256.321 Y212.267 E438.2871
G1 X256.31 Y213.125 E438.46383
G1 X256.256 Y213.912 E438.6263
G1 X256.227 Y214.144 E438.67445
G1 X256.094 Y214.885 E438.8295
G1 X255.938 Y215.445 E438.94923
G1 X255.875 Y215.64 E438.99144
G1 X255.606 Y216.344 E439.14665
G1 X255.43 Y216.711 E439.23048
G1 X255.331 Y216.903 E439.27497
G1 X254.951 Y217.553 E439.43004
G1 X254.614 Y218.021 E439.54882
G1 X254.467 Y218.209 E439.59797
G1 X253.972 Y218.777 E439.75314
G1 X253.609 Y219.126 E439.85686
G1 X253.457 Y219.262 E439.89886
G1 X252.87 Y219.734 E440.05399
G1 X252.231 Y220.144 E440.21036
G1 X251.967 Y220.294 E440.2729
G1 X251.293 Y220.631 E440.4281
G1 X250.645 Y220.877 E440.57085
G1 X249.787 Y221.112 E440.75407
G1 X249.589 Y221.153 E440.79571
G1 X248.59 Y221.286 E441.00328
G1 X248.17 Y221.308 E441.0899
G1 X247.649 Y221.32 E441.19723
G1 X160.426 Y221.321 E459.16139
G1 X135.604 Y221.319 E464.27365
G1 X134.904 Y221.309 E464.41783
G1 X134.904 Y221.305 E464.41866
G1 X134.251 Y221.27 E464.55334
G1 X133.507 Y221.151 E464.70852
G1 X132.781 Y220.953 E464.8635
G1 X132.173 Y220.721 E464.99753
G1 X131.506 Y220.43 E465.14741
G1 X130.094 Y219.792 E465.46653
G1 X127.664 Y218.777 E466.00891
G1 X125.272 Y217.854 E466.53696
G1 X122.725 Y216.956 E467.09318
G1 X120.238 Y216.157 E467.63118
G1 X117.703 Y215.421 E468.17484
G1 X115.165 Y214.762 E468.71489
G1 X112.616 Y214.175 E469.25362
G1 X110.056 Y213.661 E469.79139
G1 X107.433 Y213.212 E470.33947
G1 X104.853 Y212.846 E470.87616
G1 X102.24 Y212.55 E471.41777
G1 X99.601 Y212.326 E471.96324
G1 X96.99 Y212.179 E472.50184
G1 X93.014 Y212.095 E473.32091
G1 X51.379 Y212.094 E481.89592
G1 X50.681 Y212.084 E482.03969
G1 X49.93 Y212.034 E482.19471
G1 X49.188 Y211.903 E482.34989
G1 X48.464 Y211.695 E482.50503
G1 X47.767 Y211.412 E482.65997
G1 X47.103 Y211.056 E482.81514
G1 X46.481 Y210.632 E482.97017
G1 X45.907 Y210.144 E483.12534
G1 X45.388 Y209.598 E483.28049
G1 X44.93 Y209 E483.43563
G1 X44.538 Y208.357 E483.59073
G1 X44.216 Y207.676 E483.74587
G1 X43.968 Y206.965 E483.90096
G1 X43.797 Y206.231 E484.05618
G1 X43.691 Y205.182 E484.27333
G1 X43.679 Y204.658 E484.38128
G1 X43.679 Y116.651 E502.50691
G1 X43.681 Y91.338 E507.72029
G1 X43.691 Y90.677 E507.85644
G1 X43.742 Y89.925 E508.01168
G1 X43.873 Y89.184 E508.16666
G1 X44.081 Y88.46 E508.3218
G1 X44.366 Y87.762 E508.47708
G1 X44.722 Y87.099 E508.63207
G1 X45.147 Y86.477 E508.78722
G1 X45.635 Y85.904 E508.94224
G1 X46.181 Y85.385 E509.09739
G1 X46.78 Y84.928 E509.25256
G1 X47.423 Y84.536 E509.40766
G1 X48.104 Y84.215 E509.56271
G1 X48.816 Y83.968 E509.71793
G1 X49.549 Y83.797 E509.87295
G1 X50.297 Y83.706 E510.02814
G1 X50.589 Y83.696 E510.08832
G1 X50.589 Y83.692 E510.08914
G1 X51.109 Y83.68 E510.19626
G1 X95.775 Y83.68 E519.39553
G1 X248.519 Y83.679 E550.85417
G1 X248.621 Y83.68 E550.87518
G1 X249.319 Y83.69 E551.01895
G1 F1500 E549.01895
;MESH:SwitchCaseLid.stl
G0 F6000 X247.471 Y92.529
;TYPE:WALL-INNER
G1 F1500 E551.01895
G1 F1200 X247.47 Y118.45 E556.35756
G1 X247.471 Y212.47 E575.7216
G1 X171.755 Y212.471 E591.31582
G1 X171.755 Y204.4 E592.97809
G1 X167.773 Y204.399 E593.79821
G1 X136.755 Y204.4 E600.18658
G1 X136.755 Y203.245 E600.42446
G1 X52.529 Y203.245 E617.77136
G1 X52.529 Y116.651 E635.60598
G1 X52.53 Y92.53 E640.57386
G1 X95.775 Y92.53 E649.48045
G1 X247.471 Y92.529 E680.72326
G1 F1500 E678.72326
G0 F6000 X248.641 Y91.359
;TYPE:WALL-OUTER
G1 F1500 E680.72326
G1 F1200 X248.64 Y118.45 E686.30283
G1 X248.641 Y212.989 E705.77377
G1 X248.638 Y213.051 E705.78655
G1 X248.624 Y213.14 E705.80511
G1 X248.601 Y213.215 E705.82126
G1 X248.571 Y213.287 E705.83733
G1 X248.527 Y213.36 E705.85488
G1 X248.481 Y213.421 E705.87062
G1 X248.374 Y213.52 E705.90064
G1 X248.262 Y213.584 E705.92721
G1 X248.177 Y213.615 E705.94584
G1 X248.06 Y213.637 E705.97036
G1 X247.998 Y213.64 E705.98315
G1 X160.426 Y213.641 E724.01918
G1 X135.585 Y213.64 E729.13535
G1 X135.585 Y213.36 E729.19302
G1 X170.585 Y213.36 E736.4015
G1 X170.585 Y205.57 E738.00591
G1 X167.773 Y205.569 E738.58506
G1 X135.585 Y205.57 E745.21439
G1 X135.585 Y204.415 E745.45227
G1 X51.359 Y204.415 E762.79918
G1 X51.359 Y116.651 E780.87476
G1 X51.36 Y91.36 E786.08361
G1 X95.775 Y91.36 E795.23117
G1 X248.641 Y91.359 E826.71495
G1 F1500 E824.71495
G0 F6000 X246.311 Y93.689
;TYPE:SKIN
G1 F1500 E826.71495
G1 F1200 X246.311 Y211.31 E850.93978
G1 X172.915 Y211.311 E866.05617
G1 X172.915 Y203.24 E867.71845
G1 X167.773 Y203.239 E868.77748
G1 X137.915 Y203.24 E874.92693
G1 X137.915 Y202.085 E875.16481
G1 X53.689 Y202.085 E892.51172
G1 X53.689 Y116.651 E910.10742
G1 X53.69 Y93.69 E914.83639
G1 X95.775 Y93.69 E923.50408
G1 X246.311 Y93.689 E954.50797
G1 F1500 E952.50797
G0 F6000 X245.815 Y95.244
G1 F1500 E954.50797
G1 F1200 X244.755 Y94.184 E954.81671
G1 F1500 E952.81671
G0 F6000 X243.101 Y94.184
G1 F1500 E954.81671
G1 F1200 X245.815 Y96.899 E955.60736
G1 F1500 E953.60736
G0 F6000 X245.815 Y98.553
G1 F1500 E955.60736
G1 F1200 X241.446 Y94.184 E956.8799
G1 F1500 E954.8799
G0 F6000 X239.791 Y94.184
G1 F1500 E956.8799
G1 F1200 X245.815 Y100.208 E958.63449
G1 F1500 E956.63449
G0 F6000 X245.815 Y101.862
G1 F1500 E958.63449
G1 F1200 X238.137 Y94.184 E960.87084
G1 F1500 E958.87084
G0 F6000 X236.482 Y94.184
G1 F1500 E960.87084
G1 F1200 X245.815 Y103.517 E963.58923
G1 F1500 E961.58923
G0 F6000 X245.815 Y105.172
G1 F1500 E963.58923
G1 F1200 X234.828 Y94.184 E966.78952
G1 F1500 E964.78952
G0 F6000 X233.173 Y94.184
G1 F1500 E966.78952
G1 F1200 X245.815 Y106.826 E970.47172
G1 F1500 E968.47172
G0 F6000 X245.815 Y108.481
G1 F1500 E970.47172
G1 F1200 X231.518 Y94.184 E974.63596
G1 F1500 E972.63596
G0 F6000 X229.864 Y94.184
G1 F1500 E974.63596
