;FLAVOR:Marlin
;TIME:4120
;Filament used: 6.72376m
;Layer height: 0.3
;MINX:132.257
;MINY:129.16
;MINZ:0.3
;MAXX:191.75
;MAXY:184.816
;MAXZ:39.9
;LINEARADVANCEPROCESSED
;Generated with Cura_SteamEngine 4.6.0
M140 S80
M105
M190 S80
M104 S250
M105
M109 S250
M82 ;absolute extrusion mode
G28 ; home all axes
M420 S1 ; enable bed mesh
M117 Purge extruder
G92 E0 ; reset extruder
G1 Z1.0 F3000 ; move z up little to prevent scratching of surface
G1 X2 Y20 Z0.3 F5000.0 ; move to start-line position
G1 X2 Y200.0 Z0.3 F1500.0 E15 ; draw 1st line
G1 X2 Y200.0 Z0.4 F5000.0 ; move to side a little
G1 X2 Y20 Z0.4 F1500.0 E30 ; draw 2nd line
G92 E0 ; reset extruder
G1 Z1.0 F3000 ; move z up little to prevent scratching of surface
G92 E0
G92 E0
G1 F1500 E-2
;LAYER_COUNT:133
M900 K0.050000 T0 ;added by LinearAdvanceSettingPlugin
;LAYER:0
M107
G0 F6000 X161.779 Y130.981 Z0.3
;TYPE:SKIRT
G1 F1500 E0
G1 F1200 X162.484 Y131.087 E0.07686
G1 X162.733 Y131.151 E0.10458
G1 X163.23 Y131.32 E0.16117
G1 X163.584 Y131.496 E0.20379
G1 X163.803 Y131.621 E0.23097
G1 X164.206 Y131.89 E0.28321
G1 X164.74 Y132.304 E0.35605
G1 X166.955 Y133.97 E0.65485
G1 X169.189 Y135.553 E0.95003
G1 X171.463 Y137.071 E1.24479
G1 X173.775 Y138.521 E1.53901
G1 X176.136 Y139.91 E1.83432
G1 X178.516 Y141.222 E2.12731
G1 X180.954 Y142.476 E2.42287
G1 X183.384 Y143.641 E2.7134
G1 X187.269 Y145.337 E3.1704
G1 X187.611 Y145.51 E3.21172
G1 X187.814 Y145.627 E3.23698
G1 X188.247 Y145.923 E3.29353
G1 X188.518 Y146.164 E3.33262
G1 X188.714 Y146.358 E3.36235
G1 X189.058 Y146.755 E3.41899
G1 X189.216 Y146.986 E3.44916
G1 X189.315 Y147.145 E3.46935
G1 X189.634 Y147.806 E3.54848
G1 X189.711 Y148.021 E3.5731
G1 X189.858 Y148.572 E3.63458
G1 X189.869 Y148.633 E3.64126
G1 X189.923 Y149.172 E3.69966
G1 X189.95 Y150.469 E3.83951
G1 X189.95 Y154.717 E4.29748
G1 X189.939 Y155.427 E4.37403
G1 X189.927 Y155.703 E4.40382
G1 X189.81 Y156.455 E4.48586
G1 X189.748 Y156.684 E4.51144
G1 X189.573 Y157.178 E4.56794
G1 X189.414 Y157.492 E4.60588
G1 X189.285 Y157.718 E4.63394
G1 X189.127 Y157.969 E4.66591
G1 X188.903 Y158.293 E4.70838
G1 X187.356 Y160.616 E5.00927
G1 X185.927 Y162.895 E5.29927
G1 X184.524 Y165.282 E5.59776
G1 X183.205 Y167.678 E5.89262
G1 X181.961 Y170.099 E6.18607
G1 X180.789 Y172.547 E6.47867
G1 X179.674 Y175.057 E6.77476
G1 X178.645 Y177.559 E7.06642
G1 X178.644 Y177.561 E7.06666
G1 X178.139 Y178.897 E7.22064
G1 X178.093 Y178.995 E7.23231
G1 X177.625 Y180.225 E7.37418
G1 X177.408 Y180.688 E7.42931
G1 X177.322 Y180.841 E7.44823
G1 X177.051 Y181.254 E7.50149
G1 X176.608 Y181.743 E7.57262
G1 X176.357 Y181.972 E7.60925
G1 X175.777 Y182.399 E7.6869
G1 X175.719 Y182.433 E7.69414
G1 X175.282 Y182.649 E7.7467
G1 X175.077 Y182.733 E7.77058
G1 X174.578 Y182.895 E7.82714
G1 X174.104 Y182.975 E7.87896
G1 X173.756 Y183.009 E7.91666
G1 X173.224 Y183.019 E7.97402
G1 X173.189 Y183.017 E7.9778
G1 X172.557 Y182.922 E8.0467
G1 X171.427 Y182.642 E8.17221
G1 X161.978 Y180.11 E9.22682
G1 X161.301 Y179.916 E9.30275
G1 X161.081 Y179.847 E9.3276
G1 X160.381 Y179.539 E9.41005
G1 X160.176 Y179.42 E9.43561
G1 X159.797 Y179.165 E9.48485
G1 X159.223 Y178.721 E9.56309
G1 X157.045 Y177.083 E9.85689
G1 X154.81 Y175.499 E10.15221
G1 X152.537 Y173.982 E10.44682
G1 X150.225 Y172.532 E10.74104
G1 X147.864 Y171.143 E11.03635
G1 X145.484 Y169.831 E11.32934
G1 X143.046 Y168.577 E11.6249
G1 X140.616 Y167.412 E11.91543
G1 X136.731 Y165.716 E12.37243
G1 X136.391 Y165.544 E12.41351
G1 X136.186 Y165.426 E12.43901
G1 X135.752 Y165.13 E12.49565
G1 X135.503 Y164.911 E12.53139
G1 X135.329 Y164.742 E12.55755
G1 X134.982 Y164.348 E12.61415
G1 X134.793 Y164.073 E12.65012
G1 X134.656 Y163.85 E12.67834
G1 X134.416 Y163.383 E12.73494
G1 X134.296 Y163.05 E12.7731
G1 X134.232 Y162.84 E12.79677
G1 X134.094 Y162.123 E12.87549
G1 X134.084 Y162.004 E12.88836
G1 X134.073 Y161.786 E12.91189
G1 X134.06 Y160.558 E13.04429
G1 X134.083 Y160.076 E13.09631
G1 X134.127 Y159.667 E13.14066
G1 X134.142 Y159.578 E13.15039
G1 X134.261 Y159.09 E13.20454
G1 X134.54 Y158.227 E13.30232
G1 X134.691 Y157.74 E13.35729
G1 X134.819 Y157.352 E13.40133
G1 X135.612 Y154.717 E13.69799
G1 X136.315 Y152.105 E13.98961
G1 X136.961 Y149.417 E14.28765
G1 X137.514 Y146.785 E14.57759
G1 X137.514 Y146.782 E14.57791
G1 X138.003 Y144.073 E14.87469
G1 X138.414 Y141.36 E15.17051
G1 X138.745 Y138.663 E15.46344
G1 X138.976 Y136.254 E15.72434
G1 X139.078 Y135.029 E15.85687
G1 X139.142 Y134.597 E15.90395
G1 X139.191 Y134.367 E15.9293
G1 X139.339 Y133.863 E15.98593
G1 X139.468 Y133.566 E16.02084
G1 X139.575 Y133.348 E16.04702
G1 X139.841 Y132.896 E16.10356
G1 X140.064 Y132.61 E16.14266
G1 X140.206 Y132.446 E16.16604
G1 X140.624 Y132.038 E16.22902
G1 X140.792 Y131.9 E16.25245
G1 X141.33 Y131.537 E16.32242
G1 X141.407 Y131.495 E16.33188
G1 X141.89 Y131.278 E16.38896
G1 X142.101 Y131.202 E16.41314
G1 X142.739 Y131.039 E16.48413
G1 X142.906 Y131.013 E16.50235
G1 X143.325 Y130.974 E16.54772
G1 X143.611 Y130.965 E16.57857
G1 X144.02 Y130.96 E16.62266
G1 X160.818 Y130.96 E18.43362
G1 X161.471 Y130.969 E18.50402
G1 X161.779 Y130.981 E18.53725
G0 F6000 X161.819 Y130.082
G1 F1200 X162.404 Y130.148 E18.60072
G1 X162.708 Y130.215 E18.63428
G1 X162.957 Y130.279 E18.662
G1 X163.517 Y130.464 E18.72558
G1 X164.03 Y130.714 E18.7871
G1 X164.249 Y130.839 E18.81429
G1 X164.757 Y131.178 E18.88013
G1 X165.324 Y131.617 E18.95744
G1 X167.493 Y133.249 E19.25007
G1 X169.693 Y134.808 E19.54076
G1 X171.942 Y136.309 E19.83226
G1 X174.268 Y137.768 E20.12827
G1 X176.569 Y139.121 E20.41604
G1 X178.931 Y140.424 E20.70686
G1 X181.338 Y141.661 E20.99862
G1 X183.789 Y142.836 E21.29165
G1 X187.629 Y144.513 E21.74339
G1 X188.06 Y144.73 E21.79541
G1 X188.263 Y144.847 E21.82067
G1 X188.753 Y145.176 E21.8843
G1 X189.151 Y145.524 E21.94129
G1 X189.347 Y145.718 E21.97102
G1 X189.737 Y146.161 E22.03465
G1 X189.98 Y146.511 E22.08059
G1 X190.079 Y146.67 E22.10078
G1 X190.356 Y147.19 E22.1643
G1 X190.481 Y147.502 E22.20053
G1 X190.558 Y147.717 E22.22515
G1 X190.744 Y148.412 E22.30272
G1 X190.755 Y148.473 E22.3094
G1 X190.823 Y149.153 E22.38307
G1 X190.85 Y150.469 E22.52498
G1 X190.85 Y154.728 E22.98413
G1 X190.838 Y155.466 E23.0637
G1 X190.826 Y155.742 E23.09349
G1 X190.76 Y156.328 E23.15706
G1 X190.679 Y156.69 E23.19705
G1 X190.617 Y156.919 E23.22263
G1 X190.425 Y157.476 E23.28615
G1 X190.196 Y157.938 E23.34174
G1 X190.067 Y158.164 E23.36979
G1 X189.868 Y158.481 E23.41014
G1 X189.611 Y158.853 E23.45889
G1 X188.119 Y161.094 E23.74913
G1 X186.691 Y163.371 E24.03889
G1 X185.299 Y165.741 E24.3352
G1 X184.003 Y168.093 E24.62471
G1 X182.775 Y170.483 E24.9144
G1 X181.598 Y172.942 E25.2083
G1 X180.503 Y175.407 E25.49908
G1 X179.486 Y177.879 E25.78726
G1 X178.981 Y179.215 E25.94123
G1 X178.931 Y179.324 E25.95416
G1 X178.466 Y180.546 E26.09512
G1 X178.193 Y181.129 E26.16452
G1 X178.107 Y181.282 E26.18344
G1 X177.773 Y181.791 E26.24908
G1 X177.215 Y182.408 E26.33876
G1 X176.964 Y182.637 E26.37539
G1 X176.502 Y183.003 E26.43893
G1 X176.174 Y183.21 E26.48075
G1 X175.623 Y183.482 E26.54699
G1 X175.418 Y183.566 E26.57088
G1 X174.859 Y183.752 E26.63439
G1 X174.192 Y183.87 E26.70741
G1 X173.844 Y183.904 E26.74511
G1 X173.173 Y183.918 E26.81747
G1 X173.138 Y183.916 E26.82124
G1 X172.34 Y183.795 E26.90826
G1 X171.195 Y183.511 E27.03544
G1 X161.732 Y180.976 E28.09159
G1 X161.031 Y180.775 E28.17021
G1 X160.811 Y180.706 E28.19507
G1 X160.262 Y180.491 E28.25863
G1 X159.929 Y180.317 E28.29914
G1 X159.724 Y180.198 E28.32469
G1 X159.246 Y179.877 E28.38677
G1 X158.672 Y179.433 E28.465
G1 X156.507 Y177.804 E28.7571
G1 X154.29 Y176.232 E29.05009
G1 X152.075 Y174.754 E29.33717
G1 X149.732 Y173.285 E29.6353
G1 X147.431 Y171.932 E29.92307
G1 X145.069 Y170.629 E30.21389
G1 X142.662 Y169.392 E30.50565
G1 X140.211 Y168.217 E30.79868
G1 X136.371 Y166.54 E31.25042
G1 X135.942 Y166.324 E31.3022
G1 X135.737 Y166.206 E31.3277
G1 X135.247 Y165.878 E31.39127
G1 X134.876 Y165.556 E31.44423
G1 X134.702 Y165.387 E31.47038
G1 X134.308 Y164.949 E31.53389
G1 X134.027 Y164.544 E31.58703
G1 X133.89 Y164.321 E31.61525
G1 X133.616 Y163.799 E31.67881
G1 X133.435 Y163.312 E31.73482
G1 X133.371 Y163.102 E31.75848
G1 X133.238 Y162.528 E31.82201
G1 X133.187 Y162.079 E31.87072
G1 X133.173 Y161.804 E31.90041
G1 X133.157 Y160.646 E32.02526
G1 X133.161 Y160.515 E32.03939
G1 X133.184 Y160.033 E32.09141
G1 X133.239 Y159.517 E32.14736
G1 X133.254 Y159.428 E32.15709
G1 X133.405 Y158.813 E32.22536
G1 X133.684 Y157.95 E32.32314
G1 X133.836 Y157.457 E32.37876
G1 X133.975 Y157.037 E32.42645
G1 X134.743 Y154.482 E32.71407
G1 X135.446 Y151.87 E33.00569
G1 X136.08 Y149.232 E33.29818
G1 X136.628 Y146.622 E33.5857
G1 X137.116 Y143.92 E33.88171
G1 X137.52 Y141.253 E34.17251
G1 X137.852 Y138.546 E34.46653
G1 X138.08 Y136.168 E34.72407
G1 X138.181 Y134.954 E34.8554
G1 X138.261 Y134.41 E34.91468
G1 X138.31 Y134.18 E34.94004
G1 X138.472 Y133.613 E35.00361
G1 X138.66 Y133.169 E35.05559
G1 X138.767 Y132.951 E35.08177
G1 X139.062 Y132.441 E35.14529
G1 X139.383 Y132.021 E35.20228
G1 X139.525 Y131.857 E35.22566
G1 X140.053 Y131.343 E35.3051
G1 X140.221 Y131.205 E35.32854
G1 X140.899 Y130.747 E35.41675
G1 X140.976 Y130.705 E35.42621
G1 X141.585 Y130.431 E35.4982
G1 X141.796 Y130.355 E35.52238
G1 X142.601 Y130.15 E35.61193
G1 X142.768 Y130.124 E35.63015
G1 X143.296 Y130.074 E35.68733
G1 X143.6 Y130.065 E35.72012
G1 X144.009 Y130.06 E35.76422
G1 X160.83 Y130.06 E37.57765
G1 X161.483 Y130.069 E37.64806
G1 X161.819 Y130.082 E37.68431
G0 F6000 X161.859 Y129.183
G1 F1200 X162.503 Y129.252 E37.75413
G1 X162.932 Y129.343 E37.80141
G1 X163.181 Y129.407 E37.82913
G1 X163.797 Y129.607 E37.89895
G1 X164.476 Y129.932 E37.9801
G1 X164.695 Y130.057 E38.00729
G1 X165.309 Y130.467 E38.08688
G1 X165.882 Y130.911 E38.16503
G1 X168.008 Y132.511 E38.45189
G1 X170.213 Y134.073 E38.74321
G1 X172.446 Y135.563 E39.03261
G1 X174.704 Y136.979 E39.31995
G1 X177.002 Y138.331 E39.60739
G1 X179.376 Y139.64 E39.89965
G1 X181.764 Y140.868 E40.18914
G1 X184.146 Y142.01 E40.47393
G1 X187.989 Y143.688 E40.926
G1 X188.51 Y143.95 E40.98887
G1 X188.713 Y144.067 E41.01413
G1 X189.253 Y144.425 E41.08398
G1 X189.784 Y144.885 E41.15972
G1 X189.98 Y145.079 E41.18945
G1 X190.412 Y145.562 E41.25931
G1 X190.744 Y146.035 E41.32161
G1 X190.843 Y146.194 E41.3418
G1 X191.151 Y146.764 E41.41165
G1 X191.329 Y147.199 E41.46232
G1 X191.406 Y147.414 E41.48694
G1 X191.63 Y148.252 E41.58046
G1 X191.641 Y148.313 E41.58714
G1 X191.723 Y149.134 E41.67609
G1 X191.75 Y150.469 E41.82004
G1 X191.75 Y154.74 E42.28049
G1 X191.737 Y155.505 E42.36297
G1 X191.725 Y155.781 E42.39276
G1 X191.657 Y156.425 E42.46257
G1 X191.548 Y156.925 E42.51774
G1 X191.486 Y157.154 E42.54332
G1 X191.278 Y157.768 E42.61321
G1 X190.978 Y158.385 E42.68717
G1 X190.849 Y158.611 E42.71523
G1 X190.608 Y158.992 E42.76383
G1 X190.371 Y159.335 E42.80877
G1 X188.876 Y161.58 E43.09956
G1 X187.47 Y163.822 E43.38486
G1 X186.073 Y166.201 E43.68228
G1 X184.809 Y168.495 E43.96465
G1 X183.583 Y170.881 E44.25385
G1 X182.401 Y173.351 E44.54906
G1 X181.332 Y175.755 E44.83269
G1 X180.328 Y178.197 E45.11734
G1 X179.823 Y179.533 E45.27132
G1 X179.774 Y179.642 E45.2842
G1 X179.308 Y180.866 E45.4254
G1 X178.978 Y181.57 E45.50922
G1 X178.892 Y181.723 E45.52814
G1 X178.495 Y182.328 E45.60616
G1 X178.077 Y182.823 E45.676
G1 X177.821 Y183.072 E45.7145
G1 X177.57 Y183.301 E45.75113
G1 X177.066 Y183.708 E45.82097
G1 X176.629 Y183.986 E45.87681
G1 X175.965 Y184.315 E45.9567
G1 X175.76 Y184.399 E45.98058
G1 X175.146 Y184.607 E46.05047
G1 X174.28 Y184.766 E46.14539
G1 X173.932 Y184.8 E46.18309
G1 X173.121 Y184.816 E46.27054
G1 X173.086 Y184.814 E46.27432
G1 X172.443 Y184.738 E46.34412
G1 X172.124 Y184.669 E46.37931
G1 X170.962 Y184.38 E46.5084
G1 X161.485 Y181.841 E47.56612
G1 X160.762 Y181.633 E47.64723
G1 X160.542 Y181.564 E47.67209
G1 X159.937 Y181.333 E47.7419
G1 X159.477 Y181.095 E47.79774
G1 X159.272 Y180.976 E47.82329
G1 X158.696 Y180.589 E47.8981
G1 X158.122 Y180.145 E47.97634
G1 X155.985 Y178.537 E48.26466
G1 X153.793 Y176.983 E48.55433
G1 X151.554 Y175.49 E48.84446
G1 X149.296 Y174.074 E49.13179
G1 X146.998 Y172.722 E49.41923
G1 X144.624 Y171.413 E49.7115
G1 X142.236 Y170.185 E50.00099
G1 X139.854 Y169.043 E50.28577
G1 X136.011 Y167.365 E50.73785
G1 X135.493 Y167.104 E50.80038
G1 X135.288 Y166.986 E50.82588
G1 X134.748 Y166.629 E50.89567
G1 X134.249 Y166.202 E50.96647
G1 X134.075 Y166.033 E50.99263
G1 X133.639 Y165.554 E51.06245
G1 X133.26 Y165.015 E51.13349
G1 X133.123 Y164.792 E51.16171
G1 X132.818 Y164.22 E51.23159
G1 X132.574 Y163.575 E51.30594
G1 X132.51 Y163.365 E51.3296
G1 X132.36 Y162.734 E51.39953
G1 X132.3 Y162.274 E51.44954
G1 X132.29 Y162.155 E51.46241
G1 X132.273 Y161.823 E51.49825
G1 X132.257 Y160.631 E51.62677
G1 X132.262 Y160.472 E51.64392
G1 X132.285 Y159.99 E51.69594
G1 X132.352 Y159.367 E51.76349
G1 X132.367 Y159.278 E51.77322
G1 X132.549 Y158.536 E51.85559
G1 X132.812 Y157.722 E51.94781
G1 X132.982 Y157.174 E52.00967
G1 X133.109 Y156.79 E52.05327
G1 X133.881 Y154.222 E52.34236
G1 X134.575 Y151.644 E52.63018
G1 X135.199 Y149.047 E52.91813
G1 X135.742 Y146.462 E53.20289
G1 X136.228 Y143.768 E53.49801
G1 X136.63 Y141.116 E53.78719
G1 X136.955 Y138.463 E54.07534
G1 X137.18 Y136.128 E54.32824
G1 X137.284 Y134.879 E54.46335
G1 X137.381 Y134.222 E54.53495
G1 X137.43 Y133.992 E54.5603
G1 X137.604 Y133.368 E54.63014
G1 X137.852 Y132.773 E54.69964
G1 X137.959 Y132.555 E54.72582
G1 X138.28 Y131.992 E54.79568
G1 X138.703 Y131.431 E54.87143
G1 X138.845 Y131.267 E54.89482
G1 X139.482 Y130.647 E54.99065
G1 X139.65 Y130.509 E55.01409
G1 X140.175 Y130.13 E55.08389
G1 X140.545 Y129.915 E55.13003
G1 X141.28 Y129.585 E55.21689
G1 X141.491 Y129.509 E55.24107
G1 X142.113 Y129.327 E55.31093
G1 X142.462 Y129.26 E55.34925
G1 X142.629 Y129.234 E55.36747
G1 X143.267 Y129.175 E55.43654
G1 X143.589 Y129.165 E55.47127
G1 X143.998 Y129.16 E55.51537
G1 X160.842 Y129.16 E57.33128
G1 X161.495 Y129.169 E57.40169
G1 X161.859 Y129.183 E57.44096
G1 F1500 E55.44096
;MESH:18650Aclip.stl
G0 F6000 X161.15 Y135.76
;TYPE:WALL-INNER
G1 F1500 E57.44096
G1 F1200 X161.145 Y141.06 E57.99485
G1 X149.15 Y141.06 E59.24842
G1 X149.15 Y164.134 E61.65982
G1 X138.85 Y161.375 E62.7742
G1 X138.85 Y160.76 E62.83847
G1 X143.85 Y160.76 E63.36101
G1 X143.85 Y135.76 E65.9737
G1 X161.15 Y135.76 E67.78167
G0 F6000 X161.571 Y134.866
;TYPE:WALL-OUTER
G1 F1200 X161.709 Y134.902 E67.79658
G1 X161.774 Y134.934 E67.80415
G1 X161.83 Y134.972 E67.81122
G1 X161.887 Y135.021 E67.81908
G1 X161.936 Y135.076 E67.82678
G1 X161.975 Y135.135 E67.83417
G1 X162.009 Y135.204 E67.84221
G1 X162.029 Y135.262 E67.84862
G1 X162.044 Y135.34 E67.85692
G1 X162.05 Y135.452 E67.86864
G1 X162.045 Y141.478 E68.4984
G1 X162.031 Y141.55 E68.50607
G1 X162.009 Y141.618 E68.51354
G1 X161.978 Y141.68 E68.52078
G1 X161.938 Y141.741 E68.52841
G1 X161.888 Y141.798 E68.53633
G1 X161.831 Y141.848 E68.54425
G1 X161.775 Y141.885 E68.55127
G1 X161.706 Y141.919 E68.55931
G1 X161.646 Y141.94 E68.56595
G1 X161.57 Y141.954 E68.57403
G1 X161.448 Y141.96 E68.58679
G1 X150.05 Y141.96 E69.77797
G1 X150.05 Y164.573 E72.1412
G1 X150.043 Y164.67 E72.15136
G1 X150.028 Y164.742 E72.15905
G1 X150.002 Y164.812 E72.16685
G1 X149.963 Y164.885 E72.1755
G1 X149.918 Y164.947 E72.18351
G1 X149.866 Y165 E72.19127
G1 X149.803 Y165.048 E72.19954
G1 X149.733 Y165.088 E72.20797
G1 X149.668 Y165.113 E72.21525
G1 X149.59 Y165.132 E72.22364
G1 X149.508 Y165.139 E72.23224
G1 X149.437 Y165.135 E72.23967
G1 X149.339 Y165.116 E72.2501
G1 X138.367 Y162.177 E73.43718
G1 X138.291 Y162.151 E73.44558
G1 X138.226 Y162.119 E73.45315
G1 X138.17 Y162.081 E73.46022
G1 X138.113 Y162.032 E73.46808
G1 X138.062 Y161.974 E73.47615
G1 X138.026 Y161.919 E73.48302
G1 X137.993 Y161.853 E73.49073
G1 X137.969 Y161.782 E73.49856
G1 X137.956 Y161.709 E73.50631
G1 X137.95 Y161.626 E73.51501
G1 X137.95 Y160.427 E73.64031
G1 X137.956 Y160.334 E73.65005
G1 X137.968 Y160.271 E73.65675
G1 X137.991 Y160.202 E73.66436
G1 X138.024 Y160.136 E73.67207
G1 X138.062 Y160.08 E73.67914
G1 X138.113 Y160.021 E73.68729
G1 X138.169 Y159.972 E73.69507
