;FLAVOR:Marlin
;TIME:1926
;Filament used: 2.89818m
;Layer height: 0.3
;MINX:135.218
;MINY:131.435
;MINZ:0.3
;MAXX:169.512
;MAXY:192.74
;MAXZ:23.7
;LINEARADVANCEPROCESSED
;Generated with Cura_SteamEngine 4.6.0
M140 S80
M105
M190 S80
M104 S250
M105
M109 S250
M82 ;absolute extrusion mode
G28 ; home all axes
M420 S1 ; enable bed mesh
M117 Purge extruder
G92 E0 ; reset extruder
G1 Z1.0 F3000 ; move z up little to prevent scratching of surface
G1 X2 Y20 Z0.3 F5000.0 ; move to start-line position
G1 X2 Y200.0 Z0.3 F1500.0 E15 ; draw 1st line
G1 X2 Y200.0 Z0.4 F5000.0 ; move to side a little
G1 X2 Y20 Z0.4 F1500.0 E30 ; draw 2nd line
G92 E0 ; reset extruder
G1 Z1.0 F3000 ; move z up little to prevent scratching of surface
G92 E0
G92 E0
G1 F1500 E-2
;LAYER_COUNT:79
M900 K0.050000 T0 ;added by LinearAdvanceSettingPlugin
;LAYER:0
M107
G0 F6000 X154.095 Y133.321 Z0.3
;TYPE:SKIRT
G1 F1500 E0
G1 F1200 X154.348 Y133.35 E0.02745
G1 X154.858 Y133.425 E0.08303
G1 X155.585 Y133.563 E0.1628
G1 X156.166 Y133.692 E0.22696
G1 X156.164 Y133.699 E0.22775
G1 X156.305 Y133.725 E0.24321
G1 X156.645 Y133.817 E0.28118
G1 X157.118 Y133.959 E0.33442
G1 X157.72 Y134.162 E0.40291
G1 X158.205 Y134.347 E0.45887
G1 X158.581 Y134.505 E0.50284
G1 X158.695 Y134.557 E0.51635
G1 X159.429 Y134.907 E0.60402
G1 X159.751 Y135.075 E0.64317
G1 X160.462 Y135.474 E0.73107
G1 X160.73 Y135.638 E0.76494
G1 X161.205 Y135.952 E0.82633
G1 X162.092 Y136.608 E0.94526
G1 X162.343 Y136.813 E0.9802
G1 X162.535 Y136.975 E1.00728
G1 X162.969 Y137.364 E1.07012
G1 X163.371 Y137.759 E1.13088
G1 X163.724 Y138.127 E1.18585
G1 X163.994 Y138.415 E1.22841
G1 X164.147 Y138.589 E1.25339
G1 X164.486 Y139.006 E1.31133
G1 X164.974 Y139.648 E1.39826
G1 X165.178 Y139.941 E1.43675
G1 X165.392 Y140.275 E1.47952
G1 X165.955 Y141.222 E1.59829
G1 X166.049 Y141.397 E1.61971
G1 X166.312 Y141.931 E1.68388
G1 X166.519 Y142.399 E1.73905
G1 X166.747 Y142.953 E1.80364
G1 X166.8 Y143.115 E1.82201
G1 X166.807 Y143.113 E1.8228
G1 X166.96 Y143.547 E1.87241
G1 X167.114 Y144.037 E1.92778
G1 X167.241 Y144.493 E1.97881
G1 X167.32 Y144.825 E2.0156
G1 X167.338 Y144.939 E2.02805
G1 X167.344 Y144.938 E2.0287
G1 X167.498 Y145.697 E2.11219
G1 X167.53 Y145.882 E2.13243
G1 X167.582 Y146.236 E2.17101
G1 X167.607 Y146.452 E2.19445
G1 X167.691 Y147.523 E2.31027
G1 X167.712 Y148.335 E2.39784
G1 X167.71 Y148.459 E2.41121
G1 X167.686 Y149.063 E2.47637
G1 X167.625 Y149.776 E2.55352
G1 X167.594 Y150.025 E2.58057
G1 X167.477 Y151.097 E2.69683
G1 X167.412 Y151.62 E2.75365
G1 X167.151 Y154.379 E3.05242
G1 X166.972 Y157.074 E3.3436
G1 X166.869 Y159.779 E3.63543
G1 X166.842 Y162.548 E3.93396
G1 X166.893 Y165.257 E4.22607
G1 X167.021 Y167.989 E4.52092
G1 X167.225 Y170.691 E4.81304
G1 X167.51 Y173.443 E5.11132
G1 X167.605 Y174.267 E5.20074
G1 X167.691 Y175.357 E5.31862
G1 X167.711 Y176.072 E5.39573
G1 X167.708 Y176.297 E5.41999
G1 X167.709 Y176.297 E5.4201
G1 X167.707 Y176.359 E5.42678
G1 X167.706 Y176.377 E5.42873
G1 X167.686 Y176.892 E5.48429
G1 X167.635 Y177.511 E5.55125
G1 X167.598 Y177.819 E5.58469
G1 X167.533 Y178.276 E5.63446
G1 X167.432 Y178.852 E5.6975
G1 X167.348 Y179.215 E5.73767
G1 X167.349 Y179.215 E5.73778
G1 X167.132 Y180.052 E5.831
G1 X166.866 Y180.894 E5.92619
G1 X166.797 Y181.079 E5.94748
G1 X166.437 Y181.96 E6.05008
G1 X166.319 Y182.217 E6.08057
G1 X165.808 Y183.212 E6.20116
G1 X165.663 Y183.459 E6.23203
G1 X165.351 Y183.952 E6.29493
G1 X164.849 Y184.689 E6.39107
G1 X164.717 Y184.871 E6.4153
G1 X164.527 Y185.113 E6.44847
G1 X164.189 Y185.527 E6.50609
G1 X163.854 Y185.908 E6.56079
G1 X163.42 Y186.364 E6.62865
G1 X163.078 Y186.699 E6.68027
G1 X162.672 Y187.072 E6.7397
G1 X162.523 Y187.201 E6.76095
G1 X161.92 Y187.692 E6.84478
G1 X161.498 Y188.01 E6.90175
G1 X160.978 Y188.366 E6.96969
G1 X160.496 Y188.674 E7.03135
G1 X160.215 Y188.838 E7.06643
G1 X160.214 Y188.836 E7.06667
G1 X160.065 Y188.922 E7.08522
G1 X159.057 Y189.447 E7.20775
G1 X158.885 Y189.525 E7.22811
G1 X158.06 Y189.874 E7.32468
G1 X157.852 Y189.956 E7.34878
G1 X157.657 Y190.026 E7.37112
G1 X156.859 Y190.285 E7.46157
G1 X156.554 Y190.376 E7.49588
G1 X156.366 Y190.426 E7.51685
G1 X155.813 Y190.556 E7.57809
G1 X155.316 Y190.655 E7.63273
G1 X155.203 Y190.669 E7.645
G1 X155.204 Y190.674 E7.64555
G1 X154.246 Y190.828 E7.75016
G1 X154.051 Y190.849 E7.7713
G1 X153.076 Y190.923 E7.87672
G1 X152.654 Y190.94 E7.92225
G1 X152 Y190.936 E7.99276
G1 X151.447 Y190.917 E8.05241
G1 X150.914 Y190.875 E8.11005
G1 X150.399 Y190.82 E8.16589
G1 X150.049 Y190.771 E8.20399
G1 X149.771 Y190.727 E8.23433
G1 X149.228 Y190.626 E8.29387
G1 X148.686 Y190.507 E8.3537
G1 X148.223 Y190.387 E8.40526
G1 X147.908 Y190.297 E8.44058
G1 X147.477 Y190.162 E8.48927
G1 X146.945 Y189.977 E8.54999
G1 X146.473 Y189.798 E8.60442
G1 X146.142 Y189.661 E8.64304
G1 X145.486 Y189.358 E8.72094
G1 X144.96 Y189.09 E8.78458
G1 X144.654 Y188.921 E8.82227
G1 X144.552 Y188.863 E8.83492
G1 X144.019 Y188.543 E8.90194
G1 X143.536 Y188.224 E8.96434
G1 X143.095 Y187.908 E9.02283
G1 X142.293 Y187.273 E9.13311
G1 X142.14 Y187.144 E9.15469
G1 X141.817 Y186.854 E9.20148
G1 X141.334 Y186.389 E9.27377
G1 X140.953 Y185.992 E9.33309
G1 X140.722 Y185.737 E9.37018
G1 X140.52 Y185.504 E9.40342
G1 X140.18 Y185.086 E9.46151
G1 X139.929 Y184.756 E9.50621
G1 X139.845 Y184.643 E9.52139
G1 X139.541 Y184.212 E9.57825
G1 X139.402 Y183.999 E9.60567
G1 X139.24 Y183.743 E9.63833
G1 X138.869 Y183.111 E9.71734
G1 X138.682 Y182.769 E9.75936
G1 X138.421 Y182.246 E9.82238
G1 X138.241 Y181.848 E9.86947
G1 X138.001 Y181.263 E9.93764
G1 X137.871 Y180.914 E9.97779
G1 X137.777 Y180.648 E10.0082
G1 X137.642 Y180.216 E10.05699
G1 X137.479 Y179.644 E10.12112
G1 X137.397 Y179.306 E10.15861
G1 X137.368 Y179.127 E10.17816
G1 X137.36 Y179.128 E10.17903
G1 X137.19 Y178.22 E10.27862
G1 X137.159 Y178.027 E10.29969
G1 X137.095 Y177.512 E10.35564
G1 X137.068 Y177.224 E10.38683
G1 X137.05 Y176.984 E10.41277
G1 X137.032 Y176.643 E10.44959
G1 X137.021 Y176.362 E10.4799
G1 X137.018 Y176.076 E10.51074
G1 X137.022 Y175.689 E10.55246
G1 X137.044 Y175.137 E10.61202
G1 X137.101 Y174.456 E10.68569
G1 X137.251 Y173.158 E10.82656
G1 X137.524 Y170.46 E11.11891
G1 X137.724 Y167.724 E11.41466
G1 X137.845 Y164.992 E11.70948
G1 X137.889 Y162.253 E12.0048
G1 X137.855 Y159.512 E12.30033
G1 X137.746 Y156.811 E12.59175
G1 X137.558 Y154.071 E12.88784
G1 X137.329 Y151.724 E13.14207
G1 X137.329 Y151.721 E13.14239
G1 X137.293 Y151.353 E13.18225
G1 X137.194 Y150.548 E13.26969
G1 X137.102 Y149.745 E13.35683
G1 X137.068 Y149.38 E13.39635
G1 X137.05 Y149.148 E13.42143
G1 X137.021 Y148.537 E13.48738
G1 X137.018 Y148.253 E13.518
G1 X137.022 Y147.857 E13.56069
G1 X137.041 Y147.362 E13.61409
G1 X137.059 Y147.107 E13.64165
G1 X137.101 Y146.628 E13.69349
G1 X137.181 Y145.995 E13.76228
G1 X137.277 Y145.43 E13.82406
G1 X137.432 Y144.727 E13.90167
G1 X137.548 Y144.273 E13.95219
G1 X137.615 Y144.041 E13.97822
G1 X137.755 Y143.592 E14.02893
G1 X137.98 Y142.963 E14.10094
G1 X138.211 Y142.39 E14.16755
G1 X138.35 Y142.082 E14.20398
G1 X138.465 Y141.834 E14.23345
G1 X138.631 Y141.5 E14.27366
G1 X138.772 Y141.235 E14.30602
G1 X139.115 Y140.625 E14.38147
G1 X139.309 Y140.314 E14.42098
G1 X139.642 Y139.811 E14.48602
G1 X139.846 Y139.526 E14.5238
G1 X140.114 Y139.169 E14.57193
G1 X140.383 Y138.829 E14.61867
G1 X140.641 Y138.528 E14.66141
G1 X140.947 Y138.183 E14.71112
G1 X141.161 Y137.952 E14.74507
G1 X141.291 Y137.82 E14.76504
G1 X141.752 Y137.375 E14.83412
G1 X142.055 Y137.097 E14.87845
G1 X142.2 Y136.971 E14.89916
G1 X142.753 Y136.519 E14.97616
G1 X143.094 Y136.26 E15.02232
G1 X143.119 Y136.243 E15.02558
G1 X143.314 Y136.101 E15.05159
G1 X143.476 Y135.99 E15.07276
G1 X144.463 Y135.361 E15.19894
G1 X144.852 Y135.139 E15.24722
G1 X145.265 Y134.92 E15.29762
G1 X145.711 Y134.706 E15.35095
G1 X146.626 Y134.315 E15.45822
G1 X147.136 Y134.121 E15.51705
G1 X147.222 Y134.096 E15.52671
G1 X147.221 Y134.092 E15.52715
G1 X147.469 Y134.005 E15.55548
G1 X147.653 Y133.946 E15.57632
G1 X148.366 Y133.741 E15.6563
G1 X148.795 Y133.634 E15.70396
G1 X149.071 Y133.574 E15.73441
G1 X149.57 Y133.476 E15.78924
G1 X149.78 Y133.44 E15.81221
G1 X149.987 Y133.408 E15.83479
G1 X150.716 Y133.319 E15.91396
G1 X151.099 Y133.277 E15.9555
G1 X151.35 Y133.258 E15.98264
G1 X151.832 Y133.242 E16.03463
G1 X152.825 Y133.235 E16.14169
G1 X153.109 Y133.245 E16.17232
G1 X154.095 Y133.321 E16.27894
G1 F1500 E14.27894
G0 F6000 X142.785 Y135.373
G1 F1500 E16.27894
G1 F1200 X142.99 Y135.233 E16.3057
G1 X144.014 Y134.581 E16.43657
G1 X144.424 Y134.347 E16.48746
G1 X144.869 Y134.111 E16.54177
G1 X145.161 Y133.968 E16.57682
G1 X145.355 Y133.879 E16.59983
G1 X146.306 Y133.474 E16.71127
G1 X146.816 Y133.28 E16.77009
G1 X146.925 Y133.247 E16.78237
G1 X146.923 Y133.242 E16.78295
G1 X147.171 Y133.155 E16.81128
G1 X147.403 Y133.081 E16.83754
G1 X148.143 Y132.869 E16.92052
G1 X148.602 Y132.755 E16.97151
G1 X148.895 Y132.691 E17.00384
G1 X149.42 Y132.588 E17.06152
G1 X149.878 Y132.515 E17.11152
G1 X150.607 Y132.426 E17.1907
G1 X151 Y132.382 E17.23333
G1 X151.317 Y132.359 E17.26759
G1 X151.825 Y132.342 E17.32239
G1 X152.818 Y132.335 E17.42945
G1 X153.177 Y132.347 E17.46817
G1 X154.471 Y132.459 E17.6082
G1 X154.812 Y132.506 E17.64531
G1 X155.025 Y132.541 E17.66858
G1 X155.78 Y132.684 E17.75142
G1 X156.361 Y132.813 E17.81558
G1 X156.358 Y132.826 E17.81702
G1 X156.537 Y132.855 E17.83657
G1 X156.9 Y132.954 E17.87713
G1 X157.401 Y133.104 E17.93351
G1 X158.04 Y133.321 E18.00627
G1 X158.552 Y133.517 E18.06537
G1 X158.942 Y133.681 E18.11098
G1 X159.081 Y133.744 E18.12743
G1 X159.837 Y134.105 E18.21775
G1 X160.19 Y134.289 E18.26067
G1 X160.925 Y134.702 E18.35156
G1 X161.223 Y134.884 E18.3892
G1 X161.564 Y135.107 E18.43313
G1 X161.732 Y135.223 E18.45514
G1 X162.662 Y135.911 E18.57985
G1 X163.132 Y136.301 E18.64569
G1 X163.44 Y136.574 E18.69007
G1 X163.597 Y136.72 E18.71318
G1 X164.02 Y137.136 E18.77714
G1 X164.373 Y137.504 E18.83211
G1 X164.406 Y137.538 E18.83722
G1 X164.651 Y137.799 E18.87581
G1 X164.843 Y138.018 E18.90721
G1 X165.202 Y138.46 E18.9686
G1 X165.707 Y139.126 E19.05871
G1 X165.933 Y139.451 E19.10139
G1 X166.164 Y139.812 E19.14759
G1 X166.738 Y140.776 E19.26854
G1 X166.855 Y140.998 E19.2956
G1 X167.134 Y141.564 E19.36363
G1 X167.352 Y142.056 E19.42164
G1 X167.58 Y142.61 E19.48623
G1 X167.648 Y142.815 E19.50951
G1 X167.656 Y142.812 E19.51043
G1 X167.817 Y143.274 E19.56318
G1 X167.979 Y143.788 E19.62128
G1 X168.117 Y144.285 E19.67689
G1 X168.196 Y144.617 E19.71368
G1 X168.22 Y144.76 E19.72931
G1 X168.226 Y144.759 E19.72997
G1 X168.38 Y145.518 E19.81346
G1 X168.421 Y145.751 E19.83897
G1 X168.473 Y146.105 E19.87754
G1 X168.504 Y146.378 E19.90716
G1 X168.577 Y147.26 E20.00257
G1 X168.59 Y147.498 E20.02827
G1 X168.612 Y148.335 E20.11853
G1 X168.61 Y148.49 E20.13525
G1 X168.595 Y148.934 E20.18314
G1 X168.583 Y149.135 E20.20485
G1 X168.518 Y149.888 E20.28633
G1 X168.489 Y150.122 E20.31175
G1 X168.37 Y151.207 E20.42942
G1 X168.308 Y151.708 E20.48384
G1 X168.048 Y154.452 E20.78099
G1 X167.873 Y157.098 E21.06688
G1 X167.768 Y159.822 E21.36076
G1 X167.742 Y162.543 E21.65412
G1 X167.793 Y165.234 E21.94428
G1 X167.918 Y167.913 E22.23341
G1 X168.124 Y170.641 E22.52835
G1 X168.404 Y173.338 E22.82067
G1 X168.502 Y174.192 E22.91334
G1 X168.577 Y175.091 E23.0106
G1 X168.59 Y175.331 E23.03651
G1 X168.61 Y176.046 E23.11362
G1 X168.606 Y176.327 E23.14392
G1 X168.609 Y176.327 E23.14424
G1 X168.595 Y176.76 E23.19095
G1 X168.583 Y176.963 E23.21287
G1 X168.528 Y177.616 E23.28352
G1 X168.489 Y177.942 E23.31892
G1 X168.421 Y178.425 E23.3715
G1 X168.354 Y178.824 E23.41512
G1 X168.31 Y179.048 E23.43973
G1 X168.217 Y179.454 E23.48463
G1 X168.212 Y179.473 E23.48675
G1 X167.992 Y180.318 E23.58089
G1 X167.718 Y181.186 E23.67901
G1 X167.63 Y181.419 E23.70587
G1 X167.27 Y182.3 E23.80847
G1 X167.122 Y182.624 E23.84687
G1 X166.6 Y183.639 E23.96992
G1 X166.403 Y183.973 E24.01172
G1 X166.095 Y184.459 E24.07375
G1 X165.593 Y185.196 E24.16989
G1 X165.426 Y185.425 E24.20044
G1 X165.226 Y185.68 E24.23538
G1 X164.869 Y186.116 E24.29613
G1 X164.507 Y186.527 E24.35518
G1 X164.052 Y187.004 E24.42624
G1 X163.687 Y187.361 E24.48129
G1 X163.281 Y187.734 E24.54072
G1 X163.093 Y187.897 E24.56755
G1 X162.468 Y188.406 E24.65445
G1 X162.193 Y188.617 E24.69181
G1 X162.008 Y188.752 E24.7165
G1 X161.467 Y189.121 E24.7871
G1 X160.95 Y189.451 E24.85323
G1 X160.669 Y189.615 E24.8883
G1 X160.668 Y189.613 E24.88854
G1 X160.484 Y189.718 E24.91138
G1 X159.453 Y190.255 E25.03671
G1 X159.236 Y190.354 E25.06242
G1 X158.39 Y190.711 E25.16141
G1 X158.182 Y190.793 E25.18552
G1 X157.937 Y190.881 E25.21358
G1 X157.117 Y191.147 E25.30652
G1 X156.812 Y191.238 E25.34083
G1 X156.574 Y191.302 E25.3674
G1 X155.989 Y191.438 E25.43215
G1 X155.492 Y191.537 E25.48679
G1 X155.35 Y191.555 E25.50222
G1 X155.351 Y191.562 E25.50298
G1 X154.367 Y191.72 E25.61042
G1 X154.121 Y191.746 E25.63709
G1 X153.123 Y191.822 E25.74499
G1 X152.891 Y191.834 E25.77004
G1 X152.651 Y191.84 E25.79592
G1 X151.973 Y191.836 E25.86901
G1 X151.38 Y191.814 E25.93299
G1 X150.821 Y191.771 E25.99343
G1 X150.274 Y191.711 E26.05276
G1 X149.609 Y191.612 E26.12524
G1 X149.039 Y191.506 E26.18774
G1 X148.463 Y191.379 E26.25133
G1 X147.977 Y191.253 E26.30546
G1 X147.642 Y191.157 E26.34303
G1 X147.184 Y191.013 E26.39479
G1 X146.628 Y190.82 E26.45823
G1 X146.129 Y190.63 E26.5158
G1 X145.784 Y190.486 E26.5561
G1 X145.663 Y190.432 E26.57039
G1 X145.081 Y190.162 E26.63955
G1 X144.646 Y189.942 E26.69211
G1 X144.525 Y189.878 E26.70686
G1 X144.219 Y189.709 E26.74455
G1 X144.2 Y189.699 E26.74686
G1 X143.527 Y189.296 E26.83143
G1 X143.018 Y188.96 E26.89718
G1 X142.735 Y188.761 E26.93448
G1 X142.537 Y188.613 E26.96113
G1 X141.735 Y187.978 E27.07141
G1 X141.542 Y187.816 E27.09858
G1 X141.196 Y187.505 E27.14873
G1 X140.686 Y187.014 E27.22506
G1 X140.286 Y186.596 E27.28743
G1 X139.925 Y186.195 E27.3456
G1 X139.823 Y186.074 E27.36266
G1 X139.595 Y185.795 E27.4015
G1 X139.464 Y185.63 E27.42422
G1 X139.236 Y185.33 E27.46484
G1 X139.211 Y185.299 E27.46913
G1 X139.113 Y185.167 E27.48686
G1 X138.787 Y184.704 E27.5479
G1 X138.466 Y184.2 E27.61232
G1 X138.083 Y183.55 E27.69366
G1 X137.877 Y183.173 E27.73997
G1 X137.69 Y182.8 E27.78496
G1 X137.604 Y182.622 E27.80627
G1 X137.452 Y182.292 E27.84544
G1 X137.158 Y181.577 E27.92878
G1 X137.028 Y181.228 E27.96893
G1 X136.92 Y180.92 E28.00412
G1 X136.777 Y180.467 E28.05533
G1 X136.605 Y179.857 E28.12366
G1 X136.523 Y179.519 E28.16115
G1 X136.484 Y179.292 E28.18599
G1 X136.475 Y179.294 E28.18698
G1 X136.305 Y178.386 E28.28657
G1 X136.267 Y178.142 E28.31319
G1 X136.199 Y177.596 E28.37251
G1 X136.151 Y177.031 E28.43364
G1 X136.121 Y176.375 E28.50444
G1 X136.122 Y175.659 E28.58163
G1 X136.135 Y175.268 E28.6238
G1 X136.147 Y175.065 E28.64573
G1 X136.207 Y174.353 E28.72276
G1 X136.35 Y173.113 E28.85732
G1 X136.631 Y170.343 E29.15748
G1 X136.825 Y167.688 E29.44448
G1 X136.946 Y164.938 E29.74124
G1 X136.99 Y162.284 E30.0274
G1 X136.955 Y159.523 E30.32508
G1 X136.848 Y156.872 E30.61111
G1 X136.66 Y154.126 E30.90784
G1 X136.434 Y151.811 E31.1586
G1 X136.433 Y151.807 E31.15905
G1 X136.397 Y151.438 E31.19902
G1 X136.301 Y150.658 E31.28374
G1 X136.206 Y149.828 E31.37381
G1 X136.151 Y149.197 E31.44209
G1 X136.121 Y148.55 E31.51192
G1 X136.118 Y148.248 E31.54448
G1 X136.122 Y147.827 E31.58987
G1 X136.143 Y147.299 E31.64683
G1 X136.208 Y146.518 E31.73132
G1 X136.293 Y145.852 E31.8037
G1 X136.355 Y145.468 E31.84564
G1 X136.398 Y145.239 E31.87076
G1 X136.559 Y144.507 E31.95156
G1 X136.684 Y144.023 E32.00545
G1 X136.845 Y143.478 E32.06672
G1 X136.906 Y143.292 E32.08782
G1 X137.143 Y142.631 E32.16352
G1 X137.391 Y142.02 E32.23461
G1 X137.53 Y141.712 E32.27104
G1 X137.657 Y141.439 E32.3035
G1 X137.835 Y141.08 E32.3467
G1 X137.985 Y140.798 E32.38114
G1 X138.349 Y140.151 E32.46117
G1 X138.557 Y139.82 E32.50331
G1 X138.907 Y139.292 E32.57161
G1 X139.404 Y138.615 E32.66215
G1 X139.697 Y138.246 E32.71295
G1 X139.97 Y137.927 E32.75821
G1 X140.287 Y137.572 E32.80952
G1 X140.501 Y137.341 E32.84347
G1 X140.664 Y137.174 E32.86863
G1 X141.143 Y136.712 E32.94037
