;FLAVOR:Marlin
;TIME:5110
;Filament used: 2.23287m
;Layer height: 0.15
;MINX:131.148
;MINY:131.499
;MINZ:0.3
;MAXX:169.743
;MAXY:168.498
;MAXZ:31.5
;Generated with Cura_SteamEngine 4.6.0
M140 S80
M105
M190 S80
M104 S250
M105
M109 S250
M82 ;absolute extrusion mode
G28 ; home all axes
 M117 Purge extruder
 G92 E0 ; reset extruder
 G1 Z1.0 F3000 ; move z up little to prevent scratching of surface
 G1 X2 Y20 Z0.3 F5000.0 ; move to start-line position
 G1 X2 Y200.0 Z0.3 F1500.0 E15 ; draw 1st line
 G1 X2 Y200.0 Z0.4 F5000.0 ; move to side a little
 G1 X2 Y20 Z0.4 F1500.0 E30 ; draw 2nd line
 G92 E0 ; reset extruder
 G1 Z1.0 F3000 ; move z up little to prevent scratching of surface
G92 E0
G92 E0
G1 F1500 E-2
;LAYER_COUNT:209
;LAYER:0
M107
G0 F900 X134.245 Y136.673 Z0.3
;TYPE:SKIRT
G1 F1500 E0
G1 F1200 X135.086 Y135.911 E0.06758
G1 X135.194 Y135.821 E0.07595
G1 X136.196 Y135.038 E0.15167
G1 X137.254 Y134.322 E0.22773
G1 X138.234 Y133.75 E0.2953
G1 X138.356 Y133.685 E0.30353
G1 X139.497 Y133.124 E0.37924
G1 X140.676 Y132.641 E0.45511
G1 X141.885 Y132.242 E0.53091
G1 X142.983 Y131.956 E0.59848
G1 X143.124 Y131.934 E0.60697
G1 X143.122 Y131.926 E0.60746
G1 X144.238 Y131.718 E0.67506
G1 X144.373 Y131.698 E0.68319
G1 X145.64 Y131.554 E0.75912
G1 X146.912 Y131.499 E0.83493
G1 X148.043 Y131.523 E0.90229
G1 X148.184 Y131.531 E0.9107
G1 X149.449 Y131.651 E0.98636
G1 X150.571 Y131.83 E1.05401
G1 X150.57 Y131.839 E1.05455
G1 X150.713 Y131.857 E1.06313
G1 X151.949 Y132.151 E1.13878
G1 X153.165 Y132.529 E1.21461
G1 X154.353 Y132.989 E1.29046
G1 X155.38 Y133.465 E1.35787
G1 X155.502 Y133.537 E1.3663
G1 X155.506 Y133.53 E1.36678
G1 X156.618 Y134.148 E1.44253
G1 X157.686 Y134.841 E1.51834
G1 X158.705 Y135.606 E1.59421
G1 X159.565 Y136.345 E1.66173
G1 X159.669 Y136.441 E1.67016
G1 X160.476 Y137.239 E1.73774
G1 X160.57 Y137.339 E1.74591
G1 X161.409 Y138.297 E1.82174
G1 X162.181 Y139.312 E1.89767
G1 X162.879 Y140.376 E1.97344
G1 X163.505 Y141.487 E2.04937
G1 X164.05 Y142.634 E2.12499
G1 X164.47 Y143.687 E2.19249
G1 X164.517 Y143.819 E2.20084
G1 X164.903 Y145.037 E2.27692
G1 X165.201 Y146.272 E2.35256
G1 X165.396 Y147.389 E2.42008
G1 X165.415 Y147.528 E2.42844
G1 X165.542 Y148.797 E2.50437
G1 X165.581 Y150.072 E2.58033
G1 X165.54 Y151.206 E2.6479
G1 X165.53 Y151.34 E2.6559
G1 X165.395 Y152.61 E2.73195
G1 X165.172 Y153.863 E2.80773
G1 X164.864 Y155.097 E2.88346
G1 X164.471 Y156.31 E2.95938
G1 X164.052 Y157.363 E3.02687
G1 X163.996 Y157.49 E3.03513
G1 X163.505 Y158.514 E3.10275
G1 X163.439 Y158.639 E3.11117
G1 X162.807 Y159.742 E3.18686
G1 X162.1 Y160.8 E3.26263
G1 X161.321 Y161.809 E3.33854
G1 X160.475 Y162.762 E3.41442
G1 X159.566 Y163.652 E3.49017
G1 X158.596 Y164.48 E3.5661
G1 X157.572 Y165.237 E3.64193
G1 X156.501 Y165.921 E3.7176
G1 X155.507 Y166.47 E3.78521
G1 X155.505 Y166.466 E3.78548
G1 X155.38 Y166.535 E3.79398
G1 X154.225 Y167.065 E3.86965
G1 X153.033 Y167.516 E3.94554
G1 X151.815 Y167.884 E4.0213
G1 X150.712 Y168.141 E4.08874
G1 X150.572 Y168.159 E4.09714
G1 X150.573 Y168.167 E4.09762
G1 X149.314 Y168.365 E4.17351
G1 X148.043 Y168.476 E4.24948
G1 X146.775 Y168.498 E4.32499
G1 X145.64 Y168.445 E4.39265
G1 X145.498 Y168.433 E4.40114
G1 X144.238 Y168.281 E4.47671
G1 X143.122 Y168.073 E4.5443
G1 X143.124 Y168.062 E4.54497
G1 X142.983 Y168.043 E4.55344
G1 X141.755 Y167.718 E4.62908
G1 X140.543 Y167.309 E4.70525
G1 X139.374 Y166.82 E4.7807
G1 X138.356 Y166.316 E4.84834
G1 X138.23 Y166.248 E4.85686
G1 X137.252 Y165.675 E4.92435
G1 X137.136 Y165.601 E4.93255
G1 X136.085 Y164.879 E5.00847
G1 X135.087 Y164.089 E5.08426
G1 X134.246 Y163.328 E5.1518
G1 X134.145 Y163.229 E5.16022
G1 X133.268 Y162.31 E5.23586
G1 X132.539 Y161.442 E5.30336
G1 X132.43 Y161.3 E5.31401
G1 X132.272 Y161.074 E5.33043
G1 X132.044 Y160.646 E5.35931
G1 X131.961 Y160.432 E5.37298
G1 X131.854 Y160.045 E5.39689
G1 X131.824 Y159.666 E5.41952
G1 X131.826 Y159.546 E5.42667
G1 X131.873 Y159.147 E5.45059
G1 X131.997 Y158.765 E5.47451
G1 X132.195 Y158.415 E5.49845
G1 X132.442 Y158.125 E5.52113
G1 X132.537 Y158.033 E5.52901
G1 X132.852 Y157.784 E5.55292
G1 X133.211 Y157.601 E5.57691
G1 X133.651 Y157.485 E5.60401
G1 X133.685 Y157.48 E5.60605
G1 X133.967 Y157.458 E5.62289
G1 X134.448 Y157.455 E5.65154
G1 X134.475 Y157.455 E5.65314
G1 X135.748 Y157.464 E5.72895
G1 X136.148 Y157.507 E5.7529
G1 X136.539 Y157.631 E5.77733
G1 X136.793 Y157.741 E5.79381
G1 X137.144 Y157.936 E5.81772
G1 X137.376 Y158.124 E5.8355
G1 X137.675 Y158.412 E5.86022
G1 X137.961 Y158.72 E5.88524
G1 X138.613 Y159.354 E5.93939
G1 X139.332 Y159.96 E5.99539
G1 X140.094 Y160.507 E6.05124
G1 X140.902 Y161.002 E6.10766
G1 X141.486 Y161.311 E6.147
G1 X141.725 Y161.426 E6.1628
G1 X142.301 Y161.678 E6.20023
G1 X142.32 Y161.686 E6.20146
G1 X142.58 Y161.789 E6.21811
G1 X142.595 Y161.795 E6.21907
G1 X143.128 Y161.983 E6.25273
G1 X143.482 Y162.094 E6.27482
G1 X143.974 Y162.229 E6.3052
G1 X143.98 Y162.231 E6.30557
G1 X144.389 Y162.327 E6.33059
G1 X144.424 Y162.335 E6.33273
G1 X144.835 Y162.417 E6.35768
G1 X145.328 Y162.495 E6.3874
G1 X145.337 Y162.497 E6.38795
G1 X145.709 Y162.543 E6.41027
G1 X145.723 Y162.545 E6.41111
G1 X146.249 Y162.591 E6.44255
G1 X146.582 Y162.607 E6.4624
G1 X146.593 Y162.608 E6.46306
G1 X147.206 Y162.617 E6.49957
G1 X147.444 Y162.612 E6.51374
G1 X148.365 Y162.552 E6.5687
G1 X149.198 Y162.438 E6.61876
G1 X150.08 Y162.255 E6.6724
G1 X150.916 Y162.02 E6.72411
G1 X151.762 Y161.716 E6.77763
G1 X152.616 Y161.338 E6.83324
G1 X153.434 Y160.899 E6.88852
G1 X154.226 Y160.398 E6.94433
G1 X154.989 Y159.83 E7.00097
G1 X155.517 Y159.382 E7.0422
G1 X155.709 Y159.206 E7.05771
G1 X156.129 Y158.794 E7.09274
G1 X156.336 Y158.575 E7.11068
G1 X156.733 Y158.124 E7.14646
G1 X156.98 Y157.821 E7.16974
G1 X156.985 Y157.815 E7.1702
G1 X157.282 Y157.424 E7.19944
G1 X157.53 Y157.068 E7.22527
G1 X157.538 Y157.058 E7.22603
G1 X157.749 Y156.736 E7.24896
G1 X158.031 Y156.265 E7.28165
G1 X158.218 Y155.928 E7.30459
G1 X158.466 Y155.435 E7.33746
G1 X158.467 Y155.433 E7.33759
G1 X158.604 Y155.137 E7.35701
G1 X158.842 Y154.567 E7.39379
G1 X158.929 Y154.335 E7.40854
G1 X159.207 Y153.478 E7.46219
G1 X159.423 Y152.61 E7.51545
G1 X159.574 Y151.744 E7.5678
G1 X159.666 Y150.875 E7.61983
G1 X159.695 Y149.993 E7.67238
G1 X159.663 Y149.06 E7.72796
G1 X159.558 Y148.118 E7.7844
G1 X159.388 Y147.206 E7.83964
G1 X159.144 Y146.294 E7.89586
G1 X158.931 Y145.659 E7.93574
G1 X158.838 Y145.415 E7.95129
G1 X158.604 Y144.854 E7.98748
G1 X158.455 Y144.533 E8.00855
G1 X158.215 Y144.059 E8.04019
G1 X158.027 Y143.718 E8.06337
G1 X157.772 Y143.293 E8.09289
G1 X157.532 Y142.923 E8.11915
G1 X157.286 Y142.575 E8.14452
G1 X156.974 Y142.164 E8.17525
G1 X156.733 Y141.87 E8.19789
G1 X156.363 Y141.45 E8.23121
G1 X156.135 Y141.209 E8.25097
G1 X155.701 Y140.783 E8.28718
G1 X155.515 Y140.612 E8.30222
G1 X154.825 Y140.035 E8.35578
G1 X154.113 Y139.522 E8.40804
G1 X153.35 Y139.048 E8.46152
G1 X152.576 Y138.64 E8.51362
G1 X151.77 Y138.284 E8.56609
G1 X150.867 Y137.961 E8.62319
G1 X149.975 Y137.715 E8.67829
G1 X149.053 Y137.535 E8.73422
G1 X148.126 Y137.423 E8.78982
G1 X147.448 Y137.384 E8.83026
G1 X147.197 Y137.38 E8.84521
G1 X146.555 Y137.39 E8.88344
G1 X146.257 Y137.405 E8.90121
G1 X145.695 Y137.454 E8.9348
G1 X145.332 Y137.5 E8.95659
G1 X144.82 Y137.582 E8.98746
G1 X144.379 Y137.67 E9.01424
G1 X144.378 Y137.67 E9.0143
G1 X143.959 Y137.77 E9.03995
G1 X143.494 Y137.899 E9.06868
G1 X143.119 Y138.016 E9.09207
G1 X142.568 Y138.212 E9.1269
G1 X142.298 Y138.318 E9.14417
G1 X141.735 Y138.566 E9.1808
G1 X141.491 Y138.684 E9.19694
G1 X140.706 Y139.107 E9.25004
G1 X139.949 Y139.587 E9.30341
G1 X139.249 Y140.101 E9.35512
G1 X138.57 Y140.679 E9.40822
G1 X137.93 Y141.307 E9.46161
G1 X137.584 Y141.686 E9.49216
G1 X137.303 Y141.941 E9.51476
G1 X137.119 Y142.079 E9.52845
G1 X136.775 Y142.287 E9.55239
G1 X136.47 Y142.403 E9.57182
G1 X136.24 Y142.47 E9.58608
G1 X135.673 Y142.551 E9.62019
G1 X133.974 Y142.55 E9.72136
G1 X133.574 Y142.51 E9.74529
G1 X133.145 Y142.372 E9.77213
G1 X133.036 Y142.323 E9.77924
G1 X132.687 Y142.123 E9.80319
G1 X132.385 Y141.857 E9.82716
G1 X132.142 Y141.538 E9.85103
G1 X131.966 Y141.176 E9.875
G1 X131.849 Y140.651 E9.90703
G1 X131.832 Y140.455 E9.91874
G1 X131.837 Y140.053 E9.94268
G1 X131.921 Y139.66 E9.96661
G1 X132.026 Y139.399 E9.98336
G1 X132.156 Y139.13 E10.00115
G1 X132.351 Y138.806 E10.02367
G1 X132.538 Y138.561 E10.04202
G1 X133.359 Y137.588 E10.11783
G1 X134.245 Y136.673 E10.19367
G0 F900 X134.547 Y137.007
G1 F1200 X135.472 Y136.174 E10.26779
G1 X136.449 Y135.41 E10.34164
G1 X137.481 Y134.711 E10.41586
G1 X138.556 Y134.088 E10.48984
G1 X139.67 Y133.54 E10.56377
G1 X140.819 Y133.068 E10.63773
G1 X141.998 Y132.678 E10.71168
G1 X143.096 Y132.392 E10.77924
G1 X143.205 Y132.376 E10.7858
G1 X143.204 Y132.369 E10.78622
G1 X144.426 Y132.145 E10.86019
G1 X145.661 Y132.004 E10.93421
G1 X146.902 Y131.949 E11.00818
G1 X148.143 Y131.98 E11.08209
G1 X149.378 Y132.096 E11.15596
G1 X150.5 Y132.275 E11.22361
G1 X150.499 Y132.282 E11.22403
G1 X150.611 Y132.295 E11.23074
G1 X151.817 Y132.581 E11.30455
G1 X153.004 Y132.949 E11.37854
G1 X154.163 Y133.397 E11.45253
G1 X155.19 Y133.873 E11.51993
G1 X155.284 Y133.93 E11.52648
G1 X155.288 Y133.924 E11.52691
G1 X156.374 Y134.527 E11.60087
G1 X157.417 Y135.202 E11.67485
G1 X158.411 Y135.947 E11.74882
G1 X159.352 Y136.761 E11.8229
G1 X160.233 Y137.637 E11.89688
G1 X161.052 Y138.571 E11.97085
G1 X161.806 Y139.56 E12.0449
G1 X162.488 Y140.599 E12.1189
G1 X163.099 Y141.681 E12.19289
G1 X163.632 Y142.8 E12.2667
G1 X164.089 Y143.956 E12.34071
G1 X164.466 Y145.144 E12.41493
G1 X164.758 Y146.349 E12.48876
G1 X164.968 Y147.575 E12.56282
G1 X165.092 Y148.813 E12.63691
G1 X165.131 Y150.056 E12.71096
G1 X165.083 Y151.294 E12.78473
G1 X164.952 Y152.533 E12.85892
G1 X164.735 Y153.755 E12.93282
G1 X164.435 Y154.96 E13.00676
G1 X164.052 Y156.143 E13.0808
G1 X163.59 Y157.295 E13.15471
G1 X163.048 Y158.416 E13.22885
G1 X162.432 Y159.493 E13.30273
G1 X161.742 Y160.527 E13.37675
G1 X160.984 Y161.511 E13.45071
G1 X160.159 Y162.441 E13.52473
G1 X159.272 Y163.311 E13.59871
G1 X158.327 Y164.119 E13.67275
G1 X157.328 Y164.858 E13.74674
G1 X156.283 Y165.527 E13.82062
G1 X155.289 Y166.076 E13.88824
G1 X155.285 Y166.069 E13.88872
G1 X155.19 Y166.127 E13.89534
G1 X154.064 Y166.645 E13.96915
G1 X152.901 Y167.086 E14.04321
G1 X151.712 Y167.446 E14.11718
G1 X150.609 Y167.703 E14.18462
G1 X150.5 Y167.716 E14.19115
G1 X150.501 Y167.723 E14.19157
G1 X149.273 Y167.916 E14.26559
G1 X148.033 Y168.026 E14.33972
G1 X146.796 Y168.048 E14.41339
G1 X145.55 Y167.986 E14.48767
G1 X144.32 Y167.838 E14.56144
G1 X143.204 Y167.63 E14.62903
G1 X143.206 Y167.622 E14.62953
G1 X143.096 Y167.607 E14.63614
G1 X141.897 Y167.291 E14.70997
G1 X140.716 Y166.893 E14.78418
G1 X139.573 Y166.416 E14.85792
G1 X138.458 Y165.86 E14.93211
G1 X137.389 Y165.229 E15.00603
G1 X136.363 Y164.526 E15.08009
G1 X135.389 Y163.755 E15.15405
G1 X134.469 Y162.917 E15.22815
G1 X133.613 Y162.021 E15.30194
G1 X132.884 Y161.153 E15.36943
G1 X132.799 Y161.042 E15.37776
G1 X132.641 Y160.816 E15.39418
G1 X132.464 Y160.484 E15.41658
G1 X132.381 Y160.27 E15.43025
G1 X132.29 Y159.927 E15.45138
G1 X132.274 Y159.674 E15.46647
G1 X132.276 Y159.554 E15.47362
G1 X132.322 Y159.202 E15.49476
G1 X132.445 Y158.87 E15.51584
G1 X132.755 Y158.449 E15.54697
G1 X132.85 Y158.357 E15.55485
G1 X133.131 Y158.14 E15.57599
G1 X133.453 Y157.992 E15.59709
G1 X133.717 Y157.93 E15.61324
G1 X133.751 Y157.925 E15.61528
G1 X133.97 Y157.908 E15.62836
G1 X134.451 Y157.905 E15.657
G1 X134.472 Y157.905 E15.65825
G1 X135.745 Y157.914 E15.73406
G1 X136.097 Y157.956 E15.75516
G1 X136.36 Y158.044 E15.77168
G1 X136.614 Y158.154 E15.78816
G1 X136.921 Y158.33 E15.80923
G1 X137.067 Y158.452 E15.82056
G1 X137.345 Y158.718 E15.84347
G1 X137.625 Y159.02 E15.86799
G1 X138.32 Y159.696 E15.92572
G1 X139.056 Y160.315 E15.98299
G1 X139.849 Y160.884 E16.0411
G1 X140.671 Y161.388 E16.09852
G1 X141.281 Y161.711 E16.13962
G1 X141.54 Y161.836 E16.15674
G1 X142.121 Y162.09 E16.1945
G1 X142.42 Y162.209 E16.21366
G1 X142.452 Y162.221 E16.21569
G1 X142.978 Y162.407 E16.24892
G1 X143.36 Y162.527 E16.27276
G1 X143.366 Y162.529 E16.27313
G1 X143.855 Y162.663 E16.30332
G1 X143.865 Y162.666 E16.30395
G1 X144.297 Y162.768 E16.33038
G1 X144.31 Y162.771 E16.33117
G1 X144.749 Y162.858 E16.35782
G1 X144.767 Y162.862 E16.35892
G1 X145.257 Y162.94 E16.38846
G1 X145.27 Y162.942 E16.38925
G1 X145.653 Y162.99 E16.41223
G1 X145.662 Y162.991 E16.41277
G1 X146.226 Y163.04 E16.44648
G1 X146.24 Y163.041 E16.44731
G1 X146.56 Y163.057 E16.46639
G1 X146.568 Y163.058 E16.46687
G1 X147.199 Y163.067 E16.50445
G1 X147.205 Y163.067 E16.50481
G1 X147.475 Y163.061 E16.52089
G1 X147.48 Y163.061 E16.52118
G1 X148.396 Y163.001 E16.57584
G1 X149.295 Y162.878 E16.62987
G1 X150.178 Y162.695 E16.68357
G1 X151.059 Y162.447 E16.73807
G1 X151.064 Y162.445 E16.73839
G1 X151.917 Y162.139 E16.79235
G1 X152.82 Y161.739 E16.85116
G1 X153.66 Y161.288 E16.90793
G1 X154.477 Y160.772 E16.96546
G1 X155.28 Y160.175 E17.02505
G1 X155.809 Y159.725 E17.0664
G1 X156.013 Y159.538 E17.08288
G1 X156.456 Y159.102 E17.11989
G1 X156.476 Y159.082 E17.12157
G1 X156.667 Y158.881 E17.13808
G1 X156.671 Y158.876 E17.13846
G1 X157.077 Y158.414 E17.17509
G1 X157.089 Y158.4 E17.17619
G1 X157.329 Y158.106 E17.19878
G1 X157.64 Y157.696 E17.22943
G1 X157.648 Y157.687 E17.23014
G1 X157.9 Y157.326 E17.25636
G1 X157.906 Y157.316 E17.25705
G1 X158.13 Y156.976 E17.2813
G1 X158.417 Y156.496 E17.3146
G1 X158.43 Y156.475 E17.31607
G1 X158.612 Y156.146 E17.33846
G1 X158.617 Y156.138 E17.33902
G1 X158.868 Y155.638 E17.37233
G1 X158.879 Y155.616 E17.37379
G1 X159.001 Y155.351 E17.39117
G1 X159.257 Y154.74 E17.43061
G1 X159.26 Y154.731 E17.43118
G1 X159.354 Y154.481 E17.44708
G1 X159.642 Y153.597 E17.50244
G1 X159.862 Y152.712 E17.55674
G1 X159.863 Y152.709 E17.55693
G1 X160.02 Y151.811 E17.61121
G1 X160.02 Y151.809 E17.61133
G1 X160.115 Y150.909 E17.66522
G1 X160.146 Y149.987 E17.72015
G1 X160.112 Y149.021 E17.77771
G1 X160.006 Y148.065 E17.83498
G1 X159.828 Y147.113 E17.89265
G1 X159.57 Y146.148 E17.95213
G1 X159.355 Y145.508 E17.99233
G1 X159.261 Y145.261 E18.00806
G1 X159.012 Y144.662 E18.04669
G1 X158.872 Y144.362 E18.0664
G1 X158.608 Y143.841 E18.10118
G1 X158.417 Y143.493 E18.12482
G1 X158.157 Y143.06 E18.15489
G1 X157.902 Y142.668 E18.18274
G1 X157.642 Y142.299 E18.20962
G1 X157.334 Y141.894 E18.23991
G1 X157.074 Y141.576 E18.26437
G1 X156.696 Y141.147 E18.29842
G1 X156.459 Y140.897 E18.31893
G1 X156.022 Y140.468 E18.35539
G1 X155.801 Y140.265 E18.37326
G1 X155.103 Y139.681 E18.42745
G1 X154.352 Y139.139 E18.4826
G1 X153.586 Y138.664 E18.53627
G1 X152.767 Y138.232 E18.59141
G1 X151.936 Y137.866 E18.64547
G1 X151.005 Y137.532 E18.70437
G1 X150.091 Y137.28 E18.76082
G1 X149.124 Y137.091 E18.81949
G1 X148.142 Y136.973 E18.87839
G1 X147.482 Y136.935 E18.91775
G1 X147.199 Y136.929 E18.93461
G1 X146.551 Y136.94 E18.9732
G1 X146.224 Y136.957 E18.99269
G1 X145.652 Y137.007 E19.02688
G1 X145.234 Y137.06 E19.05197
G1 X144.74 Y137.138 E19.08175
G1 X144.293 Y137.228 E19.1089
G1 X143.869 Y137.328 E19.13484
G1 X143.335 Y137.477 E19.16785
G1 X142.984 Y137.586 E19.18974
G1 X142.429 Y137.784 E19.22482
G1 X142.112 Y137.909 E19.24511
G1 X141.548 Y138.156 E19.28178
G1 X141.292 Y138.28 E19.29871
G1 X140.464 Y138.726 E19.35471
G1 X139.704 Y139.208 E19.4083
G1 X138.965 Y139.752 E19.46294
G1 X138.266 Y140.346 E19.51756
G1 X137.618 Y140.982 E19.57163
G1 X137.252 Y141.383 E19.60396
G1 X137.033 Y141.581 E19.62153
G1 X136.849 Y141.719 E19.63523
G1 X136.543 Y141.898 E19.65634
G1 X136.344 Y141.971 E19.66896
G1 X136.114 Y142.038 E19.68323
G1 X135.673 Y142.101 E19.70975
G1 X133.974 Y142.1 E19.81092
G1 X133.622 Y142.06 E19.83201
G1 X133.329 Y141.962 E19.85041
G1 X133.22 Y141.913 E19.85752
G1 X132.915 Y141.732 E19.87864
G1 X132.659 Y141.487 E19.89974
G1 X132.463 Y141.192 E19.92083
G1 X132.339 Y140.86 E19.94193
G1 X132.297 Y140.612 E19.95691
G1 X132.28 Y140.416 E19.96863
G1 X132.289 Y140.062 E19.98971
G1 X132.431 Y139.595 E20.01878
G1 X132.561 Y139.326 E20.03657
