;FLAVOR:Marlin
;TIME:4299
;Filament used: 2.72515m
;Layer height: 0.16
;MINX:129.092
;MINY:128.692
;MINZ:0.3
;MAXX:171.373
;MAXY:171.312
;MAXZ:39.66
;Generated with Cura_SteamEngine 4.6.0
M140 S60
M105
M190 S60
M104 S200
M105
M109 S200
M82 ;absolute extrusion mode
G28 ; home all axes
 M117 Purge extruder
 G92 E0 ; reset extruder
 G1 Z1.0 F3000 ; move z up little to prevent scratching of surface
 G1 X2 Y20 Z0.3 F5000.0 ; move to start-line position
 G1 X2 Y200.0 Z0.3 F1500.0 E15 ; draw 1st line
 G1 X2 Y200.0 Z0.4 F5000.0 ; move to side a little
 G1 X2 Y20 Z0.4 F1500.0 E30 ; draw 2nd line
 G92 E0 ; reset extruder
 G1 Z1.0 F3000 ; move z up little to prevent scratching of surface
G92 E0
G92 E0
G1 F1500 E-2
;LAYER_COUNT:247
;LAYER:0
M107
G0 F12000 X146.699 Y130.093 Z0.3
;TYPE:SKIRT
G1 F1500 E0
G1 F1200 X147.446 Y130.146 E0.04297
G1 X148.054 Y130.204 E0.07801
G1 X148.175 Y130.22 E0.08501
G1 X148.853 Y130.319 E0.12432
G1 X149.467 Y130.426 E0.16008
G1 X150.348 Y130.618 E0.21181
G1 X150.909 Y130.759 E0.245
G1 X151.722 Y130.998 E0.29362
G1 X152.111 Y131.124 E0.31708
G1 X152.282 Y131.185 E0.3275
G1 X152.283 Y131.185 E0.32755
G1 X153.144 Y131.51 E0.38035
G1 X153.699 Y131.74 E0.41482
G1 X153.815 Y131.795 E0.42219
G1 X154.406 Y132.067 E0.45951
G1 X154.909 Y132.319 E0.49179
G1 X155.721 Y132.768 E0.54503
G1 X156.148 Y133.023 E0.57356
G1 X157.046 Y133.61 E0.63512
G1 X157.396 Y133.854 E0.65959
G1 X158.092 Y134.384 E0.70979
G1 X158.388 Y134.621 E0.73154
G1 X159.266 Y135.392 E0.79858
G1 X159.684 Y135.785 E0.8315
G1 X160.145 Y136.258 E0.86939
G1 X160.66 Y136.816 E0.91296
G1 X161.106 Y137.344 E0.95261
G1 X161.412 Y137.724 E0.98061
G1 X161.517 Y137.867 E0.99078
G1 X161.518 Y137.866 E0.99087
G1 X162.09 Y138.65 E1.04655
G1 X162.305 Y138.961 E1.06824
G1 X162.822 Y139.786 E1.1241
G1 X163.118 Y140.295 E1.15788
G1 X163.514 Y141.047 E1.20664
G1 X163.732 Y141.486 E1.23476
G1 X163.813 Y141.662 E1.24588
G1 X163.888 Y141.84 E1.25696
G1 X164.136 Y142.406 E1.29241
G1 X164.283 Y142.767 E1.31478
G1 X164.35 Y142.945 E1.32569
G1 X164.401 Y143.095 E1.33478
G1 X164.634 Y143.754 E1.37488
G1 X164.773 Y144.181 E1.40065
G1 X164.844 Y144.429 E1.41545
G1 X165.025 Y145.089 E1.45471
G1 X165.199 Y145.822 E1.49794
G1 X165.33 Y146.504 E1.53778
G1 X165.465 Y147.348 E1.58682
G1 X165.53 Y147.911 E1.61933
G1 X165.582 Y148.45 E1.6504
G1 X165.628 Y149.341 E1.70159
G1 X165.642 Y149.996 E1.73918
G1 X165.631 Y150.65 E1.77671
G1 X165.59 Y151.448 E1.82255
G1 X165.54 Y152.021 E1.85555
G1 X165.43 Y152.903 E1.90655
G1 X165.37 Y153.291 E1.92907
G1 X165.32 Y153.569 E1.94528
G1 X165.188 Y154.238 E1.9844
G1 X165.176 Y154.236 E1.9851
G1 X165.159 Y154.373 E1.99302
G1 X165.018 Y154.95 E2.0271
G1 X164.804 Y155.717 E2.07279
G1 X164.617 Y156.307 E2.1083
G1 X164.334 Y157.104 E2.15682
G1 X164.085 Y157.724 E2.19515
G1 X163.77 Y158.437 E2.23987
G1 X163.505 Y158.98 E2.27454
G1 X163.099 Y159.743 E2.32413
G1 X162.787 Y160.278 E2.35966
G1 X162.362 Y160.955 E2.40552
G1 X162.02 Y161.458 E2.44042
G1 X161.519 Y162.141 E2.48902
G1 X161.124 Y162.637 E2.5254
G1 X160.595 Y163.257 E2.57216
G1 X160.334 Y163.547 E2.59454
G1 X160.146 Y163.744 E2.61017
G1 X159.575 Y164.321 E2.65674
G1 X159.136 Y164.733 E2.69128
G1 X158.535 Y165.259 E2.73711
G1 X158.02 Y165.677 E2.77516
G1 X157.389 Y166.154 E2.82054
G1 X156.855 Y166.526 E2.85788
G1 X156.16 Y166.975 E2.90535
G1 X155.609 Y167.301 E2.94209
G1 X154.924 Y167.676 E2.98689
G1 X154.347 Y167.964 E3.02389
G1 X153.611 Y168.3 E3.07031
G1 X153.025 Y168.542 E3.10668
G1 X152.226 Y168.839 E3.15559
G1 X151.639 Y169.031 E3.19102
G1 X150.871 Y169.255 E3.23692
G1 X150.288 Y169.401 E3.27141
G1 X149.545 Y169.562 E3.31502
G1 X149.456 Y169.574 E3.32018
G1 X149.457 Y169.579 E3.32047
G1 X149.088 Y169.646 E3.34199
G1 X148.806 Y169.691 E3.35837
G1 X148.044 Y169.796 E3.4025
G1 X147.599 Y169.845 E3.42819
G1 X147.434 Y169.858 E3.43768
G1 X147.4 Y169.86 E3.43964
G1 X146.579 Y169.915 E3.48685
G1 X146.221 Y169.929 E3.5074
G1 X145.94 Y169.932 E3.52353
G1 X145.159 Y169.926 E3.56834
G1 X144.54 Y169.899 E3.60388
G1 X143.696 Y169.832 E3.65246
G1 X143.083 Y169.759 E3.68788
G1 X142.23 Y169.628 E3.73739
G1 X141.637 Y169.513 E3.77205
G1 X140.917 Y169.349 E3.81442
G1 X140.917 Y169.347 E3.81453
G1 X140.822 Y169.327 E3.8201
G1 X140.49 Y169.24 E3.83979
G1 X140.197 Y169.156 E3.85728
G1 X139.484 Y168.937 E3.90007
G1 X138.86 Y168.72 E3.93798
G1 X138.048 Y168.404 E3.98797
G1 X137.511 Y168.169 E4.0216
G1 X136.792 Y167.828 E4.06725
G1 X136.191 Y167.514 E4.10616
G1 X135.514 Y167.13 E4.15081
G1 X134.995 Y166.81 E4.1858
G1 X134.284 Y166.337 E4.23479
G1 X133.753 Y165.951 E4.27246
G1 X132.94 Y165.308 E4.33193
G1 X132.629 Y165.04 E4.35548
G1 X132.05 Y164.515 E4.40032
G1 X131.888 Y164.358 E4.41327
G1 X131.651 Y164.111 E4.4329
G1 X131.654 Y164.108 E4.43315
G1 X131.345 Y163.742 E4.46063
G1 X131.219 Y163.565 E4.4731
G1 X131.08 Y163.354 E4.48759
G1 X130.948 Y163.134 E4.50231
G1 X130.722 Y162.679 E4.53146
G1 X130.545 Y162.075 E4.56757
G1 X130.522 Y161.954 E4.57464
G1 X130.466 Y161.449 E4.60379
G1 X130.482 Y161.017 E4.62859
G1 X130.609 Y159.797 E4.69897
G1 X130.851 Y157.078 E4.85558
G1 X131.019 Y154.33 E5.01354
G1 X131.107 Y151.615 E5.16939
G1 X131.119 Y148.863 E5.32728
G1 X131.054 Y146.148 E5.4831
G1 X130.907 Y143.351 E5.64379
G1 X130.69 Y140.676 E5.79777
G1 X130.59 Y139.749 E5.85127
G1 X130.586 Y139.715 E5.85323
G1 X130.516 Y138.997 E5.89462
G1 X130.499 Y138.662 E5.91387
G1 X130.522 Y138.155 E5.94298
G1 X130.625 Y137.658 E5.9721
G1 X130.894 Y137.007 E6.01252
G1 X131.031 Y136.757 E6.02887
G1 X131.39 Y136.232 E6.06536
G1 X131.762 Y135.789 E6.09855
G1 X131.979 Y135.555 E6.11686
G1 X132.265 Y135.282 E6.13955
G1 X132.513 Y135.062 E6.15857
G1 X132.514 Y135.064 E6.1587
G1 X132.579 Y135.002 E6.16385
G1 X133.16 Y134.513 E6.20742
G1 X133.693 Y134.096 E6.24625
G1 X134.313 Y133.647 E6.29017
G1 X135.066 Y133.149 E6.34196
G1 X135.514 Y132.873 E6.37215
G1 X136.371 Y132.392 E6.42854
G1 X136.648 Y132.244 E6.44656
G1 X136.837 Y132.151 E6.45864
G1 X137.06 Y132.05 E6.47269
G1 X137.64 Y131.776 E6.50949
G1 X137.954 Y131.638 E6.52917
G1 X138.102 Y131.581 E6.53827
G1 X138.101 Y131.578 E6.53845
G1 X138.955 Y131.25 E6.59094
G1 X139.486 Y131.065 E6.6232
G1 X140.332 Y130.809 E6.67391
G1 X140.919 Y130.651 E6.70879
G1 X141.7 Y130.476 E6.75471
G1 X142.221 Y130.373 E6.78518
G1 X142.221 Y130.374 E6.78523
G1 X142.381 Y130.346 E6.79455
G1 X143.076 Y130.244 E6.83485
G1 X143.927 Y130.145 E6.88401
G1 X144.396 Y130.113 E6.91098
G1 X144.396 Y130.114 E6.91104
G1 X144.503 Y130.106 E6.91719
G1 X145.269 Y130.073 E6.96118
G1 X145.401 Y130.074 E6.96876
G1 X145.985 Y130.072 E7.00226
G1 X146.699 Y130.093 E7.04324
G0 F12000 X143.604 Y129.714
G1 F1200 X143.896 Y129.687 E7.06007
G1 X144.303 Y129.659 E7.08348
G1 X144.48 Y129.647 E7.09365
G1 X145.065 Y129.618 E7.12726
G1 X145.995 Y129.612 E7.18062
G1 X146.532 Y129.624 E7.21144
G1 X146.734 Y129.634 E7.22304
G1 X147.489 Y129.688 E7.26647
G1 X148.107 Y129.747 E7.30208
G1 X148.241 Y129.764 E7.30983
G1 X148.929 Y129.865 E7.34973
G1 X149.564 Y129.977 E7.38673
G1 X150.458 Y130.172 E7.43922
G1 X151.038 Y130.318 E7.47354
G1 X151.864 Y130.561 E7.52294
G1 X152.253 Y130.687 E7.5464
G1 X152.445 Y130.755 E7.55808
G1 X153.316 Y131.083 E7.61148
G1 X153.699 Y131.238 E7.63519
G1 X154.61 Y131.655 E7.69267
G1 X155.131 Y131.916 E7.7261
G1 X155.954 Y132.371 E7.78006
G1 X156.399 Y132.637 E7.8098
G1 X157.307 Y133.231 E7.87205
G1 X157.674 Y133.488 E7.89776
G1 X158.379 Y134.025 E7.94861
G1 X158.675 Y134.262 E7.97036
G1 X158.841 Y134.402 E7.98282
G1 X158.984 Y134.531 E7.99387
G1 X159.579 Y135.055 E8.03936
G1 X160.013 Y135.463 E8.07353
G1 X160.481 Y135.944 E8.11204
G1 X161.011 Y136.518 E8.15686
G1 X161.464 Y137.056 E8.19721
G1 X161.77 Y137.436 E8.22521
G1 X161.887 Y137.596 E8.23658
G1 X161.89 Y137.594 E8.23679
G1 X162.468 Y138.389 E8.29318
G1 X162.683 Y138.7 E8.31487
G1 X162.834 Y138.937 E8.33099
G1 X163.217 Y139.551 E8.37251
G1 X163.525 Y140.08 E8.40763
G1 X163.926 Y140.843 E8.45709
G1 X164.144 Y141.282 E8.48521
G1 X164.236 Y141.482 E8.49784
G1 X164.309 Y141.654 E8.50856
G1 X164.563 Y142.232 E8.54478
G1 X164.71 Y142.593 E8.56715
G1 X165.072 Y143.612 E8.62919
G1 X165.211 Y144.039 E8.65495
G1 X165.471 Y144.979 E8.71091
G1 X165.63 Y145.633 E8.74952
G1 X165.651 Y145.734 E8.75544
G1 X165.784 Y146.427 E8.79593
G1 X165.922 Y147.296 E8.84641
G1 X165.988 Y147.867 E8.87939
G1 X166.04 Y148.406 E8.91046
G1 X166.088 Y149.331 E8.9636
G1 X166.102 Y149.998 E9.00188
G1 X166.09 Y150.673 E9.04061
G1 X166.049 Y151.484 E9.0872
G1 X165.996 Y152.077 E9.12136
G1 X165.885 Y152.971 E9.17304
G1 X165.823 Y153.372 E9.19632
G1 X165.771 Y153.658 E9.213
G1 X165.639 Y154.327 E9.25212
G1 X165.629 Y154.325 E9.25271
G1 X165.606 Y154.481 E9.26176
G1 X165.461 Y155.073 E9.29673
G1 X165.244 Y155.851 E9.34307
G1 X165.051 Y156.461 E9.37977
G1 X164.763 Y157.269 E9.42899
G1 X164.506 Y157.909 E9.46856
G1 X164.184 Y158.637 E9.51423
G1 X163.912 Y159.195 E9.54985
G1 X163.497 Y159.974 E9.60049
G1 X163.177 Y160.523 E9.63694
G1 X162.745 Y161.209 E9.68346
G1 X162.391 Y161.73 E9.7196
G1 X161.883 Y162.422 E9.76885
G1 X161.475 Y162.935 E9.80645
G1 X160.937 Y163.564 E9.85394
G1 X160.667 Y163.863 E9.87706
G1 X160.473 Y164.067 E9.89321
G1 X159.891 Y164.655 E9.94067
G1 X159.439 Y165.078 E9.97619
G1 X158.829 Y165.613 E10.02274
G1 X158.299 Y166.043 E10.0619
G1 X157.657 Y166.529 E10.1081
G1 X157.105 Y166.912 E10.14665
G1 X156.4 Y167.368 E10.19482
G1 X155.831 Y167.704 E10.23273
G1 X155.135 Y168.085 E10.27825
G1 X154.538 Y168.383 E10.31654
G1 X153.791 Y168.723 E10.36363
G1 X153.187 Y168.973 E10.40113
G1 X152.37 Y169.276 E10.45112
G1 X151.768 Y169.472 E10.48745
G1 X150.989 Y169.699 E10.534
G1 X150.385 Y169.85 E10.56972
G1 X149.642 Y170.011 E10.61334
G1 X149.541 Y170.025 E10.61919
G1 X149.542 Y170.031 E10.61954
G1 X149.16 Y170.101 E10.64182
G1 X148.87 Y170.146 E10.65866
G1 X148.096 Y170.253 E10.70349
G1 X147.635 Y170.304 E10.7301
G1 X147.47 Y170.317 E10.73959
G1 X147.431 Y170.319 E10.74183
G1 X146.597 Y170.375 E10.78979
G1 X146.227 Y170.389 E10.81104
G1 X145.938 Y170.392 E10.82762
G1 X145.144 Y170.386 E10.87317
G1 X144.504 Y170.358 E10.90993
G1 X143.649 Y170.289 E10.95914
G1 X143.014 Y170.214 E10.99583
G1 X142.144 Y170.08 E11.04633
G1 X141.534 Y169.962 E11.08198
G1 X140.814 Y169.798 E11.12434
G1 X140.816 Y169.79 E11.12482
G1 X140.707 Y169.773 E11.13115
G1 X140.364 Y169.683 E11.15149
G1 X140.062 Y169.596 E11.16952
G1 X139.337 Y169.373 E11.21304
G1 X138.695 Y169.149 E11.25205
G1 X137.865 Y168.826 E11.30315
G1 X137.314 Y168.585 E11.33766
G1 X136.584 Y168.238 E11.38403
G1 X136.203 Y168.044 E11.40856
G1 X135.965 Y167.914 E11.42412
G1 X135.276 Y167.523 E11.46957
G1 X134.741 Y167.193 E11.50564
G1 X134.018 Y166.712 E11.55546
G1 X133.721 Y166.501 E11.57636
G1 X133.471 Y166.314 E11.59428
G1 X132.64 Y165.657 E11.65505
G1 X132.35 Y165.407 E11.67702
G1 X132.285 Y165.349 E11.68202
G1 X131.741 Y164.856 E11.72414
G1 X131.556 Y164.677 E11.73891
G1 X131.319 Y164.43 E11.75855
G1 X131.323 Y164.426 E11.75887
G1 X130.97 Y164.009 E11.79022
G1 X130.844 Y163.832 E11.80269
G1 X130.686 Y163.59 E11.81927
G1 X130.554 Y163.37 E11.83399
G1 X130.31 Y162.886 E11.86509
G1 X130.093 Y162.161 E11.9085
G1 X130.07 Y162.04 E11.91557
G1 X130.008 Y161.501 E11.9467
G1 X130.025 Y160.969 E11.97724
G1 X130.152 Y159.749 E12.04761
G1 X130.393 Y157.047 E12.20325
G1 X130.559 Y154.322 E12.35988
G1 X130.647 Y151.598 E12.51625
G1 X130.659 Y148.872 E12.67265
G1 X130.593 Y146.148 E12.82899
G1 X130.451 Y143.427 E12.98531
G1 X130.232 Y140.725 E13.14084
G1 X130.132 Y139.799 E13.19428
G1 X130.058 Y139.042 E13.23792
G1 X130.039 Y138.677 E13.25889
G1 X130.061 Y138.135 E13.29001
G1 X130.163 Y137.601 E13.3212
G1 X130.343 Y137.089 E13.35234
G1 X130.491 Y136.786 E13.37169
G1 X130.628 Y136.536 E13.38805
G1 X131.038 Y135.936 E13.42974
G1 X131.41 Y135.493 E13.46293
G1 X131.658 Y135.226 E13.48384
G1 X131.959 Y134.938 E13.50774
G1 X132.207 Y134.718 E13.52676
G1 X132.209 Y134.72 E13.52692
G1 X132.282 Y134.65 E13.53272
G1 X132.872 Y134.154 E13.57695
G1 X133.422 Y133.724 E13.617
G1 X134.058 Y133.264 E13.66203
G1 X134.822 Y132.759 E13.71458
G1 X135.289 Y132.473 E13.746
G1 X136.154 Y131.986 E13.80295
G1 X136.431 Y131.838 E13.82097
G1 X136.648 Y131.732 E13.83482
G1 X136.823 Y131.653 E13.84584
G1 X137.455 Y131.355 E13.88593
G1 X137.769 Y131.217 E13.90561
G1 X137.937 Y131.152 E13.91594
G1 X137.936 Y131.149 E13.91612
G1 X138.801 Y130.817 E13.96928
G1 X139.249 Y130.658 E13.99656
G1 X139.352 Y130.625 E14.00276
G1 X140.21 Y130.365 E14.0542
G1 X140.818 Y130.203 E14.0903
G1 X141.61 Y130.025 E14.13687
G1 X142.314 Y129.89 E14.178
G1 X142.938 Y129.798 E14.21419
G1 X143.604 Y129.714 E14.2527
G0 F12000 X143.547 Y129.258
G1 F1200 X143.865 Y129.228 E14.27103
G1 X144.277 Y129.2 E14.29472
G1 X144.458 Y129.187 E14.30513
G1 X145.043 Y129.158 E14.33874
G1 X146.006 Y129.152 E14.39399
G1 X146.543 Y129.164 E14.42481
G1 X146.769 Y129.175 E14.43779
G1 X147.533 Y129.23 E14.48173
G1 X148.16 Y129.29 E14.51787
G1 X148.307 Y129.309 E14.52638
G1 X149.006 Y129.412 E14.56691
G1 X149.662 Y129.527 E14.60513
G1 X150.568 Y129.725 E14.65833
G1 X151.167 Y129.876 E14.69377
G1 X152.006 Y130.123 E14.74395
G1 X152.395 Y130.249 E14.76741
G1 X152.607 Y130.324 E14.78032
G1 X153.489 Y130.657 E14.83441
G1 X153.872 Y130.812 E14.85811
G1 X154.814 Y131.242 E14.91752
G1 X155.353 Y131.513 E14.95214
G1 X156.187 Y131.974 E15.00681
G1 X156.485 Y132.149 E15.02664
G1 X156.65 Y132.252 E15.0378
G1 X157.567 Y132.852 E15.10067
G1 X157.952 Y133.121 E15.12762
G1 X158.667 Y133.665 E15.17916
G1 X158.963 Y133.902 E15.20092
G1 X159.891 Y134.718 E15.27182
G1 X160.341 Y135.142 E15.30729
G1 X160.818 Y135.63 E15.34644
G1 X161.23 Y136.072 E15.38111
G1 X161.362 Y136.221 E15.39253
G1 X161.822 Y136.767 E15.43349
G1 X162.128 Y137.147 E15.46148
G1 X162.259 Y137.325 E15.47416
G1 X162.261 Y137.323 E15.47432
G1 X162.847 Y138.127 E15.53141
G1 X163.062 Y138.438 E15.5531
G1 X163.613 Y139.317 E15.61262
G1 X163.832 Y139.687 E15.63729
G1 X163.932 Y139.866 E15.64905
G1 X164.338 Y140.638 E15.69909
G1 X164.556 Y141.077 E15.72722
G1 X164.66 Y141.303 E15.74149
G1 X164.753 Y141.522 E15.75514
G1 X164.989 Y142.059 E15.78879
G1 X165.136 Y142.42 E15.81116
G1 X165.509 Y143.469 E15.87503
G1 X165.648 Y143.896 E15.9008
G1 X165.722 Y144.149 E15.91592
G1 X165.729 Y144.178 E15.91763
G1 X165.918 Y144.868 E15.95868
G1 X166.081 Y145.54 E15.99835
G1 X166.103 Y145.647 E16.00462
G1 X166.237 Y146.35 E16.04568
G1 X166.379 Y147.244 E16.09761
G1 X166.446 Y147.822 E16.131
G1 X166.498 Y148.361 E16.16207
G1 X166.548 Y149.32 E16.21716
G1 X166.562 Y149.999 E16.25613
G1 X166.55 Y150.696 E16.29612
G1 X166.507 Y151.52 E16.34346
G1 X166.453 Y152.133 E16.37877
G1 X166.34 Y153.04 E16.43121
G1 X166.276 Y153.454 E16.45525
G1 X166.223 Y153.747 E16.47233
G1 X166.091 Y154.416 E16.51145
G1 X166.083 Y154.414 E16.51192
G1 X166.053 Y154.59 E16.52217
G1 X165.904 Y155.196 E16.55797
G1 X165.684 Y155.985 E16.60497
G1 X165.485 Y156.614 E16.64282
G1 X165.192 Y157.435 E16.69283
G1 X165.046 Y157.811 E16.71597
G1 X164.927 Y158.094 E16.73359
G1 X164.598 Y158.837 E16.78021
G1 X164.318 Y159.41 E16.8168
G1 X163.896 Y160.204 E16.86839
G1 X163.567 Y160.767 E16.9058
G1 X163.129 Y161.463 E16.95298
G1 X162.762 Y162.002 E16.99039
G1 X162.247 Y162.704 E17.04035
G1 X161.825 Y163.233 E17.07917
G1 X161.28 Y163.872 E17.12736
G1 X160.801 Y164.389 E17.16779
G1 X160.207 Y164.99 E17.21627
G1 X159.743 Y165.424 E17.25273
G1 X159.123 Y165.966 E17.29997
G1 X158.577 Y166.409 E17.34031
G1 X157.924 Y166.903 E17.38729
G1 X157.356 Y167.298 E17.42698
G1 X156.639 Y167.761 E17.47595
G1 X156.053 Y168.107 E17.515
G1 X155.346 Y168.494 E17.56124
G1 X154.73 Y168.801 E17.60073
G1 X153.972 Y169.147 E17.64853
G1 X153.348 Y169.403 E17.68723
G1 X152.514 Y169.713 E17.73828
G1 X151.898 Y169.913 E17.77544
G1 X151.107 Y170.144 E17.82272
G1 X150.483 Y170.3 E17.85962
G1 X149.74 Y170.461 E17.90324
G1 X149.626 Y170.477 E17.90984
G1 X149.627 Y170.483 E17.91019
G1 X149.231 Y170.555 E17.93328
G1 X148.934 Y170.602 E17.95054
G1 X148.148 Y170.711 E17.99606
G1 X147.506 Y170.775 E18.03308
G1 X146.616 Y170.835 E18.08426
G1 X145.935 Y170.852 E18.12334
